thanhndv212/figaroh-plus/examples/tiago/data/identification/dynamic/tiago_position.csv
t,- torso_lift_joint_position,- arm_1_joint_position,- arm_2_joint_position,- arm_3_joint_position,- arm_4_joint_position,- arm_5_joint_position,- arm_6_joint_position,- arm_7_joint_position
0.0,0.059777934162170615,0.06999127460154318,0.042825847614689605,-0.029731817992299313,0.005290374926751459,-3.981080735586742e-05,0.05007320606840884,-3.981080735586742e-05
0.010879278182983398,0.059777934162170615,0.06999127460154318,0.04281050760333799,-0.029731817992299313,0.005290374926751459,-3.981080735586742e-05,0.05008690244708632,-2.6114428678388618e-05
0.020119190216064453,0.059777934162170615,0.06999127460154318,0.04281050760333799,-0.029731817992299313,0.005290374926751459,-3.981080735586742e-05,0.05008233698752716,-2.1548969119229017e-05
0.030049562454223633,0.059777934162170615,0.06999127460154318,0.04281050760333799,-0.029731817992299313,0.005290374926751459,-3.981080735586742e-05,0.050064075149290524,-1.2418050000913283e-05
0.041031837463378906,0.059777934162170615,0.06999127460154318,0.04281050760333799,-0.029731817992299313,0.005290374926751459,-3.981080735586742e-05,0.05003668239193557,5.843788235721653e-06
0.05031299591064453,0.059777934162170615,0.06999127460154318,0.04279516759198637,-0.029731817992299313,0.005290374926751459,-3.067988823755169e-05,0.050045813311053886,-3.981080735587089e-05
0.06014227867126465,0.059777934162170615,0.06999127460154318,0.04279516759198637,-0.029731817992299313,0.005290374926751459,-1.2418050000913283e-05,0.05008690244708632,-7.176902426998463e-05
0.07042145729064941,0.059777934162170615,0.06999127460154318,0.04279516759198637,-0.029731817992299313,0.005290374926751459,-2.1548969119232486e-05,0.05010516428532296,-5.350718603334623e-05
0.08059215545654297,0.059777934162170615,0.06999127460154318,0.042779827580634755,-0.029731817992299313,0.005290374926751459,-3.981080735586742e-05,0.05010516428532296,-4.4376266915027024e-05
0.09006977081298828,0.059777934162170615,0.06999127460154318,0.04276448756928314,-0.029731817992299313,0.005290374926751459,-3.981080735586742e-05,0.05008233698752716,-2.1548969119229017e-05
0.10036802291870117,0.059777934162170615,0.06999127460154318,0.04273380754657996,-0.029731817992299313,0.005290374926751459,-3.981080735586742e-05,0.050054944230172205,-3.2871308825940804e-06
0.11013364791870117,0.059777934162170615,0.06999127460154318,0.042718467535228344,-0.029731817992299313,0.005290374926751459,-3.981080735586742e-05,0.05004124785149473,-1.6983509560072885e-05
0.12008881568908691,0.059777934162170615,0.06999127460154318,0.04268778751252511,-0.029731817992299313,0.005290374926751459,-3.981080735586742e-05,0.05005950968973137,-7.176902426998116e-05
0.12996196746826172,0.059777934162170615,0.06999127460154318,0.042672447501173494,-0.029731817992299313,0.005290374926751459,-3.067988823755169e-05,0.05008690244708632,-6.263810515166543e-05
0.14106321334838867,0.059777934162170615,0.06999127460154318,0.042641767478470316,-0.029731817992299313,0.005290374926751459,-1.2418050000913283e-05,0.0501005988257638,-3.981080735586742e-05
0.15111637115478516,0.059777934162170615,0.06999127460154318,0.04261108745576708,-0.029731817992299313,0.005290374926751459,-3.981080735586742e-05,0.05008233698752716,-2.1548969119229017e-05
0.16009211540222168,0.059777934162170615,0.06999127460154318,0.042595747444415466,-0.029731817992299313,0.005290374926751459,-3.981080735586742e-05,0.050054944230172205,5.8437882357251225e-06
0.17006802558898926,0.059777934162170615,0.06999127460154318,0.042595747444415466,-0.029731817992299313,0.005290374926751459,-3.981080735586742e-05,0.05005950968973137,-1.6983509560072885e-05
0.18054986000061035,0.059777934162170615,0.06999127460154318,0.04258040743306385,-0.029731817992299313,0.005290374926751459,-3.981080735586742e-05,0.05008233698752716,-6.720356471082503e-05
0.19016313552856445,0.059777934162170615,0.06999127460154318,0.04258040743306385,-0.029731817992299313,0.005290374926751459,-3.981080735586742e-05,0.050077771527968,-7.176902426998463e-05
0.20069551467895508,0.059777934162170615,0.06999127460154318,0.04258040743306385,-0.029731817992299313,0.005290374926751459,-3.981080735586742e-05,0.0501005988257638,-4.8941726474186625e-05
0.2103104591369629,0.059777934162170615,0.06999127460154318,0.04256506742171223,-0.029731817992299313,0.005290374926751459,-2.1548969119232486e-05,0.05008233698752716,-2.1548969119229017e-05
0.22025513648986816,0.059777934162170615,0.06999127460154318,0.04256506742171223,-0.029731817992299313,0.005290374926751459,-3.2871308825940804e-06,0.05005950968973137,1.278328676565521e-06
0.22990036010742188,0.059777934162170615,0.06999127460154318,0.04256506742171223,-0.029731817992299313,0.005290374926751459,-3.981080735586742e-05,0.05006864060884969,-1.6983509560072885e-05
0.24071931838989258,0.059777934162170615,0.06999127460154318,0.04256506742171223,-0.029731817992299313,0.005290374926751459,-3.981080735586742e-05,0.05007320606840884,-3.981080735586742e-05
0.25112247467041016,0.059777934162170615,0.06999127460154318,0.04256506742171223,-0.029731817992299313,0.005290374926751459,-3.981080735586742e-05,0.050054944230172205,-5.807264559250583e-05
0.2601892948150635,0.059777934162170615,0.06999127460154318,0.04256506742171223,-0.029731817992299313,0.005290374926751459,-3.981080735586742e-05,0.050064075149290524,-3.067988823754822e-05
0.27008843421936035,0.059777934162170615,0.06999127460154318,0.04256506742171223,-0.029731817992299313,0.005290374926751459,-3.981080735586742e-05,0.05005950968973137,-7.852590441753682e-06
0.28042054176330566,0.059777934162170615,0.06999127460154318,0.04256506742171223,-0.029731817992299313,0.005290374926751459,-3.981080735586742e-05,0.050064075149290524,-3.2871308825940804e-06
0.2913377285003662,0.059777934162170615,0.06999127460154318,0.04256506742171223,-0.029731817992299313,0.005290374926751459,-1.2418050000913283e-05,0.05008690244708632,-3.524534779670782e-05
0.3011150360107422,0.059777934162170615,0.06999127460154318,0.04256506742171223,-0.029731817992299313,0.005290374926751459,-3.067988823755169e-05,0.05008233698752716,-3.067988823754822e-05
0.3109922409057617,0.059777934162170615,0.0700066146128948,0.04256506742171223,-0.029731817992299313,0.005290374926751459,-3.981080735586742e-05,0.050064075149290524,-3.067988823754822e-05
0.32114505767822266,0.059777934162170615,0.0700066146128948,0.04256506742171223,-0.029731817992299313,0.005290374926751459,-3.981080735586742e-05,0.050032116932376414,-3.524534779671129e-05
0.32987070083618164,0.059777934162170615,0.0700066146128948,0.04256506742171223,-0.029731817992299313,0.005290374926751459,-3.981080735586742e-05,0.050032116932376414,-7.852590441753682e-06
0.3399665355682373,0.059777934162170615,0.0700066146128948,0.04256506742171223,-0.029731817992299313,0.005290374926751459,-3.981080735586742e-05,0.05007320606840884,-3.067988823754822e-05
0.35053229331970215,0.059777934162170615,0.0700066146128948,0.04256506742171223,-0.029731817992299313,0.005290374926751459,-3.981080735586742e-05,0.05010972974488212,-4.8941726474186625e-05
0.3599202632904053,0.059777934162170615,0.0700066146128948,0.04256506742171223,-0.029731817992299313,0.005290374926751459,-3.067988823755169e-05,0.05010516428532296,-5.350718603334623e-05
0.36995530128479004,0.059777934162170615,0.0700066146128948,0.04256506742171223,-0.029731817992299313,0.005290374926751459,-3.2871308825940804e-06,0.05009603336620464,-4.4376266915027024e-05
0.3807048797607422,0.059777934162170615,0.0700066146128948,0.042549727410360616,-0.029731817992299313,0.005290374926751459,-3.981080735586742e-05,0.050064075149290524,-2.1548969119232486e-05
0.39087772369384766,0.059777934162170615,0.0700066146128948,0.042549727410360616,-0.029731817992299313,0.005290374926751459,-3.981080735586742e-05,0.05004124785149473,-2.6114428678392088e-05
0.4006309509277344,0.059777934162170615,0.0700066146128948,0.042549727410360616,-0.029731817992299313,0.005290374926751459,-3.981080735586742e-05,0.050068640608849684,-5.350718603334623e-05
0.40996742248535156,0.059777934162170615,0.0700066146128948,0.042549727410360616,-0.029731817992299313,0.005290374926751459,-3.981080735586742e-05,0.050077771527968,-3.524534779670782e-05
0.42023611068725586,0.059777934162170615,0.0700066146128948,0.042549727410360616,-0.029731817992299313,0.005290374926751459,-3.981080735586742e-05,0.05008233698752716,-2.1548969119229017e-05
0.42992734909057617,0.059777934162170615,0.0700066146128948,0.042549727410360616,-0.029731817992299313,0.005290374926751459,-3.981080735586742e-05,0.05006864060884969,-7.852590441753682e-06
0.44024229049682617,0.059777934162170615,0.0700066146128948,0.042549727410360616,-0.029731817992299313,0.005290374926751459,-2.1548969119232486e-05,0.05005037877061305,1.278328676565521e-06
0.45038938522338867,0.059777934162170615,0.0700066146128948,0.042549727410360616,-0.029731817992299313,0.005275034915399842,-1.2418050000913283e-05,0.050077771527968,-3.524534779670782e-05
0.46027255058288574,0.059777934162170615,0.0700066146128948,0.042549727410360616,-0.029731817992299313,0.005275034915399842,-3.981080735586742e-05,0.050059509689731364,-5.350718603334623e-05
0.4701049327850342,0.059777934162170615,0.0700066146128948,0.042549727410360616,-0.029731817992299313,0.005275034915399842,-3.981080735586742e-05,0.050059509689731364,-4.4376266915027024e-05
0.4807741641998291,0.059777934162170615,0.0700066146128948,0.042549727410360616,-0.029731817992299313,0.005275034915399842,-3.981080735586742e-05,0.050064075149290524,-2.1548969119232486e-05
0.49066591262817383,0.059777934162170615,0.0700066146128948,0.042549727410360616,-0.029731817992299313,0.005275034915399842,-3.981080735586742e-05,0.050054944230172205,5.8437882357251225e-06
0.499967098236084,0.059777934162170615,0.0700066146128948,0.042549727410360616,-0.029731817992299313,0.005275034915399842,-3.981080735586742e-05,0.05007320606840884,-2.1548969119229017e-05
0.5099642276763916,0.059777934162170615,0.0700066146128948,0.042549727410360616,-0.029731817992299313,0.005275034915399842,-3.067988823755169e-05,0.05008233698752716,-3.067988823754822e-05
0.5203018188476562,0.059777934162170615,0.0700066146128948,0.042549727410360616,-0.029731817992299313,0.005275034915399842,-1.2418050000913283e-05,0.05008233698752716,-3.067988823754822e-05
0.5300493240356445,0.059777934162170615,0.0700066146128948,0.042549727410360616,-0.029731817992299313,0.005275034915399842,-3.067988823755169e-05,0.05005950968973137,-2.6114428678392088e-05
0.5399167537689209,0.059777934162170615,0.0700066146128948,0.042549727410360616,-0.029731817992299313,0.005275034915399842,-3.981080735586742e-05,0.05002755147281725,-3.067988823755169e-05
0.5505051612854004,0.059777934162170615,0.0700066146128948,0.042549727410360616,-0.029731817992299313,0.005275034915399842,-3.981080735586742e-05,0.05004124785149473,-2.6114428678392088e-05
0.5606350898742676,0.059777934162170615,0.0700066146128948,0.042549727410360616,-0.029731817992299313,0.005275034915399842,-3.981080735586742e-05,0.050077771527968,-3.524534779670782e-05
0.5700187683105469,0.059777934162170615,0.0700066146128948,0.042549727410360616,-0.029731817992299313,0.005275034915399842,-3.981080735586742e-05,0.05008690244708632,-2.6114428678388618e-05
0.5802145004272461,0.059777934162170615,0.0700066146128948,0.042549727410360616,-0.029731817992299313,0.005275034915399842,-3.981080735586742e-05,0.05007320606840884,-2.1548969119229017e-05
0.5905115604400635,0.059777934162170615,0.0700066146128948,0.042549727410360616,-0.029731817992299313,0.005275034915399842,-2.1548969119232486e-05,0.050064075149290524,-1.2418050000913283e-05
0.6000204086303711,0.059777934162170615,0.0700066146128948,0.042549727410360616,-0.029731817992299313,0.005275034915399842,-3.2871308825940804e-06,0.05004124785149473,1.0409247794881255e-05
0.6099441051483154,0.059777934162170615,0.0700066146128948,0.042549727410360616,-0.029731817992299313,0.005275034915399842,-3.981080735586742e-05,0.050064075149290524,-3.981080735586742e-05
0.6210618019104004,0.059777934162170615,0.0700066146128948,0.042549727410360616,-0.029731817992299313,0.005275034915399842,-3.981080735586742e-05,0.05005037877061305,-6.263810515166543e-05
0.6311628818511963,0.059777934162170615,0.0700066146128948,0.042549727410360616,-0.029731817992299313,0.005275034915399842,-3.981080735586742e-05,0.050068640608849684,-3.524534779670782e-05
0.6399190425872803,0.059777934162170615,0.0700066146128948,0.042549727410360616,-0.029731817992299313,0.005275034915399842,-3.981080735586742e-05,0.050077771527968,-1.6983509560069415e-05
0.6504435539245605,0.059777934162170615,0.0700066146128948,0.042549727410360616,-0.029731817992299313,0.005275034915399842,-3.981080735586742e-05,0.050064075149290524,-3.2871308825940804e-06
0.6613504886627197,0.059777934162170615,0.0700066146128948,0.042549727410360616,-0.029731817992299313,0.005275034915399842,-3.981080735586742e-05,0.050054944230172205,5.8437882357251225e-06
0.6707923412322998,0.059777934162170615,0.0700066146128948,0.042549727410360616,-0.029731817992299313,0.005275034915399842,-1.2418050000913283e-05,0.050077771527968,-3.524534779670782e-05
0.6809613704681396,0.059777934162170615,0.0700066146128948,0.042549727410360616,-0.029731817992299313,0.005275034915399842,-2.1548969119232486e-05,0.050068640608849684,-4.4376266915027024e-05
0.6908464431762695,0.059777934162170615,0.0700066146128948,0.042549727410360616,-0.029731817992299313,0.005275034915399842,-4.8941726474186625e-05,0.050054944230172205,-4.8941726474186625e-05
0.7000160217285156,0.059777934162170615,0.0700066146128948,0.042549727410360616,-0.029731817992299313,0.005275034915399842,-4.8941726474186625e-05,0.050064075149290524,-2.1548969119232486e-05
0.7099337577819824,0.059777934162170615,0.0700066146128948,0.042549727410360616,-0.029731817992299313,0.005275034915399842,-4.8941726474186625e-05,0.05005950968973137,1.278328676565521e-06
0.7208819389343262,0.059777934162170615,0.0700066146128948,0.042549727410360616,-0.029731817992299313,0.005275034915399842,-3.981080735586742e-05,0.050064075149290524,-3.2871308825940804e-06
0.7301297187805176,0.059777934162170615,0.0700066146128948,0.042549727410360616,-0.029731817992299313,0.005275034915399842,-3.981080735586742e-05,0.05008233698752716,-3.067988823754822e-05
0.7399523258209229,0.059777934162170615,0.0700066146128948,0.042549727410360616,-0.029731817992299313,0.005275034915399842,-3.067988823755169e-05,0.05008233698752716,-3.067988823754822e-05
0.7504258155822754,0.059777934162170615,0.0700066146128948,0.042549727410360616,-0.029731817992299313,0.005275034915399842,-1.2418050000913283e-05,0.050059509689731364,-3.524534779670782e-05
0.7604963779449463,0.059817030260380016,0.0700066146128948,0.042549727410360616,-0.029731817992299313,0.005275034915399842,-3.981080735586742e-05,0.050032116932376414,-4.4376266915027024e-05
0.7700724601745605,0.059817030260380016,0.0700066146128948,0.042549727410360616,-0.029731817992299313,0.005275034915399842,-3.981080735586742e-05,0.05004124785149473,-1.6983509560072885e-05
0.7799181938171387,0.059817030260380016,0.0700066146128948,0.042549727410360616,-0.029731817992299313,0.005275034915399842,-3.981080735586742e-05,0.05008233698752716,-3.067988823754822e-05
0.7901313304901123,0.059817030260380016,0.0700066146128948,0.042549727410360616,-0.029731817992299313,0.005275034915399842,-3.981080735586742e-05,0.05008690244708632,-2.6114428678388618e-05
0.7999753952026367,0.059817030260380016,0.0700066146128948,0.042549727410360616,-0.029731817992299313,0.005275034915399842,-3.981080735586742e-05,0.050077771527968,-2.6114428678388618e-05
0.8099045753479004,0.059817030260380016,0.0700066146128948,0.042549727410360616,-0.029731817992299313,0.005275034915399842,-3.981080735586742e-05,0.05006864060884969,-1.6983509560072885e-05
0.8200457096099854,0.059817030260380016,0.0700066146128948,0.042549727410360616,-0.029731817992299313,0.005275034915399842,-2.1548969119232486e-05,0.050045813311053886,-3.2871308825940804e-06
0.8299901485443115,0.059817030260380016,0.0700066146128948,0.042549727410360616,-0.029731817992299313,0.005275034915399842,-3.2871308825940804e-06,0.050050378770613045,-4.4376266915027024e-05
0.8404412269592285,0.059817030260380016,0.0700066146128948,0.042549727410360616,-0.029731817992299313,0.005275034915399842,-3.981080735586742e-05,0.050064075149290524,-4.8941726474186625e-05
0.8498644828796387,0.059817030260380016,0.0700066146128948,0.042549727410360616,-0.029731817992299313,0.005275034915399842,-3.981080735586742e-05,0.05008233698752716,-3.067988823754822e-05
0.8603501319885254,0.059817030260380016,0.0700066146128948,0.042549727410360616,-0.029731817992299313,0.005275034915399842,-3.981080735586742e-05,0.050077771527968,-1.6983509560069415e-05
0.8705308437347412,0.059817030260380016,0.0700066146128948,0.042549727410360616,-0.029731817992299313,0.005275034915399842,-3.981080735586742e-05,0.050064075149290524,-3.2871308825940804e-06
0.880042314529419,0.059817030260380016,0.0700066146128948,0.042549727410360616,-0.029731817992299313,0.005275034915399842,-3.981080735586742e-05,0.050032116932376414,1.0409247794881255e-05
0.8899710178375244,0.059817030260380016,0.0700066146128948,0.042549727410360616,-0.029731817992299313,0.005275034915399842,-3.981080735586742e-05,0.050059509689731364,-3.524534779670782e-05
0.9000439643859863,0.059817030260380016,0.0700066146128948,0.042549727410360616,-0.029731817992299313,0.005275034915399842,-2.1548969119232486e-05,0.050054944230172205,-5.807264559250583e-05
0.9101138114929199,0.059817030260380016,0.0700066146128948,0.042549727410360616,-0.029731817992299313,0.005275034915399842,-1.2418050000913283e-05,0.050068640608849684,-3.524534779670782e-05
0.9204258918762207,0.059817030260380016,0.0700066146128948,0.042549727410360616,-0.029731817992299313,0.005275034915399842,-3.981080735586742e-05,0.05008233698752716,-2.1548969119229017e-05
0.9299745559692383,0.059817030260380016,0.0700066146128948,0.042549727410360616,-0.029731817992299313,0.005275034915399842,-3.981080735586742e-05,0.05006864060884969,-7.852590441753682e-06
0.9400763511657715,0.059817030260380016,0.0700066146128948,0.042549727410360616,-0.029731817992299313,0.005275034915399842,-3.981080735586742e-05,0.050054944230172205,5.8437882357251225e-06
0.9501514434814453,0.059817030260380016,0.0700066146128948,0.042549727410360616,-0.029731817992299313,0.005275034915399842,-3.981080735586742e-05,0.05007320606840884,-3.981080735586742e-05
0.9600346088409424,0.059817030260380016,0.0700066146128948,0.042549727410360616,-0.029731817992299313,0.005275034915399842,-3.981080735586742e-05,0.050059509689731364,-5.350718603334623e-05
0.9710323810577393,0.059817030260380016,0.0700066146128948,0.042549727410360616,-0.029731817992299313,0.005275034915399842,-3.981080735586742e-05,0.050059509689731364,-4.4376266915027024e-05
0.9809925556182861,0.059817030260380016,0.0700066146128948,0.042549727410360616,-0.029731817992299313,0.005275034915399842,-1.2418050000913283e-05,0.05005950968973137,-1.6983509560072885e-05
0.9908995628356934,0.059817030260380016,0.0700066146128948,0.042549727410360616,-0.029731817992299313,0.005275034915399842,-2.1548969119232486e-05,0.05005037877061305,1.0409247794884724e-05
1.0008056163787842,0.059817030260380016,0.0700066146128948,0.042549727410360616,-0.029731817992299313,0.005275034915399842,-3.981080735586742e-05,0.05008233698752716,-2.1548969119229017e-05
1.0104434490203857,0.059817030260380016,0.0700066146128948,0.042549727410360616,-0.029731817992299313,0.005275034915399842,-4.8941726474186625e-05,0.05008233698752716,-3.067988823754822e-05
1.0210039615631104,0.059817030260380016,0.0700066146128948,0.042549727410360616,-0.029731817992299313,0.005275034915399842,-3.981080735586742e-05,0.050077771527968,-3.524534779670782e-05
1.0301513671875,0.059817030260380016,0.0700066146128948,0.042549727410360616,-0.029731817992299313,0.005275034915399842,-3.981080735586742e-05,0.050045813311053886,-3.981080735587089e-05
1.0406618118286133,0.059817030260380016,0.0700066146128948,0.042549727410360616,-0.029731817992299313,0.005275034915399842,-3.981080735586742e-05,0.05002755147281725,-3.067988823755169e-05
1.0507745742797852,0.059817030260380016,0.0700066146128948,0.042549727410360616,-0.029731817992299313,0.005275034915399842,-3.067988823755169e-05,0.05005037877061305,-1.6983509560072885e-05
1.0604634284973145,0.059817030260380016,0.0700066146128948,0.042549727410360616,-0.029731817992299313,0.005275034915399842,-3.2871308825940804e-06,0.05008233698752716,-3.067988823754822e-05
1.0700478553771973,0.059817030260380016,0.0700066146128948,0.042549727410360616,-0.029731817992299313,0.005275034915399842,-3.067988823755169e-05,0.05008690244708632,-2.6114428678388618e-05
1.0807995796203613,0.059817030260380016,0.0700066146128948,0.042549727410360616,-0.029731817992299313,0.005275034915399842,-4.8941726474186625e-05,0.050077771527968,-2.6114428678388618e-05
1.090318202972412,0.059817030260380016,0.0700066146128948,0.042549727410360616,-0.029731817992299313,0.005275034915399842,-4.8941726474186625e-05,0.05006864060884969,-1.6983509560072885e-05
1.100482702255249,0.059817030260380016,0.0700066146128948,0.042549727410360616,-0.029731817992299313,0.005275034915399842,-3.981080735586742e-05,0.05004124785149473,1.278328676565521e-06
1.11000657081604,0.059817030260380016,0.0700066146128948,0.042549727410360616,-0.029731817992299313,0.005275034915399842,-3.981080735586742e-05,0.050050378770613045,-4.4376266915027024e-05
1.120438575744629,0.059817030260380016,0.0700066146128948,0.042549727410360616,-0.029731817992299313,0.005275034915399842,-3.981080735586742e-05,0.050077771527968,-7.176902426998463e-05
1.1298842430114746,0.059817030260380016,0.0700066146128948,0.042549727410360616,-0.029731817992299313,0.005275034915399842,-2.1548969119232486e-05,0.05009603336620464,-5.350718603334623e-05
1.1401951313018799,0.059817030260380016,0.0700066146128948,0.042549727410360616,-0.029731817992299313,0.005275034915399842,-3.2871308825940804e-06,0.0501005988257638,-3.981080735586742e-05
1.150557279586792,0.059817030260380016,0.0700066146128948,0.042549727410360616,-0.029731817992299313,0.005275034915399842,-3.981080735586742e-05,0.050077771527968,-1.6983509560069415e-05
1.1602051258087158,0.059817030260380016,0.0700066146128948,0.042549727410360616,-0.029731817992299313,0.005275034915399842,-4.8941726474186625e-05,0.050045813311053886,5.8437882357251225e-06
1.1699237823486328,0.059817030260380016,0.0700066146128948,0.042549727410360616,-0.029731817992299313,0.005275034915399842,-4.8941726474186625e-05,0.05005950968973137,-2.6114428678392088e-05
1.1801860332489014,0.059817030260380016,0.0700066146128948,0.042549727410360616,-0.029731817992299313,0.005275034915399842,-3.981080735586742e-05,0.050077771527968,-8.089994338830384e-05
1.1906003952026367,0.059817030260380016,0.0700066146128948,0.042549727410360616,-0.029731817992299313,0.005275034915399842,-3.981080735586742e-05,0.05009146790664548,-6.720356471082503e-05
1.1998951435089111,0.059817030260380016,0.0700066146128948,0.042549727410360616,-0.029731817992299313,0.005275034915399842,-3.981080735586742e-05,0.0501005988257638,-4.8941726474186625e-05
1.209859848022461,0.059817030260380016,0.0700066146128948,0.042549727410360616,-0.029731817992299313,0.005275034915399842,-2.1548969119232486e-05,0.050077771527968,-1.6983509560069415e-05
1.2215747833251953,0.059817030260380016,0.0700066146128948,0.042549727410360616,-0.029731817992299313,0.005275034915399842,-1.2418050000913283e-05,0.05005037877061305,1.0409247794884724e-05
1.2299385070800781,0.059817030260380016,0.0700066146128948,0.042549727410360616,-0.029731817992299313,0.005275034915399842,-4.8941726474186625e-05,0.050064075149290524,-3.067988823754822e-05
1.2400763034820557,0.059817030260380016,0.0700066146128948,0.042549727410360616,-0.029731817992299313,0.005275034915399842,-4.8941726474186625e-05,0.050064075149290524,-4.8941726474186625e-05
1.2500975131988525,0.059817030260380016,0.0700066146128948,0.042549727410360616,-0.029731817992299313,0.005275034915399842,-4.8941726474186625e-05,0.050064075149290524,-4.8941726474186625e-05
1.2612287998199463,0.059817030260380016,0.0700066146128948,0.042549727410360616,-0.029731817992299313,0.005275034915399842,-3.981080735586742e-05,0.05007320606840884,-2.1548969119229017e-05
1.2699339389801025,0.059817030260380016,0.0700066146128948,0.042549727410360616,-0.029731817992299313,0.005275034915399842,-3.981080735586742e-05,0.05005950968973137,1.278328676565521e-06
1.280003309249878,0.059817030260380016,0.0700066146128948,0.042549727410360616,-0.029731817992299313,0.005275034915399842,-3.067988823755169e-05,0.05006864060884969,-7.852590441753682e-06
1.2908716201782227,0.059817030260380016,0.0700066146128948,0.042549727410360616,-0.029731817992299313,0.005275034915399842,-1.2418050000913283e-05,0.05008233698752716,-3.067988823754822e-05
1.2999582290649414,0.059817030260380016,0.0700066146128948,0.042549727410360616,-0.029731817992299313,0.005275034915399842,-3.981080735586742e-05,0.05007320606840884,-3.981080735586742e-05
1.3099303245544434,0.059817030260380016,0.0700066146128948,0.042549727410360616,-0.029731817992299313,0.005275034915399842,-4.8941726474186625e-05,0.050054944230172205,-3.981080735586742e-05
1.3204100131988525,0.059817030260380016,0.0700066146128948,0.042549727410360616,-0.029731817992299313,0.005275034915399842,-4.8941726474186625e-05,0.050036682391935566,-3.981080735587089e-05
1.3305943012237549,0.059817030260380016,0.0700066146128948,0.042549727410360616,-0.029731817992299313,0.005275034915399842,-3.981080735586742e-05,0.050032116932376414,1.2783286765620516e-06
1.3401801586151123,0.059817030260380016,0.0700066146128948,0.042549727410360616,-0.029731817992299313,0.005275034915399842,-3.981080735586742e-05,0.05007320606840884,-2.1548969119229017e-05
1.3499469757080078,0.059817030260380016,0.0700066146128948,0.042549727410360616,-0.029731817992299313,0.005275034915399842,-3.981080735586742e-05,0.05010516428532296,-4.4376266915027024e-05
1.3607096672058105,0.059817030260380016,0.0700066146128948,0.042549727410360616,-0.029731817992299313,0.005275034915399842,-2.1548969119232486e-05,0.0501005988257638,-4.8941726474186625e-05
1.3701093196868896,0.059817030260380016,0.0700066146128948,0.042549727410360616,-0.029731817992299313,0.005275034915399842,-3.2871308825940804e-06,0.05009146790664548,-3.981080735586742e-05
1.3800806999206543,0.059817030260380016,0.0700066146128948,0.042549727410360616,-0.029731817992299313,0.005275034915399842,-3.981080735586742e-05,0.050054944230172205,-2.1548969119232486e-05
1.3904833793640137,0.059817030260380016,0.0700066146128948,0.042549727410360616,-0.029731817992299313,0.005275034915399842,-4.8941726474186625e-05,0.050022986013258094,-3.524534779670782e-05
1.3999502658843994,0.059817030260380016,0.0700066146128948,0.042549727410360616,-0.029731817992299313,0.005275034915399842,-4.8941726474186625e-05,0.05007320606840884,-3.981080735586742e-05
1.4098925590515137,0.059817030260380016,0.0700066146128948,0.042549727410360616,-0.029731817992299313,0.005275034915399842,-3.981080735586742e-05,0.05007320606840884,-3.981080735586742e-05
1.4204802513122559,0.059817030260380016,0.0700066146128948,0.042549727410360616,-0.029731817992299313,0.005275034915399842,-3.981080735586742e-05,0.050068640608849684,-3.524534779670782e-05
1.4304864406585693,0.059817030260380016,0.0700066146128948,0.042549727410360616,-0.029731817992299313,0.005275034915399842,-3.981080735586742e-05,0.05005950968973137,-2.6114428678392088e-05
1.4399728775024414,0.059817030260380016,0.0700066146128948,0.042549727410360616,-0.029731817992299313,0.005275034915399842,-1.2418050000913283e-05,0.050036682391935566,-3.2871308825940804e-06
1.449918270111084,0.059817030260380016,0.0700066146128948,0.042549727410360616,-0.029731817992299313,0.005275034915399842,-2.1548969119232486e-05,0.050045813311053886,-3.981080735587089e-05
1.461026906967163,0.059817030260380016,0.0700066146128948,0.042549727410360616,-0.029731817992299313,0.005275034915399842,-4.8941726474186625e-05,0.050059509689731364,-5.350718603334623e-05
1.4709396362304688,0.059817030260380016,0.0700066146128948,0.042549727410360616,-0.029731817992299313,0.005275034915399842,-4.8941726474186625e-05,0.050077771527968,-3.524534779670782e-05
1.479928731918335,0.059817030260380016,0.0700066146128948,0.042549727410360616,-0.029731817992299313,0.005275034915399842,-4.8941726474186625e-05,0.050077771527968,-1.6983509560069415e-05
1.4902722835540771,0.059817030260380016,0.0700066146128948,0.042549727410360616,-0.029731817992299313,0.005275034915399842,-3.981080735586742e-05,0.05006864060884969,-7.852590441753682e-06
1.50010085105896,0.059817030260380016,0.0700066146128948,0.042549727410360616,-0.029716477980947707,0.005275034915399842,-3.981080735586742e-05,0.050054944230172205,-3.2871308825940804e-06
1.5109350681304932,0.059817030260380016,0.0700066146128948,0.042549727410360616,-0.029716477980947707,0.005275034915399842,-3.067988823755169e-05,0.05008233698752716,-3.067988823754822e-05
1.5200695991516113,0.059817030260380016,0.0700066146128948,0.042549727410360616,-0.029716477980947707,0.005275034915399842,-1.2418050000913283e-05,0.050064075149290524,-4.8941726474186625e-05
1.5313255786895752,0.059817030260380016,0.0700066146128948,0.042549727410360616,-0.029716477980947707,0.005275034915399842,-3.067988823755169e-05,0.05004581331105389,-5.807264559250583e-05
1.5410940647125244,0.059817030260380016,0.0700066146128948,0.042549727410360616,-0.029716477980947707,0.005275034915399842,-4.8941726474186625e-05,0.050054944230172205,-2.1548969119232486e-05
1.5498411655426025,0.059817030260380016,0.0700066146128948,0.042549727410360616,-0.029716477980947707,0.005275034915399842,-4.8941726474186625e-05,0.05005037877061305,1.278328676565521e-06
1.5615644454956055,0.059817030260380016,0.0700066146128948,0.042549727410360616,-0.029716477980947707,0.005275034915399842,-3.981080735586742e-05,0.05008233698752716,-2.1548969119229017e-05
1.570103645324707,0.059817030260380016,0.0700066146128948,0.042549727410360616,-0.029716477980947707,0.005275034915399842,-3.981080735586742e-05,0.05008233698752716,-3.067988823754822e-05
1.5800764560699463,0.059817030260380016,0.0700066146128948,0.042549727410360616,-0.029701137969596097,0.005275034915399842,-3.981080735586742e-05,0.05008233698752716,-3.067988823754822e-05
1.590259075164795,0.059817030260380016,0.0700066146128948,0.042549727410360616,-0.029701137969596097,0.005275034915399842,-2.1548969119232486e-05,0.050064075149290524,-1.2418050000913283e-05
1.600395679473877,0.059817030260380016,0.0700066146128948,0.042549727410360616,-0.029701137969596097,0.005275034915399842,-3.2871308825940804e-06,0.050036682391935566,-1.2418050000913283e-05
1.6102097034454346,0.059817030260380016,0.0700066146128948,0.042549727410360616,-0.029701137969596097,0.005275034915399842,-3.981080735586742e-05,0.050054944230172205,-5.807264559250583e-05
1.6199774742126465,0.059817030260380016,0.0700066146128948,0.042549727410360616,-0.029701137969596097,0.005275034915399842,-4.8941726474186625e-05,0.05007320606840884,-3.981080735586742e-05
1.6313698291778564,0.059817030260380016,0.0700066146128948,0.042549727410360616,-0.029701137969596097,0.005275034915399842,-4.8941726474186625e-05,0.05008690244708632,-2.6114428678388618e-05
1.6406607627868652,0.059817030260380016,0.0700066146128948,0.042549727410360616,-0.029701137969596097,0.005275034915399842,-3.981080735586742e-05,0.05007320606840884,-1.2418050000913283e-05
1.6498901844024658,0.059817030260380016,0.0700066146128948,0.042549727410360616,-0.029701137969596097,0.005275034915399842,-3.981080735586742e-05,0.050054944230172205,-3.2871308825940804e-06
1.6604256629943848,0.059817030260380016,0.0700066146128948,0.042549727410360616,-0.029701137969596097,0.005275034915399842,-3.981080735586742e-05,0.05005950968973137,-7.852590441753682e-06
1.6702120304107666,0.059817030260380016,0.0700066146128948,0.042549727410360616,-0.029701137969596097,0.005275034915399842,-1.2418050000913283e-05,0.05008690244708632,-5.350718603334623e-05
1.6800191402435303,0.059817030260380016,0.0700066146128948,0.042549727410360616,-0.029701137969596097,0.005275034915399842,-2.1548969119232486e-05,0.050077771527968,-8.089994338830384e-05
1.6899592876434326,0.059817030260380016,0.0700066146128948,0.042549727410360616,-0.029701137969596097,0.005275034915399842,-4.8941726474186625e-05,0.05008690244708632,-6.263810515166543e-05
1.7005910873413086,0.059817030260380016,0.0700066146128948,0.042549727410360616,-0.029701137969596097,0.005275034915399842,-4.8941726474186625e-05,0.05008233698752716,-3.067988823754822e-05
1.7098803520202637,0.059817030260380016,0.0700066146128948,0.042549727410360616,-0.029701137969596097,0.005275034915399842,-4.8941726474186625e-05,0.05005950968973137,1.278328676565521e-06
1.720043659210205,0.059817030260380016,0.0700066146128948,0.042549727410360616,-0.029701137969596097,0.005275034915399842,-3.981080735586742e-05,0.050064075149290524,-3.2871308825940804e-06
1.7307982444763184,0.059817030260380016,0.0700066146128948,0.042549727410360616,-0.029701137969596097,0.005275034915399842,-3.981080735586742e-05,0.05008233698752716,-3.067988823754822e-05
1.7402288913726807,0.059817030260380016,0.0700066146128948,0.042549727410360616,-0.029701137969596097,0.005275034915399842,-3.067988823755169e-05,0.050068640608849684,-4.4376266915027024e-05
1.7499237060546875,0.059817030260380016,0.0700066146128948,0.042549727410360616,-0.029701137969596097,0.005275034915399842,-1.2418050000913283e-05,0.05004124785149473,-5.350718603334623e-05
1.7602663040161133,0.059817030260380016,0.0700066146128948,0.042549727410360616,-0.029701137969596097,0.005275034915399842,-3.981080735586742e-05,0.05005037877061305,-1.6983509560072885e-05
1.7712593078613281,0.059817030260380016,0.0700066146128948,0.042549727410360616,-0.029701137969596097,0.005275034915399842,-4.8941726474186625e-05,0.05004124785149473,1.0409247794881255e-05
1.7808568477630615,0.059817030260380016,0.0700066146128948,0.042549727410360616,-0.029701137969596097,0.005275034915399842,-4.8941726474186625e-05,0.050077771527968,-2.6114428678388618e-05
1.7908306121826172,0.059817030260380016,0.0700066146128948,0.042549727410360616,-0.029701137969596097,0.005275034915399842,-4.8941726474186625e-05,0.0501005988257638,-4.8941726474186625e-05
1.800546646118164,0.059817030260380016,0.0700066146128948,0.042549727410360616,-0.029701137969596097,0.005275034915399842,-3.981080735586742e-05,0.05009603336620464,-4.4376266915027024e-05
1.8100254535675049,0.059817030260380016,0.0700066146128948,0.042549727410360616,-0.029701137969596097,0.005275034915399842,-3.981080735586742e-05,0.05009146790664548,-3.981080735586742e-05
1.8200511932373047,0.059817030260380016,0.0700066146128948,0.042549727410360616,-0.029701137969596097,0.005275034915399842,-2.1548969119232486e-05,0.05005037877061305,-1.6983509560072885e-05
1.8303132057189941,0.059817030260380016,0.0700066146128948,0.042549727410360616,-0.029701137969596097,0.005275034915399842,-3.2871308825940804e-06,0.050032116932376414,-3.524534779671129e-05
1.8403127193450928,0.059817030260380016,0.0700066146128948,0.042549727410360616,-0.029701137969596097,0.005275034915399842,-3.981080735586742e-05,0.05008233698752716,-5.807264559250583e-05
1.849916934967041,0.059817030260380016,0.0700066146128948,0.042549727410360616,-0.029701137969596097,0.005275034915399842,-4.8941726474186625e-05,0.0501005988257638,-4.8941726474186625e-05
1.8599913120269775,0.059817030260380016,0.0700066146128948,0.042549727410360616,-0.029701137969596097,0.005275034915399842,-4.8941726474186625e-05,0.0501005988257638,-3.981080735586742e-05
1.8707976341247559,0.059817030260380016,0.0700066146128948,0.042549727410360616,-0.029701137969596097,0.005275034915399842,-3.981080735586742e-05,0.050077771527968,-2.6114428678388618e-05
1.8800716400146484,0.059817030260380016,0.0700066146128948,0.042549727410360616,-0.029701137969596097,0.005275034915399842,-3.981080735586742e-05,0.05004124785149473,1.0409247794881255e-05
1.8899672031402588,0.059817030260380016,0.0700066146128948,0.042549727410360616,-0.029701137969596097,0.005275034915399842,-3.981080735586742e-05,0.050054944230172205,-3.067988823755169e-05
1.9003422260284424,0.05985612635858941,0.0700066146128948,0.042549727410360616,-0.029701137969596097,0.005275034915399842,-2.1548969119232486e-05,0.05007320606840884,-7.633448382914423e-05
1.9101359844207764,0.05985612635858941,0.0700066146128948,0.042549727410360616,-0.02968579795824449,0.005275034915399842,-1.2418050000913283e-05,0.05008690244708632,-5.350718603334623e-05
1.9200851917266846,0.05985612635858941,0.0700066146128948,0.042549727410360616,-0.02968579795824449,0.005275034915399842,-4.8941726474186625e-05,0.0501005988257638,-3.981080735586742e-05
1.9304866790771484,0.05985612635858941,0.0700066146128948,0.042549727410360616,-0.02968579795824449,0.005275034915399842,-4.8941726474186625e-05,0.05007320606840884,-1.2418050000913283e-05
1.9405455589294434,0.05985612635858941,0.0700066146128948,0.042549727410360616,-0.02968579795824449,0.005275034915399842,-4.8941726474186625e-05,0.05004581331105389,1.4974707354040856e-05
1.9499657154083252,0.05985612635858941,0.0700066146128948,0.042549727410360616,-0.02968579795824449,0.005275034915399842,-3.981080735586742e-05,0.050064075149290524,-3.067988823754822e-05
1.960409164428711,0.05985612635858941,0.0700066146128948,0.042549727410360616,-0.02968579795824449,0.005275034915399842,-3.981080735586742e-05,0.050077771527968,-7.176902426998463e-05
1.9701321125030518,0.05985612635858941,0.0700066146128948,0.042549727410360616,-0.02968579795824449,0.005275034915399842,-3.067988823755169e-05,0.05008233698752716,-6.720356471082503e-05
1.9809634685516357,0.05985612635858941,0.0700066146128948,0.042549727410360616,-0.02968579795824449,0.005275034915399842,-1.2418050000913283e-05,0.05009603336620464,-4.4376266915027024e-05
1.9899837970733643,0.05985612635858941,0.0700066146128948,0.042549727410360616,-0.02968579795824449,0.005275034915399842,-3.981080735586742e-05,0.050077771527968,-1.6983509560069415e-05
2.0002808570861816,0.05985612635858941,0.0700066146128948,0.042549727410360616,-0.02968579795824449,0.005275034915399842,-4.8941726474186625e-05,0.050054944230172205,5.8437882357251225e-06
2.010558843612671,0.05985612635858941,0.0700066146128948,0.042549727410360616,-0.02968579795824449,0.005275034915399842,-4.8941726474186625e-05,0.05008233698752716,-3.067988823754822e-05
2.0199601650238037,0.05985612635858941,0.0700066146128948,0.042549727410360616,-0.02968579795824449,0.005275034915399842,-3.981080735586742e-05,0.05007320606840884,-3.981080735586742e-05
2.0299813747406006,0.05985612635858941,0.0700066146128948,0.042549727410360616,-0.02968579795824449,0.005275034915399842,-3.981080735586742e-05,0.050054944230172205,-5.807264559250583e-05
2.040803909301758,0.05985612635858941,0.0700066146128948,0.042549727410360616,-0.02968579795824449,0.005275034915399842,-3.981080735586742e-05,0.050054944230172205,-3.067988823755169e-05
2.050466537475586,0.05985612635858941,0.0700066146128948,0.042549727410360616,-0.02968579795824449,0.005275034915399842,-2.1548969119232486e-05,0.050045813311053886,5.8437882357251225e-06
2.0601587295532227,0.05985612635858941,0.0700066146128948,0.042549727410360616,-0.02968579795824449,0.005275034915399842,-3.2871308825940804e-06,0.05007320606840884,-1.2418050000913283e-05
2.0709640979766846,0.05985612635858941,0.0700066146128948,0.042549727410360616,-0.02968579795824449,0.005275034915399842,-3.981080735586742e-05,0.05010516428532296,-5.350718603334623e-05
2.0804338455200195,0.05985612635858941,0.0700066146128948,0.042549727410360616,-0.02968579795824449,0.005275034915399842,-4.8941726474186625e-05,0.05010516428532296,-5.350718603334623e-05
2.0900371074676514,0.05985612635858941,0.0700066146128948,0.042549727410360616,-0.02968579795824449,0.005275034915399842,-4.8941726474186625e-05,0.0501005988257638,-4.8941726474186625e-05
2.100027561187744,0.05985612635858941,0.0700066146128948,0.042549727410360616,-0.02968579795824449,0.005275034915399842,-3.981080735586742e-05,0.050059509689731364,-3.524534779670782e-05
2.1109724044799805,0.05985612635858941,0.0700066146128948,0.042549727410360616,-0.02968579795824449,0.005275034915399842,-3.981080735586742e-05,0.050009289634580616,-3.067988823754822e-05
2.119905948638916,0.05985612635858941,0.0700066146128948,0.042549727410360616,-0.02968579795824449,0.005275034915399842,-3.981080735586742e-05,0.050064075149290524,-3.981080735586742e-05
2.1300132274627686,0.05985612635858941,0.0700066146128948,0.042549727410360616,-0.02968579795824449,0.005275034915399842,-3.067988823755169e-05,0.05009603336620464,-5.350718603334623e-05
2.140634298324585,0.05985612635858941,0.0700066146128948,0.042549727410360616,-0.02968579795824449,0.005275034915399842,-3.2871308825940804e-06,0.05010516428532296,-4.4376266915027024e-05
2.150728702545166,0.05985612635858941,0.0700066146128948,0.042549727410360616,-0.02968579795824449,0.005275034915399842,-3.981080735586742e-05,0.05009146790664548,-3.981080735586742e-05
2.1600773334503174,0.05985612635858941,0.0700066146128948,0.042549727410360616,-0.02968579795824449,0.005275034915399842,-4.8941726474186625e-05,0.050054944230172205,-3.2871308825940804e-06
2.1708788871765137,0.05985612635858941,0.0700066146128948,0.042549727410360616,-0.02968579795824449,0.005275034915399842,-4.8941726474186625e-05,0.050036682391935566,-3.2871308825940804e-06
2.1805381774902344,0.05985612635858941,0.0700066146128948,0.042549727410360616,-0.02968579795824449,0.005275034915399842,-3.981080735586742e-05,0.050054944230172205,-5.807264559250583e-05
2.1902413368225098,0.05985612635858941,0.0700066146128948,0.042549727410360616,-0.02968579795824449,0.005275034915399842,-3.981080735586742e-05,0.050068640608849684,-4.4376266915027024e-05
2.200173854827881,0.05985612635858941,0.0700066146128948,0.042549727410360616,-0.02968579795824449,0.005275034915399842,-3.981080735586742e-05,0.050077771527968,-2.6114428678388618e-05
2.2101030349731445,0.05985612635858941,0.0700066146128948,0.042549727410360616,-0.02968579795824449,0.005275034915399842,-2.1548969119232486e-05,0.050077771527968,-1.6983509560069415e-05
2.220198154449463,0.05985612635858941,0.0700066146128948,0.042549727410360616,-0.02968579795824449,0.005275034915399842,-1.2418050000913283e-05,0.05005950968973137,1.278328676565521e-06
2.2301976680755615,0.05985612635858941,0.0700066146128948,0.042549727410360616,-0.02968579795824449,0.005275034915399842,-3.981080735586742e-05,0.05006864060884969,-1.6983509560072885e-05
2.240598678588867,0.05985612635858941,0.0700066146128948,0.042549727410360616,-0.02968579795824449,0.005275034915399842,-4.8941726474186625e-05,0.050068640608849684,-4.4376266915027024e-05
2.2504923343658447,0.05985612635858941,0.0700066146128948,0.042549727410360616,-0.02968579795824449,0.005275034915399842,-4.8941726474186625e-05,0.050054944230172205,-5.807264559250583e-05
2.260148048400879,0.05985612635858941,0.0700066146128948,0.042549727410360616,-0.02968579795824449,0.005275034915399842,-3.981080735586742e-05,0.050064075149290524,-3.067988823754822e-05
2.2707877159118652,0.05985612635858941,0.0700066146128948,0.042549727410360616,-0.02968579795824449,0.005275034915399842,-3.981080735586742e-05,0.05005950968973137,-7.852590441753682e-06
2.2814338207244873,0.05985612635858941,0.0700066146128948,0.042549727410360616,-0.02968579795824449,0.005275034915399842,-3.981080735586742e-05,0.050054944230172205,5.8437882357251225e-06
2.2901883125305176,0.05985612635858941,0.0700066146128948,0.042549727410360616,-0.02968579795824449,0.005275034915399842,-1.2418050000913283e-05,0.05009146790664548,-3.981080735586742e-05
2.300377607345581,0.05985612635858941,0.0700066146128948,0.042549727410360616,-0.02968579795824449,0.005275034915399842,-2.1548969119232486e-05,0.05010516428532296,-5.350718603334623e-05
2.310235023498535,0.05985612635858941,0.0700066146128948,0.042549727410360616,-0.02968579795824449,0.005275034915399842,-3.981080735586742e-05,0.05008690244708632,-6.263810515166543e-05
2.3201072216033936,0.05989522245679881,0.0700066146128948,0.042549727410360616,-0.02968579795824449,0.005275034915399842,-4.8941726474186625e-05,0.050054944230172205,-6.720356471082156e-05
2.33001708984375,0.05993431855500821,0.0700066146128948,0.042549727410360616,-0.02968579795824449,0.005275034915399842,-4.8941726474186625e-05,0.05005037877061305,-1.6983509560072885e-05
2.3400511741638184,0.05993431855500821,0.0700066146128948,0.042549727410360616,-0.02968579795824449,0.005275034915399842,-3.981080735586742e-05,0.050045813311053886,-1.2418050000913283e-05
2.350465774536133,0.05997341465321761,0.0700066146128948,0.042549727410360616,-0.02968579795824449,0.005275034915399842,-3.981080735586742e-05,0.05007320606840884,-3.981080735586742e-05
2.359936475753784,0.05997341465321761,0.0700066146128948,0.042549727410360616,-0.02968579795824449,0.005275034915399842,-3.067988823755169e-05,0.05007320606840884,-3.981080735586742e-05
2.370105504989624,0.06001251075142701,0.0700066146128948,0.042549727410360616,-0.02968579795824449,0.005275034915399842,-1.2418050000913283e-05,0.050068640608849684,-3.524534779670782e-05
2.380592107772827,0.0600516068496364,0.0700066146128948,0.042549727410360616,-0.02968579795824449,0.005275034915399842,-3.981080735586742e-05,0.050050378770613045,-4.4376266915027024e-05
2.390166997909546,0.060090702947845805,0.0700066146128948,0.042549727410360616,-0.02968579795824449,0.005275034915399842,-3.981080735586742e-05,0.05002755147281725,-2.1548969119232486e-05
2.4000051021575928,0.060129799046055206,0.0700066146128948,0.042549727410360616,-0.02968579795824449,0.005275034915399842,-3.981080735586742e-05,0.05005950968973137,-2.6114428678392088e-05
2.4100399017333984,0.0601688951442646,0.0700066146128948,0.042549727410360616,-0.02968579795824449,0.005275034915399842,-3.981080735586742e-05,0.0501005988257638,-4.8941726474186625e-05
2.4202563762664795,0.060207991242474,0.0700066146128948,0.042549727410360616,-0.02968579795824449,0.005275034915399842,-3.981080735586742e-05,0.0501005988257638,-3.981080735586742e-05
2.430020332336426,0.0602470873406834,0.0700066146128948,0.042549727410360616,-0.02968579795824449,0.005275034915399842,-3.981080735586742e-05,0.05009146790664548,-3.981080735586742e-05
2.4401307106018066,0.0602861834388928,0.0700066146128948,0.042549727410360616,-0.02968579795824449,0.005275034915399842,-2.1548969119232486e-05,0.05006864060884969,-1.6983509560072885e-05
2.450310468673706,0.0603252795371022,0.0700066146128948,0.042549727410360616,-0.02968579795824449,0.005275034915399842,-3.2871308825940804e-06,0.050036682391935566,-3.2871308825940804e-06
2.4599385261535645,0.060403471733520994,0.0700066146128948,0.042549727410360616,-0.02968579795824449,0.005275034915399842,-3.981080735586742e-05,0.050045813311053886,-4.8941726474186625e-05
2.47019100189209,0.060442567831730395,0.0700066146128948,0.042549727410360616,-0.02968579795824449,0.005275034915399842,-3.981080735586742e-05,0.050068640608849684,-4.4376266915027024e-05
2.480278730392456,0.06048166392993979,0.0700066146128948,0.042549727410360616,-0.02968579795824449,0.005275034915399842,-3.981080735586742e-05,0.05008233698752716,-3.067988823754822e-05
2.490008592605591,0.06052076002814919,0.0700066146128948,0.042549727410360616,-0.02968579795824449,0.005275034915399842,-3.981080735586742e-05,0.050077771527968,-1.6983509560069415e-05
2.4999990463256836,0.06055985612635859,0.0700066146128948,0.042549727410360616,-0.02968579795824449,0.005275034915399842,-3.981080735586742e-05,0.05005950968973137,-7.852590441753682e-06
2.510578155517578,0.06059895222456799,0.0700066146128948,0.042549727410360616,-0.02968579795824449,0.005275034915399842,-3.981080735586742e-05,0.05005037877061305,1.278328676565521e-06
2.5199313163757324,0.06063804832277739,0.0700066146128948,0.042549727410360616,-0.02968579795824449,0.005275034915399842,-2.1548969119232486e-05,0.05007320606840884,-3.981080735586742e-05
2.5301504135131836,0.06067714442098678,0.0700066146128948,0.042549727410360616,-0.02968579795824449,0.005275034915399842,-1.2418050000913283e-05,0.050059509689731364,-5.350718603334623e-05
2.540818452835083,0.060716240519196184,0.0700066146128948,0.042549727410360616,-0.02968579795824449,0.005275034915399842,-3.981080735586742e-05,0.050054944230172205,-4.8941726474186625e-05
2.550347089767456,0.060755336617405585,0.0700066146128948,0.042549727410360616,-0.02968579795824449,0.005275034915399842,-3.981080735586742e-05,0.05005950968973137,-1.6983509560072885e-05
2.5601935386657715,0.06079443271561498,0.0700066146128948,0.042549727410360616,-0.02968579795824449,0.005275034915399842,-3.981080735586742e-05,0.050045813311053886,5.8437882357251225e-06
2.5700862407684326,0.06079443271561498,0.0700066146128948,0.042549727410360616,-0.02968579795824449,0.005275034915399842,-3.981080735586742e-05,0.050077771527968,-1.6983509560069415e-05
2.580200433731079,0.06079443271561498,0.0700066146128948,0.042549727410360616,-0.02968579795824449,0.005275034915399842,-3.981080735586742e-05,0.05008233698752716,-3.067988823754822e-05
2.5906543731689453,0.06083352881382438,0.0700066146128948,0.042549727410360616,-0.02968579795824449,0.005275034915399842,-3.981080735586742e-05,0.05008233698752716,-3.067988823754822e-05
2.60006046295166,0.06087262491203378,0.0700066146128948,0.042549727410360616,-0.02968579795824449,0.005275034915399842,-1.2418050000913283e-05,0.050064075149290524,-3.067988823754822e-05
2.609959125518799,0.06087262491203378,0.0700066146128948,0.042549727410360616,-0.02968579795824449,0.005275034915399842,-2.1548969119232486e-05,0.05002755147281725,-3.067988823755169e-05
2.6197762489318848,0.06087262491203378,0.07002195462424642,0.042549727410360616,-0.02968579795824449,0.005275034915399842,-3.981080735586742e-05,0.050036682391935566,-1.2418050000913283e-05
2.6315386295318604,0.060911721010243176,0.07002195462424642,0.042549727410360616,-0.02968579795824449,0.005275034915399842,-3.981080735586742e-05,0.050077771527968,-3.524534779670782e-05
2.6401798725128174,0.060911721010243176,0.07002195462424642,0.042549727410360616,-0.02968579795824449,0.005275034915399842,-3.981080735586742e-05,0.05008690244708632,-2.6114428678388618e-05
2.6499619483947754,0.060911721010243176,0.07002195462424642,0.042549727410360616,-0.02968579795824449,0.005275034915399842,-3.981080735586742e-05,0.050077771527968,-2.6114428678388618e-05
2.66184663772583,0.060911721010243176,0.07002195462424642,0.042549727410360616,-0.02968579795824449,0.005275034915399842,-3.981080735586742e-05,0.05007320606840884,-2.1548969119229017e-05
2.6700305938720703,0.060911721010243176,0.07002195462424642,0.042549727410360616,-0.02968579795824449,0.005275034915399842,-3.067988823755169e-05,0.050045813311053886,5.8437882357251225e-06
2.680142879486084,0.060911721010243176,0.07002195462424642,0.042549727410360616,-0.02968579795824449,0.005275034915399842,-1.2418050000913283e-05,0.05005037877061305,-2.6114428678392088e-05
2.690103769302368,0.060911721010243176,0.07002195462424642,0.042549727410360616,-0.02968579795824449,0.005275034915399842,-3.067988823755169e-05,0.050054944230172205,-5.807264559250583e-05
2.7009143829345703,0.060911721010243176,0.07002195462424642,0.042549727410360616,-0.02968579795824449,0.005275034915399842,-3.981080735586742e-05,0.05007320606840884,-3.981080735586742e-05
2.710857391357422,0.060911721010243176,0.07002195462424642,0.042549727410360616,-0.02968579795824449,0.005275034915399842,-3.981080735586742e-05,0.05007320606840884,-2.1548969119229017e-05
2.7199127674102783,0.060911721010243176,0.07002195462424642,0.042549727410360616,-0.02968579795824449,0.005275034915399842,-3.981080735586742e-05,0.050064075149290524,-3.2871308825940804e-06
2.7303788661956787,0.060911721010243176,0.07002195462424642,0.042549727410360616,-0.02968579795824449,0.005275034915399842,-3.981080735586742e-05,0.050045813311053886,5.8437882357251225e-06
2.740128993988037,0.060911721010243176,0.07002195462424642,0.042549727410360616,-0.02968579795824449,0.005275034915399842,-3.981080735586742e-05,0.05008233698752716,-3.067988823754822e-05
2.75003981590271,0.060911721010243176,0.07002195462424642,0.042549727410360616,-0.02968579795824449,0.005275034915399842,-2.1548969119232486e-05,0.050068640608849684,-4.4376266915027024e-05
2.760779619216919,0.060911721010243176,0.07002195462424642,0.042549727410360616,-0.02968579795824449,0.005275034915399842,-3.2871308825940804e-06,0.050050378770613045,-5.350718603334623e-05
2.7705116271972656,0.060911721010243176,0.07002195462424642,0.042549727410360616,-0.02968579795824449,0.005275034915399842,-3.981080735586742e-05,0.05005950968973137,-2.6114428678392088e-05
2.780371904373169,0.060911721010243176,0.07002195462424642,0.042549727410360616,-0.02968579795824449,0.005275034915399842,-3.981080735586742e-05,0.050045813311053886,-3.2871308825940804e-06
2.789879560470581,0.060911721010243176,0.07002195462424642,0.042549727410360616,-0.02968579795824449,0.005275034915399842,-3.981080735586742e-05,0.05005950968973137,-1.6983509560072885e-05
2.8009541034698486,0.060911721010243176,0.07002195462424642,0.042549727410360616,-0.02968579795824449,0.005275034915399842,-3.981080735586742e-05,0.05007320606840884,-3.981080735586742e-05
2.8108344078063965,0.060911721010243176,0.07002195462424642,0.042549727410360616,-0.02968579795824449,0.005275034915399842,-3.981080735586742e-05,0.05007320606840884,-3.981080735586742e-05
2.8198952674865723,0.060911721010243176,0.07002195462424642,0.042549727410360616,-0.02968579795824449,0.005275034915399842,-3.981080735586742e-05,0.050054944230172205,-3.981080735586742e-05
2.830221652984619,0.060911721010243176,0.07002195462424642,0.042549727410360616,-0.02968579795824449,0.005275034915399842,-1.2418050000913283e-05,0.050036682391935566,-3.067988823755169e-05
2.8408093452453613,0.060911721010243176,0.07002195462424642,0.042549727410360616,-0.02968579795824449,0.005275034915399842,-2.1548969119232486e-05,0.05003668239193557,5.843788235721653e-06
2.8499233722686768,0.060911721010243176,0.07002195462424642,0.042549727410360616,-0.02968579795824449,0.005275034915399842,-3.981080735586742e-05,0.05007320606840884,-2.1548969119229017e-05
2.860074520111084,0.060911721010243176,0.07002195462424642,0.042549727410360616,-0.02968579795824449,0.005275034915399842,-3.981080735586742e-05,0.05010972974488212,-4.8941726474186625e-05
2.8702733516693115,0.060911721010243176,0.07002195462424642,0.042549727410360616,-0.02968579795824449,0.005275034915399842,-3.981080735586742e-05,0.05010516428532296,-5.350718603334623e-05
2.88083553314209,0.060911721010243176,0.07002195462424642,0.042549727410360616,-0.02968579795824449,0.005275034915399842,-3.981080735586742e-05,0.05009603336620464,-4.4376266915027024e-05
2.8899638652801514,0.060911721010243176,0.07002195462424642,0.042549727410360616,-0.02968579795824449,0.005275034915399842,-3.981080735586742e-05,0.050064075149290524,-2.1548969119232486e-05
2.899991512298584,0.060911721010243176,0.07002195462424642,0.042549727410360616,-0.02968579795824449,0.005275034915399842,-3.067988823755169e-05,0.05002755147281725,-2.1548969119232486e-05
2.910428047180176,0.060911721010243176,0.07002195462424642,0.042549727410360616,-0.02968579795824449,0.005275034915399842,-1.2418050000913283e-05,0.050064075149290524,-4.8941726474186625e-05
2.9199321269989014,0.060911721010243176,0.07002195462424642,0.042549727410360616,-0.02968579795824449,0.005275034915399842,-3.067988823755169e-05,0.050077771527968,-3.524534779670782e-05
2.9302690029144287,0.060911721010243176,0.07002195462424642,0.042549727410360616,-0.02968579795824449,0.005275034915399842,-3.981080735586742e-05,0.05008690244708632,-2.6114428678388618e-05
2.941648483276367,0.060911721010243176,0.07002195462424642,0.042549727410360616,-0.02968579795824449,0.005275034915399842,-3.981080735586742e-05,0.05006864060884969,-1.6983509560072885e-05
2.950352907180786,0.060911721010243176,0.07002195462424642,0.042549727410360616,-0.02968579795824449,0.005275034915399842,-3.981080735586742e-05,0.050045813311053886,5.8437882357251225e-06
2.9599485397338867,0.060911721010243176,0.07002195462424642,0.042549727410360616,-0.02968579795824449,0.005275034915399842,-3.981080735586742e-05,0.050064075149290524,-2.1548969119232486e-05
2.969963550567627,0.060911721010243176,0.07002195462424642,0.042549727410360616,-0.02968579795824449,0.005275034915399842,-3.981080735586742e-05,0.050068640608849684,-4.4376266915027024e-05
2.9804792404174805,0.060911721010243176,0.07002195462424642,0.042549727410360616,-0.02968579795824449,0.005275034915399842,-2.1548969119232486e-05,0.050054944230172205,-5.807264559250583e-05
2.9899699687957764,0.060911721010243176,0.07002195462424642,0.042549727410360616,-0.02968579795824449,0.005275034915399842,-3.2871308825940804e-06,0.05007320606840884,-3.067988823754822e-05
2.9999499320983887,0.060911721010243176,0.07002195462424642,0.042549727410360616,-0.02968579795824449,0.005275034915399842,-3.981080735586742e-05,0.05006864060884969,-7.852590441753682e-06
3.011216163635254,0.060911721010243176,0.07002195462424642,0.042549727410360616,-0.02968579795824449,0.005275034915399842,-3.981080735586742e-05,0.05005037877061305,1.0409247794884724e-05
3.0199503898620605,0.060911721010243176,0.07002195462424642,0.042549727410360616,-0.02968579795824449,0.005275034915399842,-3.981080735586742e-05,0.05007320606840884,-2.1548969119229017e-05
3.0300722122192383,0.060911721010243176,0.07002195462424642,0.042549727410360616,-0.02968579795824449,0.005275034915399842,-3.981080735586742e-05,0.050077771527968,-3.524534779670782e-05
3.040487289428711,0.060911721010243176,0.07002195462424642,0.042549727410360616,-0.02968579795824449,0.005275034915399842,-3.981080735586742e-05,0.050064075149290524,-4.8941726474186625e-05
3.050886631011963,0.060911721010243176,0.07002195462424642,0.042549727410360616,-0.02968579795824449,0.005275034915399842,-3.981080735586742e-05,0.050050378770613045,-4.4376266915027024e-05
3.059908628463745,0.060911721010243176,0.07002195462424642,0.042549727410360616,-0.02968579795824449,0.005275034915399842,-3.067988823755169e-05,0.05004124785149473,-7.852590441753682e-06
3.070563316345215,0.060911721010243176,0.07002195462424642,0.042549727410360616,-0.02968579795824449,0.005275034915399842,-3.2871308825940804e-06,0.05005950968973137,-1.6983509560072885e-05
3.0803847312927246,0.060911721010243176,0.07002195462424642,0.042549727410360616,-0.02967045794689288,0.005275034915399842,-3.981080735586742e-05,0.05007320606840884,-3.981080735586742e-05
3.0901527404785156,0.060911721010243176,0.07002195462424642,0.042549727410360616,-0.02967045794689288,0.005275034915399842,-3.981080735586742e-05,0.05007320606840884,-3.981080735586742e-05
3.1000614166259766,0.060911721010243176,0.07002195462424642,0.042549727410360616,-0.02967045794689288,0.005275034915399842,-3.981080735586742e-05,0.050064075149290524,-3.067988823754822e-05
3.1101016998291016,0.060911721010243176,0.07002195462424642,0.042549727410360616,-0.02967045794689288,0.005275034915399842,-3.981080735586742e-05,0.050036682391935566,-3.067988823755169e-05
3.1204609870910645,0.060911721010243176,0.07002195462424642,0.042549727410360616,-0.02967045794689288,0.005275034915399842,-3.981080735586742e-05,0.05004124785149473,-2.6114428678392088e-05
3.1299681663513184,0.060911721010243176,0.07002195462424642,0.042549727410360616,-0.02967045794689288,0.005275034915399842,-3.981080735586742e-05,0.050077771527968,-3.524534779670782e-05
3.140021562576294,0.060911721010243176,0.07002195462424642,0.042549727410360616,-0.02967045794689288,0.005275034915399842,-2.1548969119232486e-05,0.05008690244708632,-2.6114428678388618e-05
3.1515936851501465,0.060911721010243176,0.07002195462424642,0.042549727410360616,-0.02967045794689288,0.005275034915399842,-1.2418050000913283e-05,0.05007320606840884,-2.1548969119229017e-05
3.1603634357452393,0.060911721010243176,0.07002195462424642,0.042549727410360616,-0.02967045794689288,0.005275034915399842,-3.981080735586742e-05,0.05005950968973137,-7.852590441753682e-06
3.1700587272644043,0.060911721010243176,0.07002195462424642,0.042549727410360616,-0.02967045794689288,0.005275034915399842,-3.981080735586742e-05,0.050045813311053886,5.8437882357251225e-06
3.1805779933929443,0.060911721010243176,0.07002195462424642,0.042549727410360616,-0.02967045794689288,0.005275034915399842,-3.981080735586742e-05,0.050064075149290524,-3.981080735586742e-05
3.19075345993042,0.060911721010243176,0.07002195462424642,0.042549727410360616,-0.02967045794689288,0.005275034915399842,-3.981080735586742e-05,0.05006864060884969,-8.089994338830037e-05
3.200584650039673,0.060911721010243176,0.07002195462424642,0.042549727410360616,-0.02967045794689288,0.005275034915399842,-3.981080735586742e-05,0.05008233698752716,-6.720356471082503e-05
3.2099380493164062,0.060911721010243176,0.07002195462424642,0.042549727410360616,-0.02967045794689288,0.005275034915399842,-3.067988823755169e-05,0.05009146790664548,-3.981080735586742e-05
3.221046209335327,0.060911721010243176,0.07002195462424642,0.042549727410360616,-0.02967045794689288,0.005275034915399842,-3.2871308825940804e-06,0.05007320606840884,-1.2418050000913283e-05
3.2298574447631836,0.060911721010243176,0.07002195462424642,0.042549727410360616,-0.02967045794689288,0.005275034915399842,-3.981080735586742e-05,0.050054944230172205,5.8437882357251225e-06
3.2404911518096924,0.060911721010243176,0.07002195462424642,0.042549727410360616,-0.02967045794689288,0.005275034915399842,-3.981080735586742e-05,0.05008233698752716,-3.067988823754822e-05
3.250884532928467,0.060911721010243176,0.07002195462424642,0.042549727410360616,-0.02967045794689288,0.005275034915399842,-3.981080735586742e-05,0.05008690244708632,-6.263810515166543e-05
3.261247158050537,0.060911721010243176,0.07002195462424642,0.042549727410360616,-0.02967045794689288,0.005275034915399842,-3.981080735586742e-05,0.050068640608849684,-7.176902426998463e-05
3.270047903060913,0.060911721010243176,0.07002195462424642,0.042549727410360616,-0.02967045794689288,0.005275034915399842,-3.981080735586742e-05,0.050077771527968,-3.524534779670782e-05
3.2800471782684326,0.060911721010243176,0.07002195462424642,0.042549727410360616,-0.02967045794689288,0.005275034915399842,-3.981080735586742e-05,0.050054944230172205,-3.2871308825940804e-06
3.2900888919830322,0.060911721010243176,0.07002195462424642,0.042549727410360616,-0.02967045794689288,0.005275034915399842,-2.1548969119232486e-05,0.05007320606840884,-1.2418050000913283e-05
3.3000874519348145,0.060911721010243176,0.07002195462424642,0.042549727410360616,-0.02967045794689288,0.005275034915399842,-1.2418050000913283e-05,0.05008233698752716,-3.067988823754822e-05
3.3099453449249268,0.060911721010243176,0.07002195462424642,0.042549727410360616,-0.02967045794689288,0.005275034915399842,-3.981080735586742e-05,0.05008233698752716,-3.067988823754822e-05
3.3216214179992676,0.060911721010243176,0.07002195462424642,0.042549727410360616,-0.02967045794689288,0.005275034915399842,-4.8941726474186625e-05,0.050059509689731364,-3.524534779670782e-05
3.329874277114868,0.060911721010243176,0.07002195462424642,0.042549727410360616,-0.02967045794689288,0.005275034915399842,-4.8941726474186625e-05,0.05002755147281725,-3.067988823755169e-05
3.340350389480591,0.060911721010243176,0.07002195462424642,0.042549727410360616,-0.02967045794689288,0.005275034915399842,-3.981080735586742e-05,0.050045813311053886,-1.2418050000913283e-05
3.351088047027588,0.060911721010243176,0.07002195462424642,0.042549727410360616,-0.02967045794689288,0.005275034915399842,-3.981080735586742e-05,0.05008233698752716,-3.067988823754822e-05
3.360956907272339,0.060911721010243176,0.07002195462424642,0.042549727410360616,-0.02967045794689288,0.005275034915399842,-3.067988823755169e-05,0.05008690244708632,-2.6114428678388618e-05
3.3701670169830322,0.060911721010243176,0.07002195462424642,0.042549727410360616,-0.02967045794689288,0.005275034915399842,-3.2871308825940804e-06,0.05007320606840884,-2.1548969119229017e-05
3.3802080154418945,0.060911721010243176,0.07002195462424642,0.042549727410360616,-0.02967045794689288,0.005275034915399842,-3.981080735586742e-05,0.050064075149290524,-1.2418050000913283e-05
3.3910763263702393,0.060911721010243176,0.07002195462424642,0.042549727410360616,-0.02967045794689288,0.005275034915399842,-3.981080735586742e-05,0.050036682391935566,-3.2871308825940804e-06
3.4000229835510254,0.060911721010243176,0.07002195462424642,0.042549727410360616,-0.02967045794689288,0.005275034915399842,-4.8941726474186625e-05,0.050050378770613045,-5.350718603334623e-05
3.4108681678771973,0.060911721010243176,0.07002195462424642,0.042549727410360616,-0.02967045794689288,0.005275034915399842,-3.981080735586742e-05,0.05008233698752716,-6.720356471082503e-05
3.42045259475708,0.060911721010243176,0.07002195462424642,0.042549727410360616,-0.02967045794689288,0.005275034915399842,-3.981080735586742e-05,0.0501005988257638,-4.8941726474186625e-05
3.430356025695801,0.060911721010243176,0.07002195462424642,0.042549727410360616,-0.02967045794689288,0.005275034915399842,-3.981080735586742e-05,0.0501005988257638,-3.981080735586742e-05
3.4406516551971436,0.060911721010243176,0.07002195462424642,0.042549727410360616,-0.02967045794689288,0.005275034915399842,-2.1548969119232486e-05,0.050064075149290524,-1.2418050000913283e-05
3.450753688812256,0.060911721010243176,0.07002195462424642,0.042549727410360616,-0.02967045794689288,0.005275034915399842,-1.2418050000913283e-05,0.050045813311053886,5.8437882357251225e-06
3.461033582687378,0.060911721010243176,0.07002195462424642,0.042549727410360616,-0.02967045794689288,0.005275034915399842,-3.981080735586742e-05,0.050064075149290524,-3.981080735586742e-05
3.4708449840545654,0.060911721010243176,0.07002195462424642,0.042549727410360616,-0.02967045794689288,0.005275034915399842,-3.981080735586742e-05,0.050054944230172205,-5.807264559250583e-05
3.480686664581299,0.060911721010243176,0.07002195462424642,0.042549727410360616,-0.02967045794689288,0.005275034915399842,-3.981080735586742e-05,0.05007320606840884,-3.981080735586742e-05
3.491079807281494,0.060911721010243176,0.07002195462424642,0.042549727410360616,-0.02967045794689288,0.005275034915399842,-3.981080735586742e-05,0.05007320606840884,-1.2418050000913283e-05
3.5004043579101562,0.060911721010243176,0.07002195462424642,0.042549727410360616,-0.02967045794689288,0.005275034915399842,-3.981080735586742e-05,0.05005037877061305,1.0409247794884724e-05
3.5100760459899902,0.060911721010243176,0.07002195462424642,0.042549727410360616,-0.02967045794689288,0.005275034915399842,-3.067988823755169e-05,0.050054944230172205,-3.2871308825940804e-06
3.5209436416625977,0.060911721010243176,0.07002195462424642,0.042549727410360616,-0.02967045794689288,0.005275034915399842,-3.2871308825940804e-06,0.05008690244708632,-3.524534779670782e-05
3.53068208694458,0.060911721010243176,0.07002195462424642,0.042549727410360616,-0.02967045794689288,0.005275034915399842,-3.981080735586742e-05,0.05009603336620464,-6.263810515166543e-05
3.53996205329895,0.060911721010243176,0.07002195462424642,0.042549727410360616,-0.02967045794689288,0.005275034915399842,-3.981080735586742e-05,0.05007320606840884,-7.633448382914423e-05
3.550314426422119,0.060911721010243176,0.07002195462424642,0.042549727410360616,-0.02967045794689288,0.005275034915399842,-3.981080735586742e-05,0.05007320606840884,-4.8941726474186625e-05
3.5611207485198975,0.060911721010243176,0.07002195462424642,0.042549727410360616,-0.02967045794689288,0.005275034915399842,-3.981080735586742e-05,0.050054944230172205,-3.2871308825940804e-06
3.5708203315734863,0.060911721010243176,0.07002195462424642,0.042549727410360616,-0.02967045794689288,0.005275034915399842,-3.981080735586742e-05,0.05006864060884969,-7.852590441753682e-06
3.580817937850952,0.060911721010243176,0.07002195462424642,0.042549727410360616,-0.02967045794689288,0.005275034915399842,-3.981080735586742e-05,0.05008233698752716,-3.067988823754822e-05
3.5908470153808594,0.060911721010243176,0.07002195462424642,0.042549727410360616,-0.02967045794689288,0.005275034915399842,-2.1548969119232486e-05,0.05008233698752716,-3.067988823754822e-05
3.6008875370025635,0.060911721010243176,0.07002195462424642,0.042549727410360616,-0.02967045794689288,0.005275034915399842,-1.2418050000913283e-05,0.05007320606840884,-3.067988823754822e-05
3.6098861694335938,0.060911721010243176,0.07002195462424642,0.042549727410360616,-0.02967045794689288,0.005275034915399842,-3.981080735586742e-05,0.050045813311053886,-3.981080735587089e-05
3.6204183101654053,0.060911721010243176,0.07002195462424642,0.042549727410360616,-0.02967045794689288,0.005275034915399842,-3.981080735586742e-05,0.05002755147281725,-2.1548969119232486e-05
3.630401134490967,0.060911721010243176,0.07002195462424642,0.042549727410360616,-0.02967045794689288,0.005275034915399842,-3.981080735586742e-05,0.050068640608849684,-2.6114428678388618e-05
3.6399648189544678,0.060911721010243176,0.07002195462424642,0.042549727410360616,-0.02967045794689288,0.005275034915399842,-3.981080735586742e-05,0.05008233698752716,-3.067988823754822e-05
3.6500356197357178,0.060911721010243176,0.07002195462424642,0.042549727410360616,-0.02967045794689288,0.005275034915399842,-3.981080735586742e-05,0.05008233698752716,-2.1548969119229017e-05
3.6608986854553223,0.060911721010243176,0.07002195462424642,0.042549727410360616,-0.02967045794689288,0.005275034915399842,-3.067988823755169e-05,0.05007320606840884,-2.1548969119229017e-05
3.670006036758423,0.060911721010243176,0.07002195462424642,0.042549727410360616,-0.02967045794689288,0.005275034915399842,-3.2871308825940804e-06,0.05005950968973137,-7.852590441753682e-06
3.680065155029297,0.060911721010243176,0.07002195462424642,0.042549727410360616,-0.02967045794689288,0.005275034915399842,-3.067988823755169e-05,0.05004124785149473,-7.852590441753682e-06
3.6906933784484863,0.060911721010243176,0.07002195462424642,0.042549727410360616,-0.02967045794689288,0.005275034915399842,-3.981080735586742e-05,0.050050378770613045,-5.350718603334623e-05
3.7000796794891357,0.060911721010243176,0.07002195462424642,0.042549727410360616,-0.02967045794689288,0.005275034915399842,-3.981080735586742e-05,0.050068640608849684,-4.4376266915027024e-05
3.7106058597564697,0.060911721010243176,0.07002195462424642,0.042549727410360616,-0.02967045794689288,0.005275034915399842,-3.981080735586742e-05,0.050077771527968,-2.6114428678388618e-05
3.7199244499206543,0.060911721010243176,0.07002195462424642,0.042549727410360616,-0.02967045794689288,0.005275034915399842,-3.981080735586742e-05,0.050077771527968,-1.6983509560069415e-05
3.7312915325164795,0.060911721010243176,0.07002195462424642,0.042549727410360616,-0.02967045794689288,0.005275034915399842,-3.981080735586742e-05,0.05005950968973137,-7.852590441753682e-06
3.7399439811706543,0.060911721010243176,0.07002195462424642,0.042549727410360616,-0.02967045794689288,0.005275034915399842,-2.1548969119232486e-05,0.05005950968973137,-7.852590441753682e-06
3.74996018409729,0.060911721010243176,0.07002195462424642,0.042549727410360616,-0.02967045794689288,0.005275034915399842,-1.2418050000913283e-05,0.050077771527968,-3.524534779670782e-05
3.7607216835021973,0.060911721010243176,0.07002195462424642,0.042549727410360616,-0.02967045794689288,0.005275034915399842,-3.981080735586742e-05,0.050064075149290524,-4.8941726474186625e-05
3.7709405422210693,0.060911721010243176,0.07002195462424642,0.042549727410360616,-0.02967045794689288,0.005275034915399842,-3.981080735586742e-05,0.050059509689731364,-4.4376266915027024e-05
3.7801852226257324,0.060911721010243176,0.07002195462424642,0.042549727410360616,-0.02967045794689288,0.005275034915399842,-3.981080735586742e-05,0.050064075149290524,-2.1548969119232486e-05
3.790134906768799,0.060911721010243176,0.07002195462424642,0.042549727410360616,-0.02967045794689288,0.005275034915399842,-3.981080735586742e-05,0.050054944230172205,5.8437882357251225e-06
3.8005738258361816,0.060911721010243176,0.07002195462424642,0.042549727410360616,-0.02967045794689288,0.005275034915399842,-3.981080735586742e-05,0.05006864060884969,-7.852590441753682e-06
3.8098912239074707,0.060911721010243176,0.07002195462424642,0.042549727410360616,-0.02967045794689288,0.005275034915399842,-3.981080735586742e-05,0.05008233698752716,-3.067988823754822e-05
3.8202219009399414,0.060911721010243176,0.07002195462424642,0.042549727410360616,-0.02967045794689288,0.005275034915399842,-2.1548969119232486e-05,0.05008233698752716,-3.067988823754822e-05
3.8305776119232178,0.060911721010243176,0.07002195462424642,0.042549727410360616,-0.02967045794689288,0.005275034915399842,-1.2418050000913283e-05,0.050059509689731364,-4.4376266915027024e-05
3.8399455547332764,0.060911721010243176,0.07002195462424642,0.042549727410360616,-0.02967045794689288,0.005275034915399842,-3.981080735586742e-05,0.05004124785149473,-3.524534779671129e-05
3.8498425483703613,0.060911721010243176,0.07002195462424642,0.042549727410360616,-0.02967045794689288,0.005275034915399842,-3.981080735586742e-05,0.05004124785149473,1.278328676565521e-06
3.8620879650115967,0.060911721010243176,0.07002195462424642,0.042549727410360616,-0.02965511793554127,0.005275034915399842,-3.981080735586742e-05,0.05005950968973137,-7.852590441753682e-06
3.870088577270508,0.060911721010243176,0.07002195462424642,0.042549727410360616,-0.02957841787878323,0.005275034915399842,-3.981080735586742e-05,0.0501005988257638,-3.981080735586742e-05
3.8802685737609863,0.060911721010243176,0.07002195462424642,0.042549727410360616,-0.029256277640399453,0.005275034915399842,-3.981080735586742e-05,0.05009603336620464,-4.4376266915027024e-05
3.890104293823242,0.060911721010243176,0.07002195462424642,0.042549727410360616,-0.029010837458773718,0.005275034915399842,-3.981080735586742e-05,0.05009603336620464,-4.4376266915027024e-05
3.9009780883789062,0.060911721010243176,0.07002195462424642,0.042549727410360616,-0.02891879739066407,0.005275034915399842,-1.2418050000913283e-05,0.05007320606840884,-3.067988823754822e-05
3.909895896911621,0.060911721010243176,0.07002195462424642,0.042549727410360616,-0.02890345737931246,0.005275034915399842,-3.067988823755169e-05,0.05002755147281725,-1.2418050000913283e-05
3.9200937747955322,0.060911721010243176,0.07002195462424642,0.042549727410360616,-0.02890345737931246,0.005275034915399842,-3.981080735586742e-05,0.05004124785149473,-4.437626691503049e-05
3.9302566051483154,0.060911721010243176,0.07002195462424642,0.042549727410360616,-0.02890345737931246,0.005275034915399842,-3.981080735586742e-05,0.05009146790664548,-5.807264559250583e-05
3.940152168273926,0.060911721010243176,0.07002195462424642,0.042549727410360616,-0.02890345737931246,0.005275034915399842,-3.981080735586742e-05,0.05010516428532296,-5.350718603334623e-05
3.949956178665161,0.060911721010243176,0.07002195462424642,0.042549727410360616,-0.02890345737931246,0.005275034915399842,-3.981080735586742e-05,0.05010516428532296,-4.4376266915027024e-05
3.9609673023223877,0.060911721010243176,0.07002195462424642,0.042549727410360616,-0.02890345737931246,0.005275034915399842,-3.981080735586742e-05,0.050077771527968,-2.6114428678388618e-05
3.9707088470458984,0.060911721010243176,0.07002195462424642,0.042549727410360616,-0.02890345737931246,0.005275034915399842,-3.981080735586742e-05,0.050045813311053886,5.8437882357251225e-06
3.980041742324829,0.060911721010243176,0.07002195462424642,0.042549727410360616,-0.02890345737931246,0.005275034915399842,-1.2418050000913283e-05,0.050059509689731364,-3.524534779670782e-05
3.9910693168640137,0.060911721010243176,0.07002195462424642,0.042549727410360616,-0.02890345737931246,0.005275034915399842,-2.1548969119232486e-05,0.05005037877061305,-6.263810515166543e-05
4.000904321670532,0.060911721010243176,0.07002195462424642,0.042549727410360616,-0.02890345737931246,0.005275034915399842,-3.981080735586742e-05,0.05007320606840884,-3.981080735586742e-05
4.010834455490112,0.060911721010243176,0.07002195462424642,0.042549727410360616,-0.02890345737931246,0.005275034915399842,-3.981080735586742e-05,0.05005950968973137,-2.6114428678392088e-05
4.019843339920044,0.060911721010243176,0.07002195462424642,0.042549727410360616,-0.02890345737931246,0.005275034915399842,-3.981080735586742e-05,0.05004124785149473,-7.852590441753682e-06
4.0307464599609375,0.060911721010243176,0.07002195462424642,0.042549727410360616,-0.02890345737931246,0.005275034915399842,-3.981080735586742e-05,0.050054944230172205,-2.1548969119232486e-05
4.040144443511963,0.060911721010243176,0.07002195462424642,0.042549727410360616,-0.02890345737931246,0.005275034915399842,-3.981080735586742e-05,0.05009146790664548,-5.807264559250583e-05
4.0499982833862305,0.060911721010243176,0.07002195462424642,0.042549727410360616,-0.02890345737931246,0.005275034915399842,-3.067988823755169e-05,0.05008690244708632,-7.176902426998463e-05
4.060286045074463,0.060911721010243176,0.07002195462424642,0.042549727410360616,-0.02890345737931246,0.005275034915399842,-1.2418050000913283e-05,0.05007320606840884,-7.633448382914423e-05
4.070996999740601,0.060911721010243176,0.07002195462424642,0.042549727410360616,-0.02890345737931246,0.005275034915399842,-3.981080735586742e-05,0.05007320606840884,-3.067988823754822e-05
4.0800940990448,0.060911721010243176,0.07002195462424642,0.042549727410360616,-0.02890345737931246,0.005275034915399842,-3.981080735586742e-05,0.05005037877061305,1.0409247794884724e-05
4.089993953704834,0.060911721010243176,0.07002195462424642,0.042549727410360616,-0.02891879739066407,0.005275034915399842,-3.981080735586742e-05,0.050064075149290524,-1.2418050000913283e-05
4.100127696990967,0.060911721010243176,0.07002195462424642,0.042549727410360616,-0.028995497447422112,0.005275034915399842,-3.981080735586742e-05,0.05009603336620464,-4.4376266915027024e-05
4.109920263290405,0.060911721010243176,0.07002195462424642,0.042549727410360616,-0.02908753751553176,0.005275034915399842,-3.981080735586742e-05,0.05009603336620464,-4.4376266915027024e-05
4.120522499084473,0.060911721010243176,0.07002195462424642,0.042549727410360616,-0.02911821753823498,0.005275034915399842,-3.981080735586742e-05,0.05009146790664548,-4.8941726474186625e-05
4.13048529624939,0.060911721010243176,0.07002195462424642,0.042549727410360616,-0.029133557549586585,0.005275034915399842,-2.1548969119232486e-05,0.050054944230172205,-3.981080735586742e-05
4.1404101848602295,0.060911721010243176,0.07002195462424642,0.042549727410360616,-0.029148897560938195,0.005275034915399842,-1.2418050000913283e-05,0.050009289634580616,-2.1548969119229017e-05
4.150081396102905,0.060911721010243176,0.07002195462424642,0.042549727410360616,-0.029148897560938195,0.005275034915399842,-3.981080735586742e-05,0.050045813311053886,-2.1548969119232486e-05
4.161800861358643,0.060911721010243176,0.07002195462424642,0.042549727410360616,-0.02917957758364141,0.005275034915399842,-3.981080735586742e-05,0.05008690244708632,-4.4376266915027024e-05
4.17012357711792,0.060911721010243176,0.07002195462424642,0.042549727410360616,-0.029240937629047847,0.005275034915399842,-3.981080735586742e-05,0.05009603336620464,-4.4376266915027024e-05
4.180031061172485,0.060911721010243176,0.07002195462424642,0.042549727410360616,-0.029271617651751063,0.005275034915399842,-3.981080735586742e-05,0.05009603336620464,-4.4376266915027024e-05
4.190156698226929,0.060911721010243176,0.07002195462424642,0.042549727410360616,-0.02930229767445428,0.005275034915399842,-3.981080735586742e-05,0.050077771527968,-2.6114428678388618e-05
4.200090169906616,0.060911721010243176,0.07002195462424642,0.042549727410360616,-0.02930229767445428,0.005275034915399842,-3.067988823755169e-05,0.050045813311053886,-3.2871308825940804e-06
4.210057258605957,0.060911721010243176,0.07002195462424642,0.042549727410360616,-0.02931763768580589,0.005275034915399842,-3.2871308825940804e-06,0.050054944230172205,-2.1548969119232486e-05
4.219848871231079,0.060911721010243176,0.07002195462424642,0.042549727410360616,-0.02931763768580589,0.005275034915399842,-3.981080735586742e-05,0.050054944230172205,-5.807264559250583e-05
4.230340480804443,0.060911721010243176,0.07002195462424642,0.042549727410360616,-0.02931763768580589,0.005275034915399842,-3.981080735586742e-05,0.050068640608849684,-4.4376266915027024e-05
4.2406392097473145,0.060911721010243176,0.07002195462424642,0.042549727410360616,-0.029332977697157495,0.005275034915399842,-3.981080735586742e-05,0.050077771527968,-2.6114428678388618e-05
4.2498955726623535,0.060911721010243176,0.07002195462424642,0.042549727410360616,-0.029332977697157495,0.005275034915399842,-3.981080735586742e-05,0.05006864060884969,-7.852590441753682e-06
4.259900093078613,0.060911721010243176,0.07002195462424642,0.042549727410360616,-0.029348317708509104,0.005275034915399842,-3.981080735586742e-05,0.05004124785149473,1.0409247794881255e-05
4.269975900650024,0.06087262491203378,0.07002195462424642,0.042549727410360616,-0.02937899773121232,0.005275034915399842,-3.981080735586742e-05,0.050064075149290524,-1.2418050000913283e-05
4.280100107192993,0.06087262491203378,0.07002195462424642,0.042549727410360616,-0.029409677753915536,0.005275034915399842,-2.1548969119232486e-05,0.050077771527968,-3.524534779670782e-05
4.289952278137207,0.06087262491203378,0.07002195462424642,0.042549727410360616,-0.029425017765267146,0.005275034915399842,-1.2418050000913283e-05,0.050054944230172205,-4.8941726474186625e-05
4.300395250320435,0.06087262491203378,0.07002195462424642,0.042549727410360616,-0.02947103779932197,0.005275034915399842,-3.981080735586742e-05,0.050054944230172205,-4.8941726474186625e-05
4.310028314590454,0.06087262491203378,0.07002195462424642,0.042549727410360616,-0.029501717822025188,0.005275034915399842,-3.981080735586742e-05,0.050068640608849684,-2.6114428678388618e-05
4.319954872131348,0.06087262491203378,0.07002195462424642,0.042549727410360616,-0.029501717822025188,0.005275034915399842,-3.981080735586742e-05,0.05005950968973137,1.278328676565521e-06
4.330029726028442,0.06087262491203378,0.07002195462424642,0.042549727410360616,-0.029517057833376797,0.005275034915399842,-3.981080735586742e-05,0.05006864060884969,-7.852590441753682e-06
4.340277433395386,0.06087262491203378,0.07002195462424642,0.042549727410360616,-0.029517057833376797,0.005275034915399842,-3.981080735586742e-05,0.05008233698752716,-3.067988823754822e-05
4.350139617919922,0.06087262491203378,0.07002195462424642,0.042549727410360616,-0.029517057833376797,0.005275034915399842,-3.067988823755169e-05,0.050077771527968,-3.524534779670782e-05
4.359933376312256,0.06087262491203378,0.07002195462424642,0.042549727410360616,-0.029532397844728404,0.005275034915399842,-3.2871308825940804e-06,0.050050378770613045,-4.4376266915027024e-05
4.370518922805786,0.06087262491203378,0.07002195462424642,0.042549727410360616,-0.029532397844728404,0.005275034915399842,-3.067988823755169e-05,0.050045813311053886,-3.067988823755169e-05
4.380322217941284,0.06087262491203378,0.07002195462424642,0.042549727410360616,-0.029532397844728404,0.005275034915399842,-3.981080735586742e-05,0.05005037877061305,-7.852590441753682e-06
4.389957904815674,0.06087262491203378,0.07002195462424642,0.042549727410360616,-0.029532397844728404,0.005275034915399842,-3.981080735586742e-05,0.05008690244708632,-2.6114428678388618e-05
4.400567531585693,0.06087262491203378,0.07002195462424642,0.042549727410360616,-0.029547737856080013,0.005275034915399842,-3.981080735586742e-05,0.05008233698752716,-3.067988823754822e-05
4.410236835479736,0.06087262491203378,0.07002195462424642,0.042549727410360616,-0.029547737856080013,0.005275034915399842,-3.981080735586742e-05,0.050077771527968,-2.6114428678388618e-05
4.4199371337890625,0.06087262491203378,0.07002195462424642,0.042549727410360616,-0.029547737856080013,0.005275034915399842,-3.981080735586742e-05,0.05006864060884969,-1.6983509560072885e-05
4.430356502532959,0.06087262491203378,0.07002195462424642,0.042549727410360616,-0.029547737856080013,0.005275034915399842,-2.1548969119232486e-05,0.050036682391935566,-3.2871308825940804e-06
4.440089225769043,0.06087262491203378,0.07002195462424642,0.042549727410360616,-0.029563077867431623,0.005275034915399842,-1.2418050000913283e-05,0.050050378770613045,-5.350718603334623e-05
4.4501378536224365,0.06087262491203378,0.07002195462424642,0.042549727410360616,-0.029563077867431623,0.005275034915399842,-3.981080735586742e-05,0.05007320606840884,-3.981080735586742e-05
4.459847927093506,0.06087262491203378,0.07002195462424642,0.042549727410360616,-0.02959375789013484,0.005275034915399842,-3.981080735586742e-05,0.05008233698752716,-3.067988823754822e-05
4.4700236320495605,0.06087262491203378,0.07002195462424642,0.042549727410360616,-0.02977783802635414,0.005275034915399842,-3.981080735586742e-05,0.050077771527968,-1.6983509560069415e-05
4.480097770690918,0.06087262491203378,0.07002195462424642,0.042549727410360616,-0.029900558117167006,0.005275034915399842,-3.981080735586742e-05,0.050064075149290524,-1.2418050000913283e-05
4.490094423294067,0.06087262491203378,0.07002195462424642,0.042549727410360616,-0.029915898128518616,0.005275034915399842,-3.981080735586742e-05,0.05005037877061305,1.278328676565521e-06
4.500277757644653,0.06087262491203378,0.07002195462424642,0.042549727410360616,-0.029931238139870222,0.005275034915399842,-3.981080735586742e-05,0.050064075149290524,-3.981080735586742e-05
4.509848594665527,0.06087262491203378,0.07002195462424642,0.042549727410360616,-0.029931238139870222,0.005275034915399842,-2.1548969119232486e-05,0.050054944230172205,-5.807264559250583e-05
4.520695686340332,0.06087262491203378,0.07002195462424642,0.042549727410360616,-0.02994657815122183,0.005275034915399842,-3.2871308825940804e-06,0.050068640608849684,-3.524534779670782e-05
4.5303144454956055,0.06087262491203378,0.07002195462424642,0.042549727410360616,-0.02994657815122183,0.005275034915399842,-3.981080735586742e-05,0.050077771527968,-2.6114428678388618e-05
4.540578365325928,0.06087262491203378,0.07002195462424642,0.042549727410360616,-0.02994657815122183,0.005275034915399842,-3.981080735586742e-05,0.050064075149290524,-3.2871308825940804e-06
4.550981760025024,0.06087262491203378,0.07002195462424642,0.042549727410360616,-0.02994657815122183,0.005275034915399842,-3.981080735586742e-05,0.05003668239193557,1.4974707354040856e-05
4.560157775878906,0.06087262491203378,0.07002195462424642,0.042549727410360616,-0.02994657815122183,0.005275034915399842,-3.981080735586742e-05,0.05007320606840884,-2.1548969119229017e-05
4.57021427154541,0.06087262491203378,0.07002195462424642,0.042549727410360616,-0.02994657815122183,0.005275034915399842,-3.981080735586742e-05,0.050068640608849684,-4.4376266915027024e-05
4.580929279327393,0.06087262491203378,0.07002195462424642,0.042549727410360616,-0.02994657815122183,0.005275034915399842,-3.981080735586742e-05,0.050050378770613045,-5.350718603334623e-05
4.590809106826782,0.06087262491203378,0.07002195462424642,0.042549727410360616,-0.02994657815122183,0.005275034915399842,-1.2418050000913283e-05,0.050068640608849684,-3.524534779670782e-05
4.600345611572266,0.06087262491203378,0.07002195462424642,0.042549727410360616,-0.02994657815122183,0.005275034915399842,-3.067988823755169e-05,0.05006864060884969,-1.6983509560072885e-05
4.6100053787231445,0.06087262491203378,0.07002195462424642,0.042549727410360616,-0.02994657815122183,0.005275034915399842,-3.981080735586742e-05,0.05005037877061305,1.0409247794884724e-05
4.620253801345825,0.06087262491203378,0.07002195462424642,0.042549727410360616,-0.02994657815122183,0.005275034915399842,-3.981080735586742e-05,0.05007320606840884,-2.1548969119229017e-05
4.630206346511841,0.06087262491203378,0.07002195462424642,0.042549727410360616,-0.02994657815122183,0.005275034915399842,-3.981080735586742e-05,0.05008233698752716,-3.067988823754822e-05
4.640409231185913,0.06087262491203378,0.07002195462424642,0.042549727410360616,-0.02994657815122183,0.005275034915399842,-3.981080735586742e-05,0.05007320606840884,-3.981080735586742e-05
4.650834798812866,0.06083352881382438,0.07002195462424642,0.042549727410360616,-0.02994657815122183,0.005275034915399842,-3.981080735586742e-05,0.05004124785149473,-4.437626691503049e-05
4.66098427772522,0.06083352881382438,0.07002195462424642,0.042549727410360616,-0.02994657815122183,0.005275034915399842,-3.981080735586742e-05,0.050036682391935566,-1.2418050000913283e-05
4.670138120651245,0.06083352881382438,0.07002195462424642,0.042549727410360616,-0.02994657815122183,0.005275034915399842,-1.2418050000913283e-05,0.050064075149290524,-1.2418050000913283e-05
4.680177450180054,0.06083352881382438,0.07002195462424642,0.042549727410360616,-0.02994657815122183,0.005275034915399842,-2.1548969119232486e-05,0.05008233698752716,-3.067988823754822e-05
4.690023899078369,0.06083352881382438,0.07002195462424642,0.042549727410360616,-0.02994657815122183,0.005275034915399842,-3.981080735586742e-05,0.05008233698752716,-3.067988823754822e-05
4.701111078262329,0.06079443271561498,0.07002195462424642,0.042549727410360616,-0.02994657815122183,0.005275034915399842,-3.981080735586742e-05,0.050077771527968,-2.6114428678388618e-05
4.709872484207153,0.06079443271561498,0.07002195462424642,0.042549727410360616,-0.02994657815122183,0.005275034915399842,-3.981080735586742e-05,0.050064075149290524,-1.2418050000913283e-05
4.720068454742432,0.060755336617405585,0.07002195462424642,0.042549727410360616,-0.02994657815122183,0.005275034915399842,-3.981080735586742e-05,0.050032116932376414,-7.852590441753682e-06
4.730364799499512,0.060716240519196184,0.07002195462424642,0.042549727410360616,-0.02994657815122183,0.005275034915399842,-3.981080735586742e-05,0.050032116932376414,-4.4376266915027024e-05
4.740614652633667,0.06067714442098678,0.07002195462424642,0.042549727410360616,-0.02994657815122183,0.005275034915399842,-3.067988823755169e-05,0.050068640608849684,-4.4376266915027024e-05
4.749852180480957,0.06063804832277739,0.07002195462424642,0.042549727410360616,-0.02994657815122183,0.005275034915399842,-1.2418050000913283e-05,0.05007320606840884,-3.067988823754822e-05
4.760304689407349,0.06063804832277739,0.07002195462424642,0.042549727410360616,-0.02994657815122183,0.005275034915399842,-3.981080735586742e-05,0.05008233698752716,-2.1548969119229017e-05
4.771427869796753,0.06059895222456799,0.07002195462424642,0.042549727410360616,-0.02994657815122183,0.005275034915399842,-3.981080735586742e-05,0.050077771527968,-1.6983509560069415e-05
4.78076434135437,0.06055985612635859,0.07002195462424642,0.042549727410360616,-0.02994657815122183,0.005275034915399842,-3.981080735586742e-05,0.050054944230172205,-3.2871308825940804e-06
4.790803909301758,0.06052076002814919,0.07002195462424642,0.042549727410360616,-0.02994657815122183,0.005275034915399842,-3.981080735586742e-05,0.050045813311053886,-1.2418050000913283e-05
4.801020383834839,0.06048166392993979,0.07002195462424642,0.042549727410360616,-0.02994657815122183,0.005275034915399842,-3.981080735586742e-05,0.050059509689731364,-5.350718603334623e-05
4.810004234313965,0.060442567831730395,0.07002195462424642,0.042549727410360616,-0.02994657815122183,0.005275034915399842,-3.981080735586742e-05,0.050059509689731364,-5.350718603334623e-05
4.820049524307251,0.060442567831730395,0.07002195462424642,0.042549727410360616,-0.02994657815122183,0.005275034915399842,-1.2418050000913283e-05,0.050068640608849684,-3.524534779670782e-05
4.830410718917847,0.060403471733520994,0.07002195462424642,0.042549727410360616,-0.02994657815122183,0.005290374926751459,-2.1548969119232486e-05,0.05006864060884969,-1.6983509560072885e-05
4.840527772903442,0.06036437563531159,0.07002195462424642,0.042549727410360616,-0.02994657815122183,0.005290374926751459,-3.981080735586742e-05,0.05005037877061305,1.278328676565521e-06
4.849918842315674,0.06036437563531159,0.07002195462424642,0.042549727410360616,-0.02994657815122183,0.005290374926751459,-3.981080735586742e-05,0.05007320606840884,-2.1548969119229017e-05
4.860159873962402,0.0603252795371022,0.07002195462424642,0.042549727410360616,-0.02994657815122183,0.005290374926751459,-3.981080735586742e-05,0.05008233698752716,-3.067988823754822e-05
4.87106466293335,0.0603252795371022,0.07002195462424642,0.042549727410360616,-0.02994657815122183,0.005290374926751459,-3.981080735586742e-05,0.05007320606840884,-3.067988823754822e-05
4.8801023960113525,0.0602861834388928,0.07002195462424642,0.042549727410360616,-0.02994657815122183,0.005290374926751459,-3.981080735586742e-05,0.050054944230172205,-4.8941726474186625e-05
4.889995098114014,0.0602470873406834,0.07002195462424642,0.042549727410360616,-0.02994657815122183,0.005290374926751459,-3.981080735586742e-05,0.050045813311053886,-3.067988823755169e-05
4.900267839431763,0.0602470873406834,0.07002195462424642,0.042549727410360616,-0.02994657815122183,0.005290374926751459,-2.1548969119232486e-05,0.05003668239193557,5.843788235721653e-06
4.9111552238464355,0.0602470873406834,0.07002195462424642,0.042549727410360616,-0.02994657815122183,0.005290374926751459,-1.2418050000913283e-05,0.050077771527968,-2.6114428678388618e-05
4.920130968093872,0.060207991242474,0.07002195462424642,0.042549727410360616,-0.02994657815122183,0.005290374926751459,-3.981080735586742e-05,0.05008233698752716,-3.067988823754822e-05
4.930738925933838,0.060207991242474,0.07002195462424642,0.042549727410360616,-0.02994657815122183,0.005290374926751459,-3.981080735586742e-05,0.050077771527968,-2.6114428678388618e-05
4.94077730178833,0.0601688951442646,0.07002195462424642,0.042549727410360616,-0.02994657815122183,0.005290374926751459,-3.981080735586742e-05,0.05007320606840884,-2.1548969119229017e-05
4.949972152709961,0.0601688951442646,0.07002195462424642,0.042549727410360616,-0.02994657815122183,0.005290374926751459,-3.981080735586742e-05,0.05005037877061305,-7.852590441753682e-06
4.960269927978516,0.0601688951442646,0.07002195462424642,0.042549727410360616,-0.02994657815122183,0.005290374926751459,-3.981080735586742e-05,0.050045813311053886,-2.1548969119232486e-05
4.970670223236084,0.060129799046055206,0.07002195462424642,0.042549727410360616,-0.02994657815122183,0.005290374926751459,-3.067988823755169e-05,0.050054944230172205,-5.807264559250583e-05
4.98025107383728,0.060090702947845805,0.07002195462424642,0.042549727410360616,-0.02994657815122183,0.005290374926751459,-3.2871308825940804e-06,0.05007320606840884,-3.067988823754822e-05
4.9901721477508545,0.060090702947845805,0.07002195462424642,0.04256506742171223,-0.02994657815122183,0.005290374926751459,-3.981080735586742e-05,0.05008233698752716,-2.1548969119229017e-05
5.000073432922363,0.060090702947845805,0.07002195462424642,0.04256506742171223,-0.02994657815122183,0.005290374926751459,-3.981080735586742e-05,0.05008233698752716,-2.1548969119229017e-05
5.010082006454468,0.0600516068496364,0.07002195462424642,0.04256506742171223,-0.02994657815122183,0.005290374926751459,-3.981080735586742e-05,0.050064075149290524,-1.2418050000913283e-05
5.02023458480835,0.0600516068496364,0.07002195462424642,0.04256506742171223,-0.02994657815122183,0.005290374926751459,-3.981080735586742e-05,0.050045813311053886,5.8437882357251225e-06
5.030236005783081,0.0600516068496364,0.07002195462424642,0.04256506742171223,-0.02994657815122183,0.005290374926751459,-3.067988823755169e-05,0.050068640608849684,-3.524534779670782e-05
5.040335655212402,0.0600516068496364,0.07002195462424642,0.04256506742171223,-0.02994657815122183,0.005290374926751459,-2.1548969119232486e-05,0.050054944230172205,-5.807264559250583e-05
5.050640821456909,0.0600516068496364,0.07002195462424642,0.04256506742171223,-0.02994657815122183,0.005290374926751459,-1.2418050000913283e-05,0.050059509689731364,-4.4376266915027024e-05
5.060168743133545,0.0600516068496364,0.07002195462424642,0.04256506742171223,-0.02994657815122183,0.005290374926751459,-3.981080735586742e-05,0.05007320606840884,-3.067988823754822e-05
5.07003378868103,0.0600516068496364,0.07002195462424642,0.04256506742171223,-0.02994657815122183,0.005290374926751459,-3.981080735586742e-05,0.05008233698752716,-2.1548969119229017e-05
5.080864191055298,0.0600516068496364,0.07002195462424642,0.04256506742171223,-0.02994657815122183,0.005290374926751459,-3.981080735586742e-05,0.05005950968973137,-7.852590441753682e-06
5.090704679489136,0.0600516068496364,0.07002195462424642,0.04256506742171223,-0.02994657815122183,0.005290374926751459,-3.981080735586742e-05,0.05005950968973137,-7.852590441753682e-06
5.099973678588867,0.0600516068496364,0.07002195462424642,0.04256506742171223,-0.02994657815122183,0.005290374926751459,-3.981080735586742e-05,0.05008233698752716,-3.067988823754822e-05
5.111184120178223,0.0600516068496364,0.07002195462424642,0.04256506742171223,-0.02994657815122183,0.005290374926751459,-3.067988823755169e-05,0.050064075149290524,-3.981080735586742e-05
5.120185613632202,0.0600516068496364,0.07002195462424642,0.04256506742171223,-0.02994657815122183,0.005290374926751459,-3.2871308825940804e-06,0.050050378770613045,-5.350718603334623e-05
5.129822731018066,0.0600516068496364,0.07002195462424642,0.04256506742171223,-0.02994657815122183,0.005290374926751459,-3.067988823755169e-05,0.050064075149290524,-3.067988823754822e-05
5.1406872272491455,0.0600516068496364,0.07002195462424642,0.04256506742171223,-0.02994657815122183,0.005290374926751459,-3.981080735586742e-05,0.050064075149290524,-1.2418050000913283e-05
5.149996995925903,0.0600516068496364,0.07002195462424642,0.04256506742171223,-0.02994657815122183,0.005290374926751459,-3.981080735586742e-05,0.050054944230172205,5.8437882357251225e-06
5.159988880157471,0.0600516068496364,0.07002195462424642,0.04256506742171223,-0.02994657815122183,0.005290374926751459,-3.981080735586742e-05,0.050077771527968,-2.6114428678388618e-05
5.169954538345337,0.0600516068496364,0.07002195462424642,0.04256506742171223,-0.02994657815122183,0.005290374926751459,-3.981080735586742e-05,0.05009603336620464,-4.4376266915027024e-05
5.1800758838653564,0.0600516068496364,0.07002195462424642,0.04256506742171223,-0.02994657815122183,0.005290374926751459,-3.981080735586742e-05,0.05009146790664548,-4.8941726474186625e-05
5.190113306045532,0.0600516068496364,0.07002195462424642,0.04256506742171223,-0.02994657815122183,0.005290374926751459,-2.1548969119232486e-05,0.050068640608849684,-5.350718603334623e-05
5.20024037361145,0.0600516068496364,0.07002195462424642,0.04256506742171223,-0.02994657815122183,0.005290374926751459,-1.2418050000913283e-05,0.050036682391935566,-3.067988823755169e-05
5.2099525928497314,0.0600516068496364,0.07002195462424642,0.04256506742171223,-0.02994657815122183,0.005290374926751459,-3.981080735586742e-05,0.050054944230172205,-2.1548969119232486e-05
5.220241069793701,0.0600516068496364,0.07002195462424642,0.04256506742171223,-0.02994657815122183,0.005290374926751459,-3.981080735586742e-05,0.05008233698752716,-3.067988823754822e-05
5.229943752288818,0.0600516068496364,0.07002195462424642,0.04256506742171223,-0.02994657815122183,0.005290374926751459,-3.981080735586742e-05,0.05008233698752716,-2.1548969119229017e-05
5.2404656410217285,0.0600516068496364,0.07002195462424642,0.04256506742171223,-0.02994657815122183,0.005290374926751459,-3.981080735586742e-05,0.050077771527968,-2.6114428678388618e-05
5.2499613761901855,0.0600516068496364,0.07002195462424642,0.04256506742171223,-0.02994657815122183,0.005290374926751459,-3.981080735586742e-05,0.050077771527968,-2.6114428678388618e-05
5.260538339614868,0.0600516068496364,0.07002195462424642,0.04256506742171223,-0.02994657815122183,0.005290374926751459,-3.067988823755169e-05,0.05005950968973137,-1.6983509560072885e-05
5.270158290863037,0.0600516068496364,0.07002195462424642,0.04256506742171223,-0.029931238139870222,0.005290374926751459,-3.2871308825940804e-06,0.050022986013258094,-1.6983509560072885e-05
