thanhndv212/figaroh-plus/examples/tiago/data/eye_hand_calibration_recorded_data_500.csv
x1,y1,z1,phix1,phiy1,phiz1,arm_1_joint,arm_2_joint,arm_3_joint,arm_4_joint,arm_5_joint,arm_6_joint,arm_7_joint,head_1_joint,head_2_joint,
0.188131,-0.136957,0.974797,2.2264,-0.2421,0.066443,1.6507,-0.470239,0.406724,0.15541,1.05846,0.79908,0.976283,0.403364,-0.827941,
0.131723,-0.0386594,0.773376,2.36662,0.0470221,-0.145083,1.61543,-0.849073,-2.51045,1.41308,-1.63785,0.0053681,0.441007,0.652178,-0.459328,
0.0931924,-0.0351905,0.498104,2.72236,-0.335619,0.106004,1.83782,-1.02085,-3.12702,2.02658,-0.492149,-0.0820552,-0.49611,0.510876,-0.253518,
0.104403,-0.00569548,0.531835,2.43714,-0.20516,-0.094167,1.96972,-0.00244758,-3.07027,1.35633,-0.0673024,-0.138037,-0.9593,0.804231,0.379268,
0.101477,0.227275,0.903152,2.10049,-0.0236392,-0.29834,2.2596,-0.28619,-0.0702695,-0.148271,0.831471,0.739264,0.435639,0.928638,-0.176724,
-0.0904253,-0.0977015,0.785641,2.07356,-0.0561952,0.183886,1.67064,0.468411,-1.18223,0.0112386,1.90356,0.294479,-1.19856,-0.0282212,-0.0584604,
0.0179738,-0.0532861,0.81371,2.50357,0.0468604,-0.138218,2.55868,0.00828861,0.429731,-0.200418,1.98638,0.711656,0.0851785,1.1068,-0.172116,
0.185761,0.00675728,0.704464,2.61938,0.126771,-0.0251784,1.57248,0.371786,-0.169963,0.219828,1.3192,1.07592,0.154964,0.277421,0.061339,
0.179001,0.0148429,0.552799,2.78899,0.537837,-0.217701,1.55408,0.519025,-1.45371,0.51584,0.360612,1.29371,-0.490742,0.560025,0.313225,
0.125708,-0.0271959,0.760888,2.33404,0.113587,-0.308172,1.04948,-1.11594,-2.04573,1.62013,-1.54736,-0.0667178,0.181037,0.475551,-0.682032,
0.125308,0.139656,0.530887,2.41926,-0.133262,0.0931859,1.52954,-1.27085,-3.01812,2.11247,-0.581106,-0.118865,-0.560527,0.345,-0.141398,
0.256376,0.0387824,0.603433,2.36298,-0.269403,0.0375696,0.736593,-0.957969,-1.65309,1.89314,-0.547364,-0.0406442,-0.102705,0.776585,-0.643634,
-0.104331,0.185416,0.831066,2.07424,-0.181771,-0.0907348,1.1231,-0.421159,-2.4491,0.867067,-0.0366275,0.293712,-0.974637,-0.29393,-0.104537,
0.120704,0.0527249,0.776969,2.15395,-0.0624112,0.032213,1.59089,0.0865095,-1.97058,0.925349,0.572268,0.453988,-0.830466,0.599958,0.00297517,
-0.00167094,-0.0350078,0.748218,2.83464,0.58066,-0.273893,1.69518,-0.364411,-1.69297,0.598662,-0.188468,1.25153,-0.835067,0.469407,-0.413251,
0.0349499,0.0237785,0.929973,2.18303,-0.275046,0.124634,2.03567,-0.166558,-2.84174,-0.131399,-1.69307,0.691718,0.737786,0.570776,-0.379461,
-0.0371232,0.200004,0.890289,2.28453,0.188733,-0.287924,1.02647,-0.818399,-2.67456,0.483631,-1.01516,0.796779,-0.490742,-0.473629,-0.427074,
-0.173137,-0.0491129,0.936266,2.10353,-0.103442,-0.105657,2.54334,-0.0929384,0.110712,0.0587846,1.92043,0.376534,-0.105006,0.818054,-0.443969,
-0.0587547,0.225406,0.633461,2.34116,-0.123321,-0.28149,1.63383,-0.26165,-1.39849,1.71523,0.357544,1.07592,-1.06283,0.851844,-0.141398,
0.315227,-0.0469515,0.900792,2.32112,-0.200451,0.0914996,0.988127,-0.407356,0.431264,0.164613,1.15356,0.973926,0.918767,-0.12191,-0.695855,
-0.202256,0.0251556,0.883446,2.19475,-0.160598,0.0451268,2.29948,-1.14202,-3.31107,1.11707,-0.202272,0.22316,-1.25224,0.366503,-0.680496,
-0.101637,-0.0991224,0.959106,2.3478,0.259599,-0.165841,0.610826,-0.674227,-1.30033,0.0955944,0.762452,0.877301,-0.712368,-1.13099,-0.849444,
0.0587136,0.059043,0.824631,2.29412,0.0572392,0.0393214,1.53261,-1.21871,-3.21137,1.42995,-1.13172,0.0736196,-0.378012,-0.00211103,-0.54073,
0.156607,0.0602712,0.7989,2.52389,-0.192799,0.0236786,1.09395,-0.00858255,0.218074,0.271975,1.64589,1.18865,0.544534,-0.272428,-0.224337,
-0.231226,0.0287012,0.862313,2.20157,-0.313287,0.0261742,2.30101,-1.31686,-2.96137,1.30418,0.13055,0.227761,-1.40332,0.547738,-0.728108,
0.165423,0.0615939,0.523718,2.87818,-0.538024,0.0169035,0.871562,-0.488644,-1.62548,1.614,-0.280493,1.11503,-0.0122142,0.343464,-0.293452,
0.177552,-0.0964354,0.696908,2.31784,-0.027688,0.068488,0.905305,0.857982,-0.53346,0.71676,1.15816,0.739264,0.17797,-0.243246,0.0644108,
-0.0424193,-0.146273,0.793158,2.44986,0.132917,-0.37326,1.67831,-0.684963,-2.86628,1.12167,-0.0304925,-0.00920245,-1.63415,0.286636,-0.508476,
-0.0674244,0.0919996,0.453323,2.19911,0.285956,-0.219506,1.47586,0.376387,-2.15769,1.70296,0.843741,1.25997,-1.87494,0.45712,0.525178,
0.140516,0.119745,0.491781,2.65252,0.730713,-0.440074,0.55101,-1.13742,-0.967509,1.88854,-1.06117,0.632669,-0.940128,1.08683,-0.700462,
0.153451,0.0472802,0.843781,2.64408,-0.105239,-0.0623927,0.445182,-0.686497,-1.18377,0.744367,-0.0366275,1.21626,-0.118042,-0.441375,-0.706606,
0.173074,-0.115517,0.918156,2.22313,0.0768731,-0.197214,1.91604,-0.832202,-2.92917,0.868601,-0.0212901,-0.194785,-1.53982,0.745867,-0.695855,
-0.0957025,0.121565,0.514278,2.45036,-0.469463,0.157449,1.17524,-1.30153,-3.10094,2.09559,-0.940002,0.0421779,-0.213901,-0.51817,-0.181332,
-0.110637,-0.02115,0.68725,2.50596,-0.207976,0.0431343,2.40224,0.115651,-3.16383,0.589459,-1.61945,0.476994,0.203277,0.725901,0.155028,
0.168691,-0.0699856,0.631331,2.16671,-0.00877881,-0.0489688,1.69211,0.632522,-2.90769,0.55265,-0.203805,-0.0375767,-0.726171,0.598422,0.457599,
0.25792,0.0696565,0.840607,2.40171,0.105962,-0.0139265,1.87003,-0.339871,-1.98745,0.554183,-0.45994,0.718558,-0.0398215,0.881026,-0.2827,
-0.160084,-0.100004,0.975294,2.18409,-0.16248,0.109867,1.63997,-0.652754,-0.177631,-0.102258,1.98638,0.506902,-0.141815,-0.169523,-0.844836,
-0.174409,-0.0327914,0.738046,2.70581,0.332222,-0.288096,2.10162,0.029761,-2.66536,-0.269436,-1.10565,1.19632,-0.428625,0.334249,-0.253518,
-0.00969176,-0.112679,0.949591,2.20363,0.102903,-0.330483,2.02954,-0.283122,-2.10861,-0.228025,-1.04736,0.565951,0.26616,0.452512,-0.632883,
-0.0827591,0.257452,0.655211,2.09217,-0.323092,-0.0583932,1.65991,0.391724,-1.16383,1.59713,0.811532,1.19555,-0.529085,0.696719,0.0674825,
-0.0705562,0.134842,0.524463,2.50088,0.149848,-0.0612466,1.94211,-0.0868034,-3.13622,1.15234,-1.35258,0.494632,-0.377245,0.271277,0.512891,
0.271639,0.193892,0.613177,2.13276,0.200617,0.0398589,0.55101,-0.276987,-3.07794,1.30265,-1.89552,-0.0506135,0.667234,-0.648721,0.362373,
0.202747,0.152151,0.670227,2.50246,0.276494,-0.143954,2.23659,0.264424,-1.1761,-0.168209,0.299262,1.03144,0.145761,0.916351,0.300938,
0.0245969,0.0492922,0.316301,-2.76581,0.443677,0.151816,1.7688,-1.23098,-3.08714,1.97443,-1.47221,0.967791,-0.361141,0.348072,-0.2827,
0.258322,0.332217,0.881375,2.0969,0.0363973,-0.052758,1.8777,-0.875147,-2.33407,0.666147,-1.32957,0.632669,0.306804,0.993146,-0.347208,
0.283006,0.0997933,0.921037,2.33343,-0.0137543,-0.131116,1.82095,-0.73711,-1.39082,0.46676,-0.601045,0.910276,0.250823,1.09605,-0.711214,
0.121225,-0.0721279,0.708937,2.45032,-0.115771,-0.0467715,0.951317,-0.336803,-2.59634,1.12934,-0.482947,0.169479,-0.424024,-0.158772,-0.182867,
-0.262717,0.183675,0.651837,2.09649,-0.187383,0.0129366,2.5096,0.315037,-1.70831,1.21523,0.906624,1.03298,-1.16942,1.13598,0.268684,
0.287866,-0.0332304,0.768702,2.52861,-0.372127,0.156345,0.389967,-0.125147,-1.60248,0.469828,-0.282026,0.894172,0.644228,-0.579606,-0.321098,
-0.0104231,-0.0600342,0.855142,2.12115,-0.330329,0.157882,1.79027,0.146325,-1.76045,0.258171,-0.48448,0.332055,0.655731,0.406436,-0.20437,
0.204733,0.0681585,0.656643,2.54941,0.144515,-0.199811,0.925243,-0.336803,-1.14082,1.67842,0.201103,1.07899,-0.82203,0.570776,-0.554553,
-0.225558,0.081271,0.731125,2.36082,-0.152299,0.200291,2.46205,0.215344,-0.179165,-0.0194363,1.88822,0.865798,-0.220803,0.581527,0.0843773,
0.0150557,0.21456,0.661254,2.18468,-0.201862,-0.231446,0.31328,-0.464104,-1.40769,1.79805,0.500182,0.781442,-1.17863,-0.286251,-0.30881,
0.292621,-0.0967173,0.907618,2.17003,0.174759,0.0248283,2.25193,-0.0162513,-0.0978768,0.133938,0.975642,0.464724,0.461712,1.05151,-0.460864,
0.00666125,0.29395,0.766556,2.24929,-0.0350366,0.128446,1.94365,0.0220923,-3.12548,-0.0317062,-1.4216,0.946319,0.113553,0.380326,0.182674,
0.302711,0.0510707,0.714777,2.41728,0.126857,-0.157317,1.255,-0.557662,-1.39389,1.4913,-0.0565662,0.627301,-0.624177,1.03154,-0.606773,
0.0686081,0.162179,0.594335,2.26605,-0.00319153,0.0907887,2.44058,-1.17116,1.3055,2.02044,-0.467609,-0.769939,-1.16712,-0.177202,-0.553017,
0.175587,0.0728443,0.629043,2.16831,0.00853026,0.0379746,1.34549,0.658595,-2.21597,0.569521,0.138219,0.460123,-0.320496,0.37111,0.618867,
0.011507,-0.0934673,0.620227,2.32073,-0.385883,0.100793,1.6461,0.0589021,-1.84788,1.70296,1.05693,0.776074,-1.01988,0.900992,-0.253518,
0.0630716,-0.0233671,0.672757,2.53407,-0.00569868,-0.0216615,0.718188,-0.991711,-2.12088,1.72903,0.30233,0.509202,-1.51682,-0.137269,-0.499261,
0.247356,-0.056386,0.791439,2.3485,0.371273,-0.419707,1.19058,-0.836803,-1.4491,1.38087,-0.193069,0.386503,-1.0682,0.95782,-0.867874,
0.260848,-0.073941,0.573163,2.4213,0.167168,-0.197531,0.164507,0.692338,-2.8264,0.281177,-1.30503,0.519172,0.32981,-0.874496,0.503675,
0.0863198,0.194424,0.59517,2.34256,0.0962628,-0.0101225,0.55101,-1.29386,-1.15923,1.93302,0.0830044,0.643405,-1.52218,0.567704,-0.517691,
0.204684,0.209254,0.823786,2.32674,0.181941,-0.285039,0.656838,-0.319932,-1.57487,-0.137534,-0.372517,1.07822,0.185639,-0.661008,-0.212049,
0.149211,0.148059,0.489343,2.83809,0.050506,-0.138892,1.1231,-1.23711,-1.91076,1.84713,-1.1854,0.644172,-0.203932,0.778121,-0.305739,
-0.179932,-0.029715,0.91455,2.33989,0.125004,-0.318008,1.73199,-0.795392,-1.4445,0.883938,0.46644,0.978528,-1.11958,0.411043,-0.832549,
0.0609427,0.272105,0.823268,2.48142,0.0774165,-0.0128202,2.4053,-0.436497,-1.31413,-0.0531786,0.242514,1.24847,0.0828779,0.925566,-0.17826,
0.11322,-0.0465244,0.8927,2.19919,-0.19205,0.114589,0.949783,-0.408889,-1.48898,1.02964,0.530857,0.565951,-0.56973,0.0424298,-0.629811,
0.064392,0.0160596,0.533143,2.59629,0.0542161,-0.0187148,1.70592,-0.404288,-2.93683,1.59866,0.00478353,0.222393,-1.35424,0.403364,0.162708,
0.0334978,-0.00926548,0.739191,2.56804,-0.0396147,-0.126912,2.00807,-1.09601,-2.41229,1.54651,-0.786628,0.279908,-0.50838,1.01158,-0.499261,
-0.112076,0.0261047,0.883309,2.16074,-0.192656,-0.26242,1.41144,-0.34754,-1.72824,0.937619,0.520121,0.433282,-1.02065,0.215985,-0.443969,
0.351339,0.175426,0.843942,2.12626,-0.0511479,0.125722,1.74273,-0.143552,-1.68223,-0.0608473,-0.766689,0.787577,0.933338,0.64757,-0.176724,
-0.0643607,-0.0372712,0.81684,2.41532,-0.242428,0.0397098,0.824016,-0.844472,-1.5626,1.33179,0.323802,0.857362,-0.894883,-0.138805,-0.751147,
0.0379112,-0.0560735,0.641716,2.60665,0.215636,-0.300363,0.641501,-1.29232,-1.5672,1.83793,0.104477,0.332822,-1.75761,0.346536,-0.792616,
-0.0705087,-0.0341138,0.896355,2.57392,-0.176605,-0.0036613,2.04488,-0.626681,-1.57947,-0.172811,-0.0473637,1.05982,0.280731,0.349608,-0.675888,
0.0722619,0.128056,0.535024,2.14684,-0.362811,-0.0578713,1.36389,0.551233,-1.66229,1.72136,0.678096,0.906442,-0.35884,0.927102,0.228751,
-0.0180548,0.0336939,0.518455,2.35069,0.0234529,-0.000956431,2.01267,0.173933,-2.86782,1.35173,0.55233,0.380368,-1.86881,0.627604,0.575862,
0.144608,0.0477791,0.839393,2.119,-0.145694,-0.259645,1.09702,-0.537724,-1.94604,1.16615,0.987912,0.0552147,-1.77678,0.345,-0.457792,
0.0270014,0.106285,0.577521,2.35632,-0.0588468,0.104842,1.35622,0.160129,-2.66076,1.07719,-0.11945,0.500767,-0.823564,0.0593246,0.534393,
0.112783,0.172358,0.812753,2.55059,0.0347964,-0.0128613,1.36083,-1.22791,-3.34941,0.951423,-1.88939,0.856595,0.351283,-0.106552,-0.531514,
0.186761,0.126237,0.706396,2.30389,-0.0511139,-0.0816515,0.423709,-0.988644,-1.40309,1.69682,0.139753,0.364264,-1.13261,0.320426,-0.642099,
0.19815,-0.0873385,0.765253,2.25679,0.369793,-0.359262,0.650703,-0.275454,-2.72671,0.894674,0.0768694,0.108896,-1.61114,-0.499739,-0.239695,
-0.278739,-0.00549219,0.722706,2.17145,-0.222553,-0.0461671,2.46205,0.673933,-0.346343,0.328723,1.63822,0.54908,-0.306693,0.638355,0.156564,
0.194473,0.0146296,0.565677,2.44887,-0.0392,-0.0636627,0.753464,-0.629748,-1.39542,2.09866,0.650489,0.631135,-1.39028,0.704398,-0.632883,
0.109383,0.0490172,0.537806,2.51021,-0.246408,-0.00415414,1.41604,-0.839871,-2.24205,1.97443,0.51552,0.304448,-1.39105,0.732044,-0.190547,
0.21489,0.153604,0.85504,2.14517,0.0310484,0.00575032,2.19058,-0.0208525,-1.51045,-0.166676,-0.418529,0.702454,0.646528,0.870274,-0.0799629,
0.14875,-0.0569951,0.637615,2.10541,0.0973807,0.131121,1.14764,0.153994,-3.09021,1.14621,-1.60104,-0.47316,0.35435,-0.197169,0.208784,
-0.0236101,0.216979,0.713454,2.16572,-0.296653,-0.0360346,1.73813,-1.31073,-2.95524,1.7321,-0.147057,-0.201687,-1.14948,0.409507,-0.288844,
0.0863291,-0.0115808,0.707123,2.08699,-0.0261378,0.059872,1.96205,-0.191098,-2.64389,1.38854,-1.54123,-0.485429,0.703277,0.847236,-0.0108478,
-0.0862241,0.02393,0.532197,2.542,-0.401282,0.0908473,1.53567,-0.117478,-3.38775,1.27197,0.438833,-0.276074,-1.89412,-0.253997,0.319368,
-0.0538342,0.0294421,0.656057,2.29022,0.158177,-0.0559263,2.09549,0.675467,-3.25892,0.0879257,-1.38939,0.571319,-0.425558,0.426402,0.489852,
0.0614369,0.0792075,0.816001,2.19667,0.143057,-0.170859,1.58322,-0.770852,-2.55033,1.28118,0.444968,0.314417,-1.8412,0.411043,-0.30881,
0.00423456,0.106778,0.88939,2.13981,-0.291423,0.148207,1.44211,-0.526987,-1.14849,1.22596,0.52779,0.912577,-0.437828,0.53545,-0.634419,
-0.0169574,0.220403,0.771879,2.24562,0.213942,-0.120648,1.83475,0.210743,0.135252,0.261239,1.98178,1.03374,-0.267582,0.215985,0.125846,
-0.273733,0.115743,0.834142,2.19977,0.00652501,-0.287871,1.97279,-0.666558,-3.01812,0.827189,-0.562701,0.353528,-1.18859,0.139191,-0.318026,
0.00055838,0.0272543,0.392609,2.4875,-0.170942,0.130953,0.724323,0.611049,-2.09021,1.63854,0.722575,1.2592,-0.933226,-0.0558672,0.578934,
0.0140566,0.0210586,0.753392,2.48361,-0.130716,-0.15188,2.08322,0.460743,-0.627018,0.468294,0.79006,1.01687,0.151129,0.761226,0.0459801,
-0.0679917,0.000510836,0.51579,2.4389,-0.165972,0.220517,1.88537,-0.818399,-3.29113,2.01584,-1.84951,-0.354294,0.406497,0.0439657,-0.121432,
0.19921,-0.100465,0.763845,2.76144,0.314781,-0.187773,1.68445,-0.352141,-1.72058,0.719828,-0.292762,0.976227,-0.364208,0.776585,-0.490045,
-0.0767412,0.0592063,0.287991,2.97095,0.491023,-0.149478,0.646102,-0.102141,-2.88009,1.55878,-1.20841,0.715491,-0.841202,-0.871425,0.623475,
0.180512,0.0250111,1.01174,2.09472,0.0807139,0.120595,1.47432,-0.654288,0.334639,-0.0531786,1.87902,0.517638,0.219381,0.133047,-0.737324,
0.303331,0.209765,0.747531,2.26945,-0.277597,0.0176942,1.29334,-0.01165,-1.1761,0.287312,-0.120983,1.07822,0.771528,0.343464,-0.0154555,
0.0441806,0.0127214,0.847356,2.28361,0.0709161,0.0632927,2.22739,-0.881282,-2.61015,1.27658,0.320734,0.407209,-1.57663,0.974715,-0.442433,
-0.0510535,0.0405484,0.908849,2.03268,0.0910457,-0.143269,2.56021,0.328841,-0.436834,0.824122,1.71337,0.795245,-0.517582,1.08683,-0.296523,
-0.157841,0.193577,0.627994,2.4944,-0.0255807,0.0667929,2.13843,-0.0622635,-3.11015,0.578723,-1.32037,0.858896,-0.250711,0.363431,0.334727,
0.299109,0.185523,0.819617,2.46564,-0.381062,0.169471,0.828617,-0.819932,0.219608,-0.237228,1.11981,1.25537,0.924136,-0.180274,-0.548409,
0.211539,0.060567,0.671764,2.08891,0.063866,0.148127,1.57248,-1.13435,-2.14389,2.06799,-1.60565,-0.656442,0.588246,1.06687,-0.497725,
-0.18057,-0.0109434,0.463237,2.85305,-0.100484,-0.17941,2.01573,-1.35521,-2.73898,2.14467,-0.404726,0.236963,-1.29826,0.461728,-0.414787,
0.0203797,0.111127,0.732196,2.19598,-0.272244,0.00628649,0.343955,-0.258583,-1.15616,1.7459,0.702636,1.05215,-0.799024,-0.383012,-0.516156,
0.113334,-0.0628338,0.672961,2.11709,-0.0806451,0.0871117,0.408372,0.670865,-2.02272,0.641607,1.09834,0.337423,-1.12571,-0.654864,0.294794,
-0.281173,-0.0909196,0.767899,2.25909,-0.43217,0.22877,2.3731,0.209209,-1.97211,-0.165142,-0.294296,0.522239,0.231651,0.432546,-0.202834,
0.0970387,0.0314169,0.623606,2.32358,-0.377761,0.168797,0.435979,-1.13588,-2.4353,1.96216,-1.40012,-0.197086,0.566007,-0.441375,-0.397892,
0.106962,0.12541,0.69929,2.36737,0.158346,-0.308507,2.29794,0.601847,-0.66076,0.40541,0.836072,1.03834,-0.078932,1.09451,0.339335,
0.117104,-0.0101856,0.547842,2.66793,-0.308106,0.101567,0.693648,-0.284656,-2.46444,1.43455,-0.191535,0.544479,-0.451631,-0.321576,0.061339,
0.203778,0.184311,0.628087,2.2648,-0.112449,-0.0378924,0.655305,-1.16656,-1.57487,1.84866,-1.74215,0.059816,0.723982,0.67368,-0.490045,
-0.107338,-0.144296,0.966901,2.13138,-0.209798,-0.0500765,2.41911,-0.292325,-2.04726,0.0526496,-0.916996,0.304448,0.55297,0.839557,-0.637491,
-0.0733748,-0.0759483,0.769362,2.31268,-0.362131,0.219802,1.42371,0.339577,-0.162294,0.0480484,1.3008,0.580521,0.431804,-0.217136,-0.0661399,
0.0121773,0.062703,0.601323,2.07531,-0.0203507,0.152824,1.48046,0.592644,-2.13622,1.19836,1.12748,0.84816,-1.27218,0.498589,0.492924,
0.161818,0.0995196,0.869676,2.59661,0.0552531,-0.0496756,1.91297,-0.684963,-2.87702,0.100196,-1.52436,1.17791,0.216313,0.641427,-0.522299,
0.149579,0.274605,0.83371,2.16242,-0.257638,0.247175,2.07555,-0.115945,-3.09328,-0.0991909,-1.7943,0.953221,0.746221,0.747403,-0.0123837,
0.0557327,-0.0477542,0.928239,2.36977,-0.134929,0.122719,1.85162,-0.496313,-1.43377,0.742834,0.356011,0.831288,-0.328932,0.73358,-0.64517,
-0.0310673,0.203827,0.912702,2.29055,-0.0547852,-0.0223564,1.55101,-0.615945,-1.8126,0.153877,-0.22221,0.969325,-0.0482571,0.0470374,-0.430146,
0.0885624,0.0409569,0.863485,2.25767,-0.178726,-0.10011,1.62463,-0.108276,-0.492049,1.39621,0.736379,1.24847,-0.185527,0.669073,-0.728108,
0.109074,0.201948,0.731668,2.22774,-0.123509,-0.00892181,0.670642,-1.28159,-2.17303,1.62934,-0.680799,0.153374,-0.53522,-0.0220776,-0.414787,
-0.126858,0.0798716,0.961191,2.28174,-0.0786747,0.096673,2.59702,-0.919625,-3.20831,0.448355,-1.20687,0.663344,-0.164822,0.822662,-0.646706,
0.0719482,-0.00840427,0.63065,-3.10931,1.0162,-0.0856234,1.00653,-1.17576,-1.69144,1.2459,-1.01055,1.22316,-1.2093,0.486302,-0.778793,
0.270129,-0.133578,0.811319,2.12963,0.10712,0.0116501,1.60622,0.21381,0.780958,-0.162074,0.972575,0.243098,1.44637,0.429474,-0.258126,
-0.179252,0.0613187,0.844232,2.41885,-0.0728445,-0.0444898,2.39917,-0.148153,-1.26505,0.233631,0.541593,0.958589,-0.311294,0.744331,-0.265806,
0.19749,0.112579,0.525716,2.14373,0.293494,-0.216376,1.05408,-0.0285212,-2.49205,1.56339,0.788526,0.651074,-1.81283,0.25899,0.43456,
-0.0801966,-0.034334,1.01388,2.11667,0.0493634,-0.133847,2.22739,-0.796926,-2.33714,0.431484,-0.13172,0.446319,-0.847337,0.736652,-0.766506,
0.0638934,-0.111315,0.767727,2.49794,0.0930061,-0.155215,0.713587,-0.508583,-2.91996,1.01584,-1.52743,0.190951,0.0813441,-0.662544,-0.347208,
0.308714,0.277519,0.735772,2.00227,-0.0344858,-0.203395,1.49733,0.138657,-1.72824,-0.223424,-0.944603,0.93635,0.877356,0.348072,0.187282,
0.308917,0.239215,0.779277,2.30906,0.0527406,0.00856924,0.754998,-1.00245,-1.62088,1.17688,-0.762088,0.608896,-0.121877,0.475551,-0.557625,
-0.0474004,0.0498155,0.997485,2.10828,0.0685002,-0.249881,2.02187,-0.979441,-3.02886,0.601729,-1.4354,0.315184,-0.216969,0.474015,-0.708142,
0.0462238,0.0228422,0.79696,2.12921,-0.208418,0.228223,2.08629,0.419332,-1.95524,-0.0838535,-0.778959,0.443252,0.787632,0.598422,0.104344,
0.0369421,0.16406,0.762968,2.51733,-0.314108,0.0968215,1.16451,-0.485576,-2.22058,0.736699,-0.668529,0.909509,0.108951,-0.072762,-0.146006,
-0.0850389,0.170741,0.718178,2.38438,-0.0605754,-0.0880133,2.26573,0.345712,-0.450638,0.100196,1.03853,0.980061,0.00465699,0.67368,0.282507,
0.00662882,0.190314,0.56987,2.29981,-0.473533,0.16416,1.27954,0.0819082,-1.82794,1.43609,0.227176,0.932515,-0.299791,0.412579,0.282507,
-0.0378276,0.213573,0.669305,2.46752,-0.19211,0.157962,1.34395,-1.18496,-3.33254,1.48516,-1.52436,0.496166,0.212479,-0.427552,-0.224337,
-0.15758,-0.0223181,0.709191,2.21792,-0.0732266,0.0286746,1.86696,0.598779,-1.15616,1.27351,1.61981,1.1342,-0.844269,0.56924,-0.129111,
0.0787777,-0.0923341,0.87908,2.25835,-0.0695367,-0.26028,1.35469,-1.21257,-2.23438,1.32872,-0.568836,-0.121933,-0.783687,0.587671,-0.870946,
-0.195258,0.182509,0.899985,2.24951,-0.0990706,-0.030989,1.83475,-0.711037,-3.38469,0.227496,-1.49828,0.802914,-0.14795,-0.0220776,-0.474687,
-0.129328,0.0267438,0.450548,2.71762,-0.237951,0.108845,1.69825,-0.873613,-3.33867,1.89467,-1.3035,0.18865,-0.226171,-0.264748,-0.0692116,
0.255297,0.204021,0.874761,2.24807,-0.0814344,-0.0676455,1.02187,-0.661957,-1.17763,0.810318,-0.257486,0.884202,0.0215282,0.403364,-0.608309,
-0.0349912,-0.0711304,0.76244,2.14653,0.100471,0.0486808,1.91144,0.511356,-1.87548,0.166147,0.837606,0.414877,-1.15792,0.35268,0.0736261,
-0.14543,0.153962,0.859868,2.29474,0.193289,-0.25661,1.30254,-0.390484,-1.20524,-0.0961234,0.563066,0.922546,-0.469269,-0.49206,-0.327241,
0.307308,-0.060709,0.795343,2.23133,-0.0124858,-0.21311,1.42524,-0.384349,-1.8034,1.08639,-1.12405,0.230061,0.611252,0.876418,-0.557625,
0.170799,0.0342245,0.884735,2.12434,-0.00596407,0.154142,1.53414,-0.0131838,-1.37242,-0.151338,-0.243683,0.44862,0.69254,0.116152,-0.236624,
-0.119528,-0.0948988,0.648424,2.26514,-0.110062,0.110326,1.06635,0.468411,-3.03499,0.47903,-0.216075,0.254601,-1.22924,-0.710156,0.256397,
0.181304,0.143971,0.486018,2.4403,-0.140214,0.0270072,1.12923,-1.09907,-2.92303,2.06799,-0.248284,-0.131902,-0.78292,0.136119,-0.0215991,
0.0256735,0.138365,0.726698,2.27149,-0.0981401,0.0103119,0.307145,0.181601,-1.8264,0.801116,0.305397,0.759969,-0.543656,-0.897535,0.18421,
-0.119613,0.159946,0.652646,2.56787,-0.181722,0.134825,1.09242,-0.684963,-1.75892,1.39467,0.0369921,1.23466,-0.853472,-0.109623,-0.273485,
0.039188,0.112989,0.39593,2.46346,0.250155,-0.193919,2.20285,-0.338337,-3.26045,1.864,-0.605646,-0.0329755,-1.12648,0.705934,0.557431,
0.0895599,0.00880275,0.566337,2.5779,-0.511854,0.0833069,0.397636,-0.135883,-1.20064,1.95602,0.412759,1.23926,-0.419423,-0.131126,-0.51462,
-0.056369,0.0541748,0.58909,2.3724,0.0279107,-0.280062,1.59856,0.592644,-1.60555,1.41768,0.836072,1.07055,-1.00378,0.709006,0.218,
0.0254858,0.137482,0.5935,2.83751,-0.0300766,-0.0934898,2.13537,-0.47484,-3.00125,1.05572,-1.48295,0.874233,0.123522,0.735116,0.119703,
-0.0171603,0.206067,0.892822,2.2626,0.423041,-0.336398,0.595489,-0.569932,-0.525791,0.221361,1.22104,1.2523,-0.674024,-1.00198,-0.476222,
-0.15169,-0.107452,0.567532,2.33627,-0.189575,-0.187846,2.58782,0.841111,-3.00892,0.462159,0.337606,-0.0820552,-1.85807,0.942461,0.594293,
0.369063,0.247508,0.786359,2.29689,-0.0972395,-0.126211,0.281071,-0.448767,-1.42917,0.368601,-0.578039,1.08129,0.500056,-0.501275,-0.330313,
-0.222728,-0.0250826,0.903295,2.36638,-0.00103486,-0.217746,2.19825,-0.384349,-3.33714,-0.145203,-1.5443,0.812883,-0.29749,0.403364,-0.585271,
-0.0704233,0.0705391,0.689241,2.68498,-0.208701,-0.117209,2.26113,-0.496313,-2.36628,1.13087,-0.720677,0.710123,-0.264515,1.01311,-0.101465,
0.0169747,0.0532862,0.590032,2.73425,0.171852,-0.116642,0.176777,-0.665024,-1.74205,1.65694,-0.0274251,1.03528,-1.20777,-0.674831,-0.339528,
0.0686155,0.0488966,0.74778,2.21449,-0.18387,-0.100128,1.97432,0.531295,-2.4307,-0.192749,-1.50442,0.717791,0.816774,0.572312,0.211856,
0.137398,0.0578242,0.80138,2.45225,-0.097763,-0.159956,1.31635,-0.332202,-1.49358,0.985165,-0.087241,0.842791,-0.215435,0.481694,-0.390213,
-0.0940426,0.286105,0.812181,2.08144,-0.118922,-0.12344,2.06175,-0.180362,-2.59328,0.456024,-0.978345,0.505368,-0.124944,0.560025,0.122775,
0.0768666,0.00899094,0.616575,2.53357,-0.249712,0.108931,0.693648,-1.01012,-2.09634,1.85786,0.297728,0.470092,-1.25455,-0.086585,-0.427074,
0.0355185,-0.0571588,0.834558,2.10506,0.212137,-0.327291,1.86849,0.425467,-1.09328,0.79038,1.1873,0.629601,-0.994576,0.685968,-0.193619,
-0.00527553,0.122673,0.953899,2.23957,-0.31528,0.199176,1.96359,-0.60981,-1.37702,0.0526496,0.0262559,0.907975,0.473215,0.480158,-0.543802,
0.202002,0.129027,0.569001,2.2758,-0.047698,-0.157241,0.834752,-1.05153,-2.28499,1.9867,-0.840308,-0.164877,-0.244576,0.345,-0.250447,
0.163641,0.178304,0.749468,2.12264,-0.374202,0.260727,0.748863,-0.873613,-2.19297,1.41921,-0.964542,0.18865,0.401896,-0.000575137,-0.299595,
-0.0751101,0.0817629,0.832345,2.56229,-0.350441,0.084719,1.03414,-1.05153,-1.65616,0.940686,-0.275891,1.09126,-0.266815,-0.0742978,-0.723501,
-0.133806,0.175217,0.70317,2.31594,-0.0357425,0.0193738,1.80715,0.0159573,-2.39849,0.604797,-0.324971,0.736963,-0.610374,0.248239,0.248718,
-0.037711,0.197397,0.582681,2.4236,0.0384334,-0.121213,0.586286,0.111049,-3.1991,0.71676,-1.68693,0.689417,-0.00301172,-1.06034,0.563575,
-0.22963,0.179403,0.779108,2.34971,-0.0524837,-0.136486,1.14303,-0.293859,-2.95984,0.258171,-1.167,0.81135,-0.370343,-0.688654,-0.101465,
-0.166282,-0.00360753,0.790368,2.38885,0.0185681,-0.259819,0.794875,-1.0822,-2.00739,1.39007,0.214906,0.67638,-1.56743,-0.410658,-0.692783,
0.268654,0.105416,0.890924,2.13998,0.296765,-0.343249,1.69211,-0.143552,-0.766588,0.825656,0.619814,0.964724,-0.464668,0.810375,-0.477758,
0.028185,0.0509903,0.792098,2.38423,-0.229832,0.111606,0.47739,-0.0101163,-1.99665,0.498969,-0.170063,0.703221,-0.0643614,-0.865281,-0.0569245,
-0.0856217,-0.0682947,0.693467,2.2753,-0.0495553,0.0868302,1.67064,0.920865,0.342307,1.21829,1.95877,0.982362,0.121221,-0.218671,-0.11836,
0.280099,0.0686158,0.72325,2.51127,0.139244,-0.0460526,0.35009,-1.1957,-2.01659,1.43148,-1.17313,0.389571,-0.0804657,-0.0389724,-0.639027,
0.182148,0.185366,0.583748,2.50856,-0.292269,0.0941479,1.42984,-0.606742,-2.64389,1.3732,-1.15779,0.545245,0.416467,0.447905,0.133526,
0.182237,0.112761,0.77706,2.16283,0.0110311,-0.0670871,0.863894,-1.25858,-2.1715,1.63087,-1.32804,-0.0996933,0.0537367,0.286636,-0.571448,
0.0279244,0.136477,0.682416,2.31414,-0.127992,0.0479367,1.1277,-0.404288,-2.88775,1.22903,-0.729879,0.203988,-0.450864,-0.261676,0.136598,
0.0330642,0.00554018,0.797175,2.35846,0.303902,-0.347576,1.55715,-0.789257,-1.25585,1.53424,0.359078,0.953988,-1.49994,0.960892,-0.760362,
0.128389,-0.139313,0.737579,2.12206,0.241564,0.0742249,1.42831,0.568105,0.0447612,-0.105326,0.257851,-0.11273,1.36049,-0.04358,0.0121905,
-0.226826,-0.0245695,0.823,2.16578,-0.0630252,0.138256,1.99273,-0.953368,-2.97518,1.23056,0.471041,0.639571,-1.85424,0.12844,-0.602165,
-0.168775,0.124304,0.790486,2.19383,-0.18417,-0.247195,2.00653,-0.615945,-1.94297,1.36553,0.529323,0.574387,-1.4777,0.854915,-0.318026,
0.11373,0.0397926,0.821138,2.09345,0.137429,-0.145005,1.98966,0.270559,-1.05647,1.36553,1.13975,0.980828,-0.835067,1.09298,-0.337992,
-0.182675,0.0535866,0.967605,2.07029,-0.257058,0.00266841,1.30101,-0.976374,-2.66843,0.656944,-0.495216,0.315184,-0.536754,-0.336935,-0.732716,
-0.0741373,0.119952,0.920398,2.17852,-0.0955894,-0.263257,0.894568,-0.924227,-2.61168,0.831791,-1.15166,0.309049,-0.207766,-0.512026,-0.53305,
-0.228078,-0.0395933,0.654136,2.69841,-0.27266,0.0207392,2.28414,-0.603675,-3.30647,1.12934,-1.54276,0.470859,0.000822638,0.355751,-0.248911,
0.252499,0.104034,0.633595,2.34709,-0.0111543,0.0570663,1.17371,0.155528,-2.36015,0.873202,-0.229879,0.552914,-0.189361,0.271277,0.362373,
0.0805315,-0.0426184,0.71752,2.43161,0.244237,-0.430813,1.77187,-1.39355,-2.5442,1.80418,-0.387855,-0.197086,-1.41252,0.933246,-0.669745,
0.0241886,-0.0658303,0.53355,2.95788,0.150331,-0.0722485,1.92371,0.224546,-2.4261,0.819521,-0.516689,0.909509,-0.473871,0.702862,0.234895,
0.225199,0.0949727,0.580387,2.3251,-0.42672,0.270372,1.53414,-0.649687,-2.54266,1.65541,-1.15626,0.131135,0.750823,0.776585,-0.0108478,
-0.0334255,-0.0526021,0.467454,2.84875,-0.0487411,-0.087878,2.43598,-0.738644,-2.87395,1.93302,0.106011,0.187117,-1.52678,1.07608,-0.103001,
-0.0426169,0.17842,0.870325,2.04365,-0.0625438,-0.0570529,0.925243,-0.161957,-0.912294,1.21829,1.02165,1.12117,-0.67249,-0.260141,-0.467007,
0.35124,0.116666,0.81446,2.33595,-0.00642233,0.0279578,1.10622,-0.252448,-1.09788,-0.103792,-0.0642349,0.940184,0.726283,-0.0113264,-0.276557,
-0.213934,0.0855099,0.721759,2.19239,-0.209169,0.0948197,2.05254,-0.944165,-2.39082,1.61707,0.563066,0.72316,-1.74611,0.596886,-0.359495,
0.239805,0.16754,0.83094,1.98848,0.12726,0.0262152,1.73199,0.362583,-0.841742,0.518907,0.909692,0.609663,-0.0628277,0.632211,0.0429083,
-0.0741991,0.0492541,0.880813,2.28357,-0.482568,0.225784,1.06942,-0.312264,-1.32947,0.541913,0.291593,0.902607,0.194074,-0.316968,-0.434753,
0.123963,0.0982194,0.538627,2.53391,-0.0899156,-0.230784,0.627697,-0.821466,-1.64542,1.9775,-0.03356,0.416411,-0.984607,0.374182,-0.379461,
0.050505,-0.00772645,0.856099,2.35007,0.233436,-0.260025,1.60469,-0.491711,-2.05953,0.894674,-0.0381613,0.586656,-0.995343,0.484766,-0.410179,
0.312067,0.334185,0.846612,2.20228,-0.0650512,0.028718,1.45285,-0.823,-1.95371,0.500502,-1.0719,0.909509,0.435639,0.699791,-0.407107,
0.0658361,-0.139381,0.805428,2.36281,-0.129646,0.138246,2.3915,0.111049,-2.75585,0.351729,-1.03356,0.291411,0.154964,0.996217,-0.159829,
0.152219,0.0418068,0.620424,2.58847,0.282615,-0.116859,1.99119,0.48835,-2.70217,0.124735,-1.00902,0.916411,-0.0796988,0.710542,0.409986,
0.289323,0.0577774,0.882935,2.30885,-0.201311,-0.028837,1.07862,-0.643552,-1.82487,0.543447,-1.12405,0.742331,0.69254,0.301995,-0.61906,
0.0269016,-0.00286075,0.963171,2.03575,-0.110217,-0.0803638,2.27647,0.0727058,0.11378,0.756637,1.18883,0.778374,0.399596,0.790408,-0.54073,
0.298837,0.101173,0.744028,2.17888,0.0754658,-0.175561,0.794875,-1.09907,-1.72058,1.58486,-0.430799,-0.0843558,-0.774484,0.762762,-0.709678,
0.126582,0.0901564,1.00711,2.05523,0.317488,-0.356928,1.87616,-0.668092,-1.08254,0.152343,0.423495,0.748466,-0.470036,0.593814,-0.685103,
0.12361,-0.0602901,0.658936,2.27942,-0.0363727,0.126652,1.11543,0.427,-2.56413,0.675349,0.369814,0.304448,-1.02295,-0.0773696,0.290187,
0.165298,-0.121897,0.776099,2.30563,0.209765,0.012888,1.56635,-0.97484,-2.66229,1.52658,-1.88325,-0.326687,0.533798,0.49091,-0.620596,
0.0464557,-0.0665557,0.929439,2.47568,-0.0288128,-0.0103639,2.10776,-0.562264,-1.49665,0.575656,0.125949,0.890337,-0.29519,0.928638,-0.674352,
0.290968,0.230037,0.64666,2.35277,0.0299693,0.083608,0.498863,-1.04539,-2.6853,1.49283,-1.50595,0.337423,0.411099,-0.369189,-0.155221,
0.263452,0.0692267,0.746876,2.60724,0.0543642,0.070834,0.682912,-0.784656,-2.98438,0.971361,-1.57497,0.618865,0.341313,-0.49206,-0.322633,
0.0733744,0.0218403,0.633813,2.57243,-0.137531,0.0607295,1.00807,0.0696383,-2.26352,0.949889,-0.136321,0.728528,-0.414055,-0.132662,0.176531,
-0.0395567,0.0401149,0.79078,2.44939,-0.0228997,-0.243514,2.22432,0.107982,-1.46597,0.719828,0.263986,0.869632,-0.426325,1.02079,-0.0983936,
0.100334,0.084439,0.896404,2.2405,-0.291062,0.00784404,1.60162,-0.342938,-1.26812,0.840993,0.0569308,0.782209,0.0798104,0.658322,-0.476222,
-0.099533,0.260472,0.774757,2.07558,0.18629,-0.129638,2.27647,0.327307,-0.953705,0.868601,1.20264,1.20169,-0.82203,0.854915,0.113559,
0.00706678,0.171029,0.654937,2.50553,0.056116,-0.307037,1.71819,-0.643552,-1.33101,1.67995,-0.0120876,1.00613,-1.06513,1.13752,-0.385605,
-0.167464,0.0216558,0.754336,2.41696,-0.40709,0.195255,1.82095,0.0987794,-1.39236,0.732097,0.596808,1.03451,-0.227705,0.368038,-0.14447,
-0.0311464,0.0130105,0.476089,2.73987,-0.111551,-0.186394,1.97126,-0.56073,-2.6853,1.83026,-0.188468,0.22546,-1.05593,0.79348,0.0705543,
0.275998,0.0453683,0.61095,2.33808,-0.198978,0.243485,1.60316,-0.821466,-2.41843,1.79651,-1.54123,-0.131135,0.959412,0.993146,-0.245839,
0.135517,0.0870976,0.898918,2.23797,0.0323087,-0.117954,0.889967,-0.556129,-1.78039,0.767374,-0.139388,0.599693,-0.450864,-0.111159,-0.476222,
-0.176813,0.13898,0.844939,2.25571,-0.135731,-0.220124,1.66911,-1.24325,-2.39696,1.2413,-0.415462,0.403374,-0.983073,0.325033,-0.591414,
0.239328,-0.0568486,0.693065,2.30887,-0.131678,-0.0665008,1.67218,-0.77392,-2.91229,1.52197,-0.400124,-0.433282,-0.658687,0.732044,-0.387141,
0.229734,-0.0752383,0.782436,2.64731,-0.132961,-0.0244261,0.586286,-0.365945,-1.25278,0.96676,0.0661332,1.0184,-0.0766313,-0.167987,-0.65285,
0.0723123,-0.0540837,0.65698,2.51005,-0.122553,-0.103488,1.778,-0.119012,-1.6807,1.62627,0.563066,0.832055,-0.919423,1.09759,-0.318026,
-0.061673,-0.0228576,0.485823,2.98683,0.718939,-0.230325,1.21512,-1.07607,-1.55493,1.92842,-0.444603,0.878834,-1.76682,0.612245,-0.612917,
0.163271,-0.0493477,0.906936,2.62294,-0.276654,0.0872423,2.18751,-0.812264,-1.88009,0.13087,-0.702272,1.15031,0.523062,1.03154,-0.798759,
0.152712,0.150536,0.6132,2.18133,-0.234949,0.148481,0.481992,-0.804595,-2.56874,1.79038,-1.46301,-0.143405,0.669534,-0.43984,-0.0431015,
-0.131559,-0.0462636,0.856128,2.46088,-0.184353,0.00817565,1.93445,-0.209503,-1.41843,0.572588,0.474109,0.915644,-0.370343,0.486302,-0.437825,
0.0969713,-0.0986018,0.767046,2.19035,0.309281,-0.206124,2.29794,0.446939,0.0125526,-0.154406,1.98638,0.266104,-0.470803,0.868738,0.0367647,
0.261763,-0.0410574,0.642386,2.16016,0.259668,-0.115903,1.94825,0.767491,-2.86935,0.144674,-1.3035,0.258436,0.261559,0.873346,0.472957,
-0.221052,-0.0917326,0.833348,2.64139,0.268476,-0.257099,2.57402,-0.313797,-3.0442,-0.272504,-1.27896,1.15567,-0.492276,0.750475,-0.602165,
-0.110599,0.0833839,0.670788,2.54969,0.403732,-0.271073,1.68751,-1.33067,-2.30953,1.6232,-0.556566,0.690951,-1.43706,0.481694,-0.491581,
0.00522176,0.311427,0.767855,2.12769,-0.00292649,-0.0999787,2.43751,-0.186497,-3.27119,0.560318,-1.87252,0.547546,0.247755,0.902528,0.251789,
0.0730704,-0.0321838,0.639691,2.30625,0.162347,-0.279239,0.689047,-1.28926,-1.4399,2.07872,-1.89399,-0.507669,0.362786,0.578455,-0.812582,
-0.22965,0.122715,0.938937,2.07238,-0.146767,-0.0348776,1.88997,-0.493245,-1.64542,-0.11913,0.17963,0.598926,-0.107306,-0.000575137,-0.53305,
0.0972687,-0.026388,0.802914,2.22415,0.0163307,-0.175837,1.62923,0.514424,-0.686834,0.541913,0.811532,0.663344,0.0253625,0.407972,-0.0584604,
0.305281,0.104963,0.943918,1.97079,0.0217082,-0.0870359,1.8915,-0.339871,-1.76966,-0.137534,-1.22528,0.681748,0.950976,0.745867,-0.477758,
-0.247813,-0.120307,0.944331,2.06158,-0.407579,0.180781,1.55561,-0.339871,-0.378552,0.258171,1.35754,0.507669,0.221682,-0.244782,-0.792616,
-0.135484,0.106659,0.720723,2.22395,-0.256191,0.110211,1.65991,-0.574533,-3.24358,1.24283,-0.366382,0.0329755,-1.06743,-0.108087,-0.0569245,
-0.0502687,-0.0873537,0.704499,2.68424,0.164299,-0.234369,1.53721,-1.20337,-1.50278,1.62013,-0.143989,0.692485,-1.35731,0.973179,-0.85098,
0.0849441,-0.0181006,0.457407,2.44399,-0.0438285,-0.0195187,1.98659,-0.717172,-3.14236,2.18609,-1.21914,-0.57362,0.0207613,0.705934,-0.0477092,
0.176461,0.134051,0.742502,2.11051,-0.143605,0.0028767,1.98199,-0.207969,-2.48438,1.07105,-1.05657,0.120399,0.393461,1.03308,0.0920568,
-0.135122,-0.0187156,0.49912,2.14755,-0.173271,-0.192539,2.05408,-0.146619,-3.28346,1.80418,-1.33264,-0.83819,-0.39565,0.265134,0.199569,
0.086083,0.10697,0.464497,2.4845,-0.321754,0.178096,2.3961,-0.623613,-3.13622,1.90388,-0.481413,-0.0260736,-0.464668,1.06687,0.271756,
-0.0805474,0.00171399,0.512399,2.51289,-0.523644,0.0496073,1.73813,0.736816,-1.53806,1.55418,0.785458,1.26457,-0.293656,0.891777,0.185746,
0.242211,0.269927,0.68974,2.04725,0.191853,-0.382904,0.544875,-1.15122,-1.46597,1.65694,0.0477283,0.121933,-1.54289,0.64757,-0.531514,
-0.0540564,0.0909326,0.710284,2.21159,-0.126217,0.0819818,0.549476,-0.796926,-1.35555,1.84099,0.676563,1.19172,-1.38875,-0.237102,-0.625204,
-0.129928,-0.12333,0.810979,2.45668,0.414097,-0.340566,2.42831,-0.692632,-2.9261,0.965226,-0.633253,0.406442,-1.31436,0.810375,-0.499261,
-0.00937136,-0.128076,0.838434,2.47238,-0.203926,-0.0605961,1.21205,-1.39202,-3.27272,1.32566,0.374415,-0.197853,-1.83507,-0.373796,-0.898592,
0.15896,-0.0897819,0.753754,2.09238,0.0908599,0.117591,2.18138,0.707675,0.622982,0.0863919,1.69497,0.154141,0.84208,0.796552,0.128918,
0.340871,-0.032332,0.771279,2.35706,-0.0454615,-0.0935326,1.11849,-0.430362,-2.15463,0.877803,-1.37405,0.42408,0.760792,0.415651,-0.42861,
0.10775,0.170745,0.742703,2.06151,-0.0641327,0.175832,2.46512,0.784362,0.514086,0.822588,1.79159,0.928681,0.684105,0.894849,0.282507,
0.106611,-0.103181,0.661226,2.60401,-0.00843139,-0.0333573,2.19825,-0.484043,-3.13622,1.31032,0.336072,-0.0720859,-1.7277,0.856451,-0.185939,
0.161222,0.241184,0.775024,2.15539,-0.0669931,0.16887,1.03414,-0.154288,-1.27579,1.26277,0.601409,1.04525,-0.452398,0.217521,-0.190547,
0.227566,0.149251,0.787606,2.16253,-0.270667,0.0327112,0.948249,-0.680362,-1.01966,1.5051,-0.219143,0.479294,-0.177091,0.888705,-0.792616,
-0.145724,0.148148,0.563339,2.49469,0.0233369,-0.272451,2.21205,0.474546,-1.75892,1.03118,0.294661,1.05828,-0.884147,1.02079,0.488316,
-0.23457,0.101113,0.750975,2.42212,-0.0902856,-0.297866,0.77647,-1.22944,-2.09021,1.41461,-0.147057,0.629601,-1.32817,-0.519706,-0.615988,
0.114821,0.327964,0.900373,2.0949,0.0400968,-0.206893,1.3823,-0.615945,-1.71137,0.452956,-0.361781,0.81135,-0.190128,0.260526,-0.311882,
0.083061,-0.0769774,0.516414,2.06676,0.25422,-0.109314,1.1461,0.0543009,-3.20217,1.64467,-1.68693,-0.853528,-0.103472,-0.381476,0.207249,
0.0130766,0.0638321,0.796691,2.12764,-0.0164413,-0.157083,1.87923,-0.0806684,-2.53499,0.834858,0.543127,0.208589,-1.59887,0.599958,0.0275494,
0.148825,-0.112556,0.833917,2.2016,0.0498119,-0.111093,1.57402,0.187736,-0.0395946,-0.0439762,0.751716,0.393405,0.743154,0.234416,-0.248911,
0.214042,0.123453,0.662847,2.55178,0.0915478,-0.0312919,1.56175,0.115651,-2.71444,0.325656,-1.09951,0.901074,0.161866,0.363431,0.256397,
0.146808,-0.142944,0.915349,2.55164,0.211748,-0.126675,1.07708,-0.729441,-0.775791,-0.11913,0.517053,0.932515,0.0637061,-0.290858,-0.866338,
-0.173911,-0.00859497,0.72993,2.46355,-0.0903826,-0.0245139,2.37463,-0.781589,-2.39696,1.40848,0.153557,0.642638,-1.39642,0.956284,-0.371782,
0.0517237,0.0551947,0.70658,2.50996,-0.152378,0.00888759,2.37003,0.428534,-2.2988,-0.10686,-0.897057,0.930982,0.434105,0.911743,0.242574,
0.364209,-0.0921861,0.796141,2.42159,0.352637,-0.259812,1.36389,-0.471773,-2.59788,0.572588,-1.70074,0.56135,0.387326,0.461728,-0.510012,
0.0144363,0.0886121,0.717078,2.19611,0.258244,-0.352815,0.481992,0.0788408,-3.05647,0.69222,-1.20227,0.282975,-0.63338,-1.0542,0.257933,
-0.131365,-0.0598224,0.595465,2.25842,-0.0891752,0.0688414,2.0142,0.687736,-3.20064,0.457558,-1.20227,0.206288,-0.481539,0.191411,0.543608,
0.341791,0.166583,0.816941,2.14778,-0.0905228,0.0329885,0.843955,-0.879748,-1.37548,1.24897,-1.06577,0.319785,0.398062,0.804231,-0.766506,
0.183579,0.170272,0.677236,2.10968,-0.118421,0.080741,2.04794,-1.42729,-3.26045,1.9775,-0.510554,-0.543712,-0.68246,0.876418,-0.380997,
0.202707,0.164441,0.658776,2.12017,-0.0743394,-0.320926,1.55254,0.505221,-1.49665,1.02811,0.263986,0.73773,-0.12341,0.916351,0.294794,
0.174867,0.256739,0.82806,2.26219,0.426761,-0.342154,1.69365,-1.00705,-3.03039,0.752036,-1.63325,0.805982,-0.223104,0.45712,-0.367174,
-0.0677647,-0.0182125,0.633339,2.03702,-0.167739,-0.192113,2.23813,0.887123,-2.46597,0.50357,-0.75902,-0.0521472,0.0606386,0.971643,0.618867,
0.121762,0.0677637,0.850093,2.1207,-0.172241,-0.00972153,1.90991,-0.665024,-2.76199,1.09406,-0.156259,-0.134969,-0.933226,0.771977,-0.307275,
-0.000680168,-0.0909453,0.699742,2.22716,-0.224028,0.0350524,1.72432,-0.990178,-2.10861,1.94529,-1.68387,-0.617331,0.81754,0.899456,-0.639027,
-0.159665,0.0384131,0.75093,2.56314,0.439184,-0.343576,1.84702,-0.646619,-2.13469,1.0005,-0.262088,0.940184,-1.31053,0.466335,-0.367174,
0.210875,0.245823,0.78529,2.05662,-0.151784,-0.163442,1.70285,0.111049,-1.74665,-0.0179025,-0.903192,0.842791,0.820608,0.533914,0.130454,
0.216335,0.203706,0.720075,2.44882,0.392442,-0.375803,1.58475,-0.221773,0.509485,-0.220357,1.97564,1.14417,-0.0819994,0.411043,-0.0123837,
-0.0751248,0.111984,0.849828,2.2942,-0.118539,0.106123,2.2734,0.160129,-0.541128,0.894674,1.25478,1.24923,-0.143349,0.807303,-0.268877,
-0.199385,0.0380036,0.799281,2.22673,0.0517899,-0.355706,1.95132,-0.776987,-1.28346,1.58179,0.730244,1.19172,-1.60654,0.919423,-0.771113,
-0.176522,0.0514504,0.653738,2.65725,-0.64415,0.172674,2.54488,-0.919625,-3.15769,1.33026,-1.48601,0.595092,0.462479,0.744331,-0.271949,
0.00187535,0.0890147,0.788467,2.03575,0.0813756,-0.219213,2.19672,0.523626,-0.89849,1.5051,1.31307,1.10583,-0.789822,1.14059,-0.232016,
0.0236688,0.115878,0.952263,2.27104,0.11775,-0.340377,0.834752,-0.896619,-2.46444,0.403877,-1.13632,0.721626,-0.225404,-0.499739,-0.640563,
-0.0652331,0.166066,0.795099,2.51016,0.191956,-0.376253,2.33015,-0.517785,-2.4399,0.624735,-0.987548,0.888804,-0.427091,0.9655,-0.165973,
-0.0124243,0.316389,0.899017,2.09891,0.166286,-0.322499,1.68751,-0.895086,-2.02119,0.64314,-0.378652,0.819018,-0.743042,0.450976,-0.410179,
-0.0597226,-0.0472698,0.872318,2.10198,0.027236,0.0411684,2.55868,0.212276,-1.58867,0.356331,1.04926,0.488497,-1.04212,1.08069,-0.173652,
-0.0510978,0.0776464,0.423432,3.07182,-0.230266,-0.0954,1.97126,-0.51165,-1.74818,1.87013,-0.265155,1.19248,-0.851938,1.12216,-0.141398,
0.0175669,-0.0455876,0.66296,2.32015,0.0293181,0.026931,1.39917,0.626387,-2.09021,0.451423,0.329937,0.522239,-0.725404,0.0685399,0.353158,
0.121392,-0.0889795,0.827275,2.2945,-0.466899,0.229169,1.63076,-0.789257,-2.13622,1.20909,-0.662394,0.201687,0.246988,0.787336,-0.628276,
0.0133204,0.0858768,0.361098,2.70726,-0.219484,-0.0127275,1.41757,-0.84754,-2.97671,2.15234,-1.37405,0.0981595,0.18027,0.067004,0.185746,
0.345639,0.220714,0.801743,2.18074,0.245802,-0.258231,1.29181,-0.683429,-1.92303,0.916147,-0.77129,0.578221,-0.188595,0.687503,-0.356423,
-0.122434,-0.0365462,0.830972,2.34583,-0.366833,0.0652803,2.20285,-1.33834,-2.89849,1.42995,-1.1992,0.115031,0.0406999,0.684432,-0.723501,
-0.133737,-0.0435919,0.920921,2.14235,-0.0372009,-0.342598,1.92064,0.143258,-0.0626007,0.736699,1.31153,0.745399,-0.118042,0.295852,-0.525371,
0.0778377,-0.0333879,0.575981,2.58125,-0.12485,-0.0977981,1.69365,-1.40122,-2.56874,2.13547,-0.791229,-0.190951,-0.489975,0.827269,-0.53305,
-0.146228,-0.00200185,0.785027,2.44964,0.0548128,-0.300718,0.659906,0.0911107,-2.27426,-0.0301725,-0.791229,0.754601,-0.213134,-1.0542,-0.129111,
0.0128393,-0.0589649,0.720752,2.47024,0.0134927,-0.332318,1.48506,-1.15122,-2.9353,1.66461,-0.389388,-0.239264,-1.19396,0.219057,-0.55916,
0.345177,-0.0763522,0.883633,2.20189,0.112017,0.00351807,0.940581,-0.35981,-1.81567,0.569521,-0.44767,0.31365,0.0575711,0.0716117,-0.594486,
0.09074,0.0326963,0.950695,2.36321,-0.0529196,0.119216,2.23506,-0.370546,0.26562,0.649275,1.86675,1.22623,0.345915,0.722829,-0.682032,
-0.00695889,0.0969931,0.647429,2.21092,-0.0886951,-0.103831,0.503464,-0.707969,-2.63929,1.7321,-1.83571,-0.316718,0.610485,-0.74241,-0.0753552,
0.16521,-0.0404185,0.611275,2.13334,0.289088,-0.203543,1.77954,0.0496997,-2.46137,1.48056,-1.74062,-0.583589,0.86662,0.937853,0.110487,
-0.00839231,-0.016825,0.657222,2.26739,-0.0318588,-0.155874,2.38076,0.253687,-2.88622,0.943754,-1.43233,-0.0199387,0.203277,1.03154,0.336263,
0.341742,0.277656,0.826422,2.31271,0.143821,-0.267528,1.67524,-0.654288,-1.38929,0.0449809,-0.512088,1.25307,0.309872,0.787336,-0.434753,
0.389239,0.0901922,0.787525,2.21456,-0.102552,-0.00415963,0.529538,0.127921,0.0677674,0.373202,0.888219,1.03528,0.850516,-0.501275,-0.216657,
0.336397,0.179146,0.791546,2.08808,0.173647,-0.100795,1.91911,-0.299994,-2.32947,0.828723,-0.657793,0.305982,-0.131079,1.07301,-0.0431015,
-0.236448,-0.00794893,0.850355,2.30675,-0.185447,-0.0746753,2.49733,-0.454902,-2.05033,0.856331,0.296195,0.660276,-0.988441,1.0085,-0.416323,
0.215651,-0.0125203,0.826192,2.18968,-0.177397,0.0517862,2.06788,0.397859,-0.334073,0.471361,0.70417,0.775307,0.758491,0.928638,-0.146006,
0.195111,-0.0919681,0.844024,2.46219,-0.282439,0.211684,1.2734,-0.184963,-1.97058,0.026576,-0.686934,0.779141,0.721682,-0.0205417,-0.439361,
-0.197048,-0.0286494,0.647016,2.40111,-0.0560443,-0.0153776,1.83015,0.560436,-1.69757,0.495901,0.546195,0.777607,-0.806693,0.23288,0.264076,
-0.219989,-0.0331093,0.784808,2.10648,-0.184041,0.0665701,2.2642,0.589577,-0.728245,1.04191,1.78699,0.884202,-0.542122,0.718221,-0.23048,
-0.267512,-0.117701,0.781033,2.27556,-0.242331,-0.040965,2.25653,-0.0729997,-3.1715,0.495901,-0.659327,0.147239,-0.88338,0.409507,-0.248911,
0.21369,0.297517,0.807006,2.1886,0.0247285,-0.00365968,1.44825,-1.32147,-2.2988,1.24437,-1.61638,0.447853,0.340547,0.810375,-0.457792,
-0.133019,-0.0211361,0.603767,2.19439,-0.328288,0.242624,1.41911,0.607982,-3.20371,0.475962,-1.90933,0.235429,0.543001,-0.395299,0.537465,
-0.102259,0.200702,0.648861,2.67259,0.104837,-0.203627,0.561746,-1.13128,-3.0442,1.29345,-1.46914,0.816718,-0.289055,-1.10181,-0.247375,
0.15694,0.0776259,0.704945,2.32303,-0.157562,-0.0268939,1.08935,-0.878214,-2.17303,1.60786,0.297728,0.175613,-1.20777,0.409507,-0.361031,
-0.0138431,0.14389,0.433256,2.70065,0.522343,-0.430743,0.667575,-1.02699,-1.20831,2.08639,-0.424664,0.833589,-1.66482,0.449441,-0.422466,
0.170163,-0.0485913,0.767247,2.07256,0.0529018,0.181727,2.07402,0.5497,-2.66843,0.0833245,-1.53049,0.0812883,0.789933,0.761226,0.13199,
0.177875,0.0991074,0.950956,2.01691,0.0148521,0.089281,1.71359,-0.921159,-2.68377,0.914613,-0.69767,0.0406442,-0.470803,0.59535,-0.560696,
0.00450501,0.0447574,0.796205,2.19935,-0.0309556,-0.000568072,2.22432,-0.257049,-3.09328,0.913079,-1.17927,0.0437117,-0.230772,0.721293,-0.0292785,
0.0274094,-0.133349,0.827632,2.47859,0.046333,-0.0314335,2.35469,-0.763184,-2.96751,1.09559,-0.835707,0.177914,-0.59657,0.933246,-0.522299,
0.257809,0.0672053,0.784657,2.3496,0.202865,-0.0535872,2.07555,0.341111,-0.212907,0.396208,1.22871,0.959356,0.145761,0.884097,-0.0139196,
-0.0114724,0.0386202,0.589983,2.07936,-0.0330668,0.157257,1.36696,-0.33527,-3.09174,1.71523,-1.72528,-0.654908,0.348982,-0.227887,0.128918,
-0.0871375,-0.0637463,0.742593,2.15969,-0.103289,-0.16006,0.713587,0.368718,-1.40002,1.28424,1.31153,0.815951,-1.14642,-0.399906,-0.273485,
0.257298,0.0202138,0.637313,2.3058,0.164182,-0.241282,1.31481,-0.419625,-2.11168,1.57566,0.656624,0.334356,-1.52372,0.790408,-0.208978,
0.0323735,0.0248213,0.960789,2.02274,-0.259402,0.0605352,2.12923,-0.151221,-1.3126,0.199889,-0.33264,0.455521,0.750823,0.795016,-0.396356,
0.149032,0.174912,0.55704,2.32765,0.35769,-0.376131,0.620028,-0.766251,-1.44757,1.95142,0.144354,0.77684,-1.55056,0.380326,-0.336456,
-0.252997,-0.0670638,0.738346,2.54022,-0.138559,0.0246726,1.73506,-1.3138,-2.9307,1.42995,-0.200738,0.599693,-1.24688,-0.164915,-0.778793,
0.0353695,0.155331,0.792918,2.5584,0.127221,-0.105026,1.84242,-1.28466,-2.71137,1.15081,-1.32344,0.753834,-0.190128,0.613781,-0.508476,
0.00154343,0.0130427,0.718801,2.17773,-0.180474,-0.123478,1.86696,0.482215,-1.1945,1.63547,1.05693,0.97316,-0.631079,1.04229,-0.265806,
-0.0441229,0.0332889,0.798841,2.37058,0.189405,-0.213197,0.920642,0.0926444,-2.65923,-0.0654486,-1.00902,0.784509,-0.321263,-0.717836,-0.0953218,
-0.205335,-0.0647368,0.630852,2.45753,-0.329122,0.0849706,1.278,0.753687,-0.932233,1.01277,1.19343,1.1365,-0.348104,-0.217136,0.0214058,
0.371568,0.246386,0.851454,1.97327,0.0998711,-0.0866646,1.38997,-0.54846,-1.62088,0.936085,-0.338775,0.404141,-0.167889,0.85338,-0.405572,
-0.0667035,0.116496,0.92445,2.19252,-0.198814,-0.0154206,1.07095,-0.767785,-2.93377,0.592527,-1.48908,0.443252,0.233951,-0.488988,-0.467007,
0.15218,0.134986,0.640062,2.71899,-0.077001,-0.072206,1.65837,0.0911107,-0.378552,-0.166676,1.00172,1.2339,0.406497,0.328105,0.18421,
0.287803,0.0918548,0.628918,2.49988,-0.0827652,0.0920424,0.55101,-1.15889,-2.71904,1.67842,0.74098,-0.142638,-1.84887,-0.257069,-0.354887,
0.216473,-0.0214373,0.572216,2.31215,0.350717,-0.147187,1.48813,-0.643552,-2.47824,1.90848,-1.84951,-0.5,0.627356,0.730508,-0.201298,
0.0385298,-0.0672815,0.728772,2.20063,0.168975,-0.281783,1.77954,0.900927,-0.700638,1.01124,1.29159,0.796779,-0.528318,0.610709,0.00143928,
-0.073544,-0.0987517,0.824976,2.22024,-0.192761,0.0274562,2.09395,-0.218705,-1.00278,1.62167,1.08761,1.17868,-0.799791,1.09298,-0.824869,
-0.222534,0.252995,0.712608,2.04254,-0.283557,-0.0897711,1.97432,0.416264,-1.55953,0.316453,0.116747,0.595092,-0.196263,0.380326,0.425345,
-0.041002,0.102046,0.547611,2.66092,-0.323492,0.0555988,1.30254,-1.0592,-3.17456,1.77658,-1.78663,0.352761,0.566007,-0.330791,-0.127575,
0.25889,0.17543,0.625331,2.70156,0.398476,-0.198989,2.02187,-0.272386,-2.90463,0.583324,-1.37098,1.07515,0.0422337,0.916351,0.133526,
0.0520353,0.0524546,0.642967,2.4443,0.0131009,0.0125848,0.840887,-1.27392,-1.44604,1.92688,0.291593,0.648006,-1.66329,0.533914,-0.646706,
0.159128,0.0124406,0.489771,2.82929,0.654181,-0.279413,1.42064,-1.16502,-1.9399,1.91155,-1.04123,0.522239,-0.769116,1.10066,-0.48083,
0.183948,0.224179,0.781429,2.2202,-0.0869218,0.0388853,1.97739,-0.23711,-1.99205,0.859398,-0.266689,0.641104,-0.116509,1.04076,0.0214058,
-0.150365,-0.00043755,0.523485,2.50724,-0.156619,0.138782,2.19211,-0.836803,-2.08254,2.08332,0.46644,1.10276,-1.80669,0.942461,-0.330313,
0.0732943,-0.0893105,0.727442,2.12739,0.0492609,0.149692,2.3915,0.388657,-2.96291,0.617067,-1.8265,-0.222393,0.704043,0.980858,0.164244,
-0.0177453,0.0722295,0.390914,-2.87964,0.556973,0.104791,1.98813,-0.84754,-3.05953,1.58793,-1.46454,1.07362,-0.544423,0.515484,-0.0768911,
0.334351,-0.0176205,0.729686,2.28152,0.447347,-0.347702,0.393035,0.318105,-2.75432,-0.22189,-1.49522,0.793712,0.099749,-0.782343,-0.0461733,
-0.0393206,-0.00898176,0.419998,2.4595,-0.316926,0.0632151,1.41144,-0.625147,-2.98131,2.18455,-1.49522,-0.522239,0.37889,-0.04358,0.047516,
0.163869,0.122211,0.477613,2.34666,0.00801399,-0.0322735,1.24273,-0.493245,-3.10248,1.79498,-0.970677,-0.111196,-0.213901,0.0516451,0.347014,
-0.0639993,0.108488,0.645028,2.53832,-0.321981,-0.00357584,1.03567,-1.27392,-1.47671,1.72443,-0.321904,0.66181,-0.831233,0.503197,-0.586806,
0.0994432,-0.0418995,0.839203,2.25547,-0.101953,0.204491,1.21512,0.0911107,-0.321803,-0.0961234,1.12595,0.452454,0.382724,-0.264748,-0.195155,
0.000738738,0.111031,0.919081,2.37375,-0.456597,0.269428,1.44978,-0.781589,-1.94604,0.0189073,-0.49675,1.1227,0.60205,-0.0681543,-0.640563,
0.0902533,-0.121643,0.867589,2.20956,-0.109539,0.0700274,0.974323,0.0803745,-1.72058,-0.0409087,-0.662394,0.373466,0.708645,-0.481309,-0.345672,
0.362063,-0.0783408,0.827698,2.70261,0.318182,-0.195421,1.83168,-0.842938,0.215007,-0.188148,0.964906,1.24233,0.279197,1.0085,-0.901664,
0.338344,0.295613,0.891484,2.01627,0.00801962,-0.260652,1.77034,-0.459503,-0.199104,0.189153,0.46644,1.03604,0.474749,0.836485,-0.422466,
-0.0474286,-0.0110803,0.238152,2.79785,-0.258366,-0.086534,0.781071,0.480681,-2.23745,1.91001,0.409692,1.20015,-1.06743,0.0408939,0.592757,
-0.0543496,0.0438226,0.783754,2.17763,0.0849182,-0.0855692,1.74426,0.330375,-0.0334596,-0.0654486,1.9281,0.483896,-0.351171,0.103865,0.0966644,
-0.0566651,0.0926248,0.738842,2.20869,-0.132379,0.0697813,1.99426,-0.776987,-2.45217,1.57105,0.699569,0.519172,-1.80899,0.75969,-0.219729,
0.145213,-0.0697886,0.627071,2.41025,0.544089,-0.365,1.95285,-0.73711,-2.94297,1.64314,-1.4446,-0.0682515,-0.365742,0.796552,-0.25659,
0.0754964,0.103192,0.938116,2.28582,-0.198398,0.192367,1.95438,-0.54846,-1.3034,-0.20962,0.0354584,0.865031,0.61662,0.43101,-0.497725,
-0.0264705,0.133727,0.61606,2.13431,0.187732,-0.294774,1.95438,-0.816865,0.803964,2.17995,-0.742149,-0.968558,-1.73691,-1.07877,-0.844836,
-0.00105168,0.00120258,0.776088,2.16089,0.0448042,0.0916328,1.31175,0.448473,-1.38622,0.7413,1.19037,0.769939,-0.874944,0.0301427,0.00297517,
0.150938,0.121684,0.63563,2.12198,-0.349853,0.0994453,2.10776,-0.330668,-3.20984,1.37167,-0.206873,-0.440951,-0.739208,0.907136,0.213392,
0.0800916,-0.0134878,0.787639,2.11412,-0.0176104,-0.284341,1.53567,0.680068,-0.574871,1.19682,0.97871,0.815951,-0.15792,0.441761,-0.23816,
0.326887,0.119053,0.790784,2.39007,-0.0687544,0.0314059,0.692114,-0.671159,-2.37702,0.808785,-1.31884,0.611196,0.532264,-0.146485,-0.356423,
-0.000783481,0.201759,0.702887,2.53114,0.128825,-0.399655,1.81328,-0.68803,-1.50278,1.3548,-0.303499,0.994632,-0.859607,1.07608,-0.334921,
-0.0137993,0.221794,0.78568,2.15121,-0.177546,-0.321849,1.08168,-1.01318,-1.78653,1.46983,0.00478353,0.271472,-1.18476,0.392613,-0.453184,
0.178493,-0.053177,0.696564,2.01294,0.158754,-0.00523654,0.685979,-0.864411,-2.30493,1.92535,-1.56117,-0.924847,0.48932,-0.0988721,-0.580663,
-0.108495,0.119938,0.667042,2.10025,-0.198544,0.128611,0.863894,-0.577601,-2.09021,1.7229,0.856011,0.903374,-1.67863,-0.303145,-0.173652,
-0.118758,0.20921,0.568564,2.3985,-0.246598,-0.159836,1.5004,-0.875147,-1.51812,1.93609,0.116747,0.82362,-1.29902,0.76737,-0.26427,
-0.248669,0.22562,0.70974,2.27154,-0.382293,0.18586,2.06021,-0.177294,-3.21751,0.437619,-1.57497,0.741564,0.191774,0.200626,0.155028,
0.164622,0.120056,0.871914,2.2396,-0.285691,0.196849,1.71665,-0.146619,-3.03193,-0.243363,-1.83877,0.970092,0.788399,0.407972,-0.279629,
0.099435,0.137396,0.658845,2.30896,-0.101261,-0.0363132,1.25807,-1.31226,-1.66076,1.88547,0.51552,0.243098,-1.80132,1.02079,-0.503868,
0.211154,-0.0710686,0.640574,2.13999,0.131153,0.0149591,1.34089,0.910129,-1.88775,-0.263301,-1.1808,0.342791,1.0545,-0.00979048,0.403842,
0.0462343,0.0704137,0.800766,2.03682,0.119288,-0.26143,1.54488,-0.250914,-2.74818,0.982097,-1.76822,-0.14954,0.406497,0.228272,-0.0354221,
-0.0574487,0.152376,0.799894,2.62055,-0.0597955,-0.110125,1.49886,-0.573,-2.48898,0.340993,-0.979879,1.11963,-0.0497909,0.000960753,-0.298059,
0.0916507,-0.0567837,0.933365,2.08863,0.000663704,-0.283553,2.06175,-0.853675,-2.84788,1.01737,-0.614848,-0.245399,-0.915588,0.85338,-0.632883,
0.154076,0.148676,0.742642,2.23924,-0.123126,0.0576697,0.463587,-1.30766,-2.16996,1.63854,0.467974,0.0912577,-1.67556,-0.158772,-0.50694,
-0.188813,0.117167,0.663982,2.22983,-0.18946,0.0654652,1.8823,-1.16963,-1.28499,1.89467,0.40509,1.25844,-1.53369,1.02847,-0.677424,
0.0295063,0.126999,0.880368,2.55701,-0.216769,0.12111,2.38843,-0.562264,-0.292662,0.00663734,1.18116,1.2408,0.338246,0.888705,-0.450112,
-0.00717471,-0.0136726,0.479044,2.14373,-0.0998766,-0.253497,0.951317,0.879454,-2.15923,1.48056,-1.80043,-0.623466,1.96018,0.487838,0.514426,
-0.0530933,0.135185,0.712743,2.11506,-0.12854,-0.16409,2.14764,-0.879748,-2.57794,1.74743,-1.63479,-0.319018,0.37659,0.95782,-0.175188,
-0.181443,0.0764148,0.765156,2.20125,-0.222121,-0.0691034,1.3731,-0.42576,-2.99205,0.969828,-0.10718,0.116564,-1.32663,-0.318504,-0.104537,
0.0738182,0.14436,0.479912,2.58602,-0.225424,0.0523783,0.179844,-0.681895,-1.27119,2.13087,0.124415,1.09816,-1.04366,-0.197169,-0.365638,
0.0919626,0.101191,0.52864,2.53635,-0.00613607,0.0237256,1.1553,-0.961037,-2.8126,1.92535,0.159692,0.21089,-1.49074,-0.0374365,-0.0415656,
-0.0137569,0.0539846,0.822547,2.2275,-0.184074,-0.239193,1.34702,-0.934963,-1.42303,1.52811,0.477176,0.466258,-1.38031,0.796552,-0.743467,
0.0781762,0.0758242,0.860117,2.20843,0.208535,-0.038335,2.21972,-1.39509,-3.33254,1.44222,-1.55043,0.0690184,-0.111141,0.642963,-0.648242,
0.190202,0.22664,0.856706,2.16099,-0.369214,0.108999,0.544875,-0.47484,-1.5764,0.612466,-0.559634,0.821319,0.554504,-0.37994,-0.334921,
0.000331574,0.227372,0.728099,2.58697,-0.112994,0.0650367,1.08935,-1.01779,-1.46291,1.19836,-0.265155,1.2523,-0.568963,0.249775,-0.505404,
0.148335,-0.0852422,0.724871,2.23541,-0.0023407,0.231642,1.36696,-0.908889,-2.73438,1.71523,-1.67466,-0.546779,0.618154,0.23288,-0.508476,
-0.086724,-0.0499146,0.639872,2.26691,-0.0301724,-0.0786691,2.07862,0.770559,-2.77426,0.198355,-1.02436,0.320552,-0.223104,0.469407,0.485245,
0.125334,-0.0451355,0.711626,2.18186,-0.163918,0.257761,1.3869,-0.704902,-2.15616,1.76431,-1.75289,-0.570552,1.21708,0.604565,-0.459328,
-0.0173466,-0.0516333,0.790554,2.08641,-0.0222595,-0.0919971,2.49426,0.595712,1.1874,0.221361,1.88822,0.341258,0.946375,0.854915,0.0859132,
0.276378,-0.0341783,0.622766,2.36721,-0.251837,0.155522,1.72586,0.673933,-2.28653,-0.154406,-1.14246,0.797546,1.14269,0.612245,0.336263,
0.216476,0.146321,0.984613,1.95437,-0.0181823,-0.0708979,1.0234,-0.418092,0.0294238,0.176883,0.865213,0.667178,0.563706,-0.212528,-0.556089,
0.000760593,-0.0911602,0.93734,2.11094,0.0384927,-0.0929959,1.9053,-0.137417,-0.0273247,-0.0501111,1.60754,0.294479,0.0391662,0.364967,-0.479294,
0.328898,-0.0283355,0.678607,2.20937,0.0609763,-0.0609047,0.354691,-0.333736,-2.07947,1.42995,-1.70381,-0.164877,1.19561,-0.175667,-0.327241,
0.131973,0.198981,0.708227,2.22333,0.116092,-0.287798,1.07708,-1.08987,-2.18223,1.61707,-0.351045,0.196319,-1.08277,0.388005,-0.310346,
