thanhndv212/figaroh-plus/examples/ur5/data/qs_reachable.csv
left_shoulder_pan_joint,left_shoulder_lift_joint,left_elbow_joint,left_wrist_1_joint,left_wrist_2_joint,left_wrist_3_joint,left_gripper_finger_1_truss_arm_joint,left_gripper_finger_1_finger_tip_joint,left_gripper_finger_1_safety_shield_joint,left_gripper_joint,left_gripper_finger_2_truss_arm_joint,left_gripper_finger_2_finger_tip_joint,left_gripper_finger_2_safety_shield_joint,left_gripper_mirror_joint,right_shoulder_pan_joint,right_shoulder_lift_joint,right_elbow_joint,right_wrist_1_joint,right_wrist_2_joint,right_wrist_3_joint,right_gripper_joint,right_gripper_mirror_joint
-1.6590710527153398,2.3890056021900365,2.4270267212897596,3.136901898263801,-2.350443864607197,1.704433811920805,7.514703935385114e-05,7.514703935385114e-05,7.514703935385114e-05,7.514703935385114e-05,7.514703935385114e-05,7.514703935385114e-05,7.514703935385114e-05,7.514703935385114e-05,1.5134424844094774,-1.6380087547081779,1.5069068490303028,3.1154192252405863,-1.571550640291969,0.002606761708173977,-0.1,-0.1
0.8925332260123855,-1.2418219108726187,1.9102856090486369,0.34747627104398243,-0.9919636731513978,-0.7335140736460787,7.514703935385114e-05,7.514703935385114e-05,7.514703935385114e-05,7.514703935385114e-05,7.514703935385114e-05,7.514703935385114e-05,7.514703935385114e-05,7.514703935385114e-05,1.5134424844094774,-1.6380087547081779,1.5069068490303028,3.1154192252405863,-1.571550640291969,0.002606761708173977,-0.1,-0.1
0.8889332874839868,0.5550909469587518,-1.9163420654925294,2.367646657724263,-0.9976587588398441,-0.7164391372547761,7.514703935385114e-05,7.514703935385114e-05,7.514703935385114e-05,7.514703935385114e-05,7.514703935385114e-05,7.514703935385114e-05,7.514703935385114e-05,7.514703935385114e-05,1.5134424844094774,-1.6380087547081779,1.5069068490303028,3.1154192252405863,-1.571550640291969,0.002606761708173977,-0.1,-0.1
-1.6619816482521617,-1.678801941677788,-2.4294252584529166,-0.5146958945576834,-2.3450778213475463,1.690633715275752,7.514703935385114e-05,7.514703935385114e-05,7.514703935385114e-05,7.514703935385114e-05,7.514703935385114e-05,7.514703935385114e-05,7.514703935385114e-05,7.514703935385114e-05,1.5134424844094774,-1.6380087547081779,1.5069068490303028,3.1154192252405863,-1.571550640291969,0.002606761708173977,-0.1,-0.1
0.892687571828655,-1.2419060608937988,1.9100811176643133,0.34785840980948146,-0.9919004769116843,-0.7339384590724297,7.514703935385114e-05,7.514703935385114e-05,7.514703935385114e-05,7.514703935385114e-05,7.514703935385114e-05,7.514703935385114e-05,7.514703935385114e-05,7.514703935385114e-05,1.5134424844094774,-1.6380087547081779,1.5069068490303028,3.1154192252405863,-1.571550640291969,0.002606761708173977,-0.1,-0.1
0.8884802922989823,-1.3088911417792295,2.421273601663401,3.0427856885386966,0.991085487997109,2.410608145803257,7.514703935385114e-05,7.514703935385114e-05,7.514703935385114e-05,7.514703935385114e-05,7.514703935385114e-05,7.514703935385114e-05,7.514703935385114e-05,7.514703935385114e-05,1.5134424844094774,-1.6380087547081779,1.5069068490303028,3.1154192252405863,-1.571550640291969,0.002606761708173977,-0.1,-0.1
-1.6619790941659836,-1.678984900467079,-2.429642862941896,-0.5139152358194524,-2.3449768423849595,1.6908299828696758,7.514703935385114e-05,7.514703935385114e-05,7.514703935385114e-05,7.514703935385114e-05,7.514703935385114e-05,7.514703935385114e-05,7.514703935385114e-05,7.514703935385114e-05,1.5134424844094774,-1.6380087547081779,1.5069068490303028,3.1154192252405863,-1.571550640291969,0.002606761708173977,-0.1,-0.1
0.8911015716995234,0.901606735290062,-2.4238837514283613,-0.6125741580020183,0.9957732595509317,2.4224079923576034,7.514703935385114e-05,7.514703935385114e-05,7.514703935385114e-05,7.514703935385114e-05,7.514703935385114e-05,7.514703935385114e-05,7.514703935385114e-05,7.514703935385114e-05,1.5134424844094774,-1.6380087547081779,1.5069068490303028,3.1154192252405863,-1.571550640291969,0.002606761708173977,-0.1,-0.1
0.8925185281976538,-1.2417341350137632,1.910391764974509,0.34708826747820976,-0.9922864475570915,-0.7334712459528271,7.514703935385114e-05,7.514703935385114e-05,7.514703935385114e-05,7.514703935385114e-05,7.514703935385114e-05,7.514703935385114e-05,7.514703935385114e-05,7.514703935385114e-05,1.5134424844094774,-1.6380087547081779,1.5069068490303028,3.1154192252405863,-1.571550640291969,0.002606761708173977,-0.1,-0.1
-1.6624790656992547,2.495692472519998,1.9075721858318944,0.4073986351003976,2.3468144685945176,-1.437037605231527,7.514703935385114e-05,7.514703935385114e-05,7.514703935385114e-05,7.514703935385114e-05,7.514703935385114e-05,7.514703935385114e-05,7.514703935385114e-05,7.514703935385114e-05,1.5134424844094774,-1.6380087547081779,1.5069068490303028,3.1154192252405863,-1.571550640291969,0.002606761708173977,-0.1,-0.1
0.6022393277092483,-0.7939954425141726,1.7099692161263838,-0.029224968646598858,-1.1595840382704703,-0.46546487568947664,7.514703935385114e-05,7.514703935385114e-05,7.514703935385114e-05,7.514703935385114e-05,7.514703935385114e-05,7.514703935385114e-05,7.514703935385114e-05,7.514703935385114e-05,1.5134424844094774,-1.6380087547081779,1.5069068490303028,3.1154192252405863,-1.571550640291969,0.002606761708173977,-0.1,-0.1
0.6022588077304916,-0.7940273622406058,1.7098241478137093,-0.02934260215119798,-1.1595977429534856,-0.4654572275573336,7.514703935385114e-05,7.514703935385114e-05,7.514703935385114e-05,7.514703935385114e-05,7.514703935385114e-05,7.514703935385114e-05,7.514703935385114e-05,7.514703935385114e-05,1.5134424844094774,-1.6380087547081779,1.5069068490303028,3.1154192252405863,-1.571550640291969,0.002606761708173977,-0.1,-0.1
-2.0709138784183176,1.8611310261978664,2.1402354610380816,-1.9790349578247342,-2.230167729247891,2.2301677421014863,7.514703935385114e-05,7.514703935385114e-05,7.514703935385114e-05,7.514703935385114e-05,7.514703935385114e-05,7.514703935385114e-05,7.514703935385114e-05,7.514703935385114e-05,1.5134424844094774,-1.6380087547081779,1.5069068490303028,3.1154192252405863,-1.571550640291969,0.002606761708173977,-0.1,-0.1
0.5998556198115284,0.8251532768486464,-1.71536432220574,1.772518185208077,-1.168928654874521,-0.45501289177718207,7.514703935385114e-05,7.514703935385114e-05,7.514703935385114e-05,7.514703935385114e-05,7.514703935385114e-05,7.514703935385114e-05,7.514703935385114e-05,7.514703935385114e-05,1.5134424844094774,-1.6380087547081779,1.5069068490303028,3.1154192252405863,-1.571550640291969,0.002606761708173977,-0.1,-0.1
0.6023423789455542,-0.7938030561770247,1.709893785323813,-0.029458492394815926,-1.159815911560495,-0.46583061098837164,7.514703935385114e-05,7.514703935385114e-05,7.514703935385114e-05,7.514703935385114e-05,7.514703935385114e-05,7.514703935385114e-05,7.514703935385114e-05,7.514703935385114e-05,1.5134424844094774,-1.6380087547081779,1.5069068490303028,3.1154192252405863,-1.571550640291969,0.002606761708173977,-0.1,-0.1
0.6000680084325523,0.8250312058542029,-1.7153954722224738,1.7728180398782387,-1.1691483629139328,-0.45552223536565434,7.514703935385114e-05,7.514703935385114e-05,7.514703935385114e-05,7.514703935385114e-05,7.514703935385114e-05,7.514703935385114e-05,7.514703935385114e-05,7.514703935385114e-05,1.5134424844094774,-1.6380087547081779,1.5069068490303028,3.1154192252405863,-1.571550640291969,0.002606761708173977,-0.1,-0.1
0.5996166610250881,1.2956082632833659,-2.0954802101165244,-1.4600432537473007,1.1689555222428234,2.6843522413926153,7.514703935385114e-05,7.514703935385114e-05,7.514703935385114e-05,7.514703935385114e-05,7.514703935385114e-05,7.514703935385114e-05,7.514703935385114e-05,7.514703935385114e-05,1.5134424844094774,-1.6380087547081779,1.5069068490303028,3.1154192252405863,-1.571550640291969,0.002606761708173977,-0.1,-0.1
-1.639880076531221,2.3757328151278223,2.322393192191627,-3.0468593966549227,-2.351263697309675,1.1540987752305296,7.514703935385114e-05,7.514703935385114e-05,7.514703935385114e-05,7.514703935385114e-05,7.514703935385114e-05,7.514703935385114e-05,7.514703935385114e-05,7.514703935385114e-05,1.5134424844094774,-1.6380087547081779,1.5069068490303028,3.1154192252405863,-1.571550640291969,0.002606761708173977,-0.1,-0.1
0.9688491719194485,0.8885188382507444,-2.3190801644710204,-0.6585865811146935,0.9561331624278488,1.8177962193196808,7.514703935385114e-05,7.514703935385114e-05,7.514703935385114e-05,7.514703935385114e-05,7.514703935385114e-05,7.514703935385114e-05,7.514703935385114e-05,7.514703935385114e-05,1.5134424844094774,-1.6380087547081779,1.5069068490303028,3.1154192252405863,-1.571550640291969,0.002606761708173977,-0.1,-0.1
0.9665465668830022,-1.246840934387509,2.3163499859427885,3.131492905081073,0.9513166993205324,1.8056672669407732,7.514703935385114e-05,7.514703935385114e-05,7.514703935385114e-05,7.514703935385114e-05,7.514703935385114e-05,7.514703935385114e-05,7.514703935385114e-05,7.514703935385114e-05,1.5134424844094774,-1.6380087547081779,1.5069068490303028,3.1154192252405863,-1.571550640291969,0.002606761708173977,-0.1,-0.1
-1.6422305352997466,-1.7665726530873096,-2.3254503800844875,-0.5501346773398849,-2.346506008661354,1.1398879627293763,7.514703935385114e-05,7.514703935385114e-05,7.514703935385114e-05,7.514703935385114e-05,7.514703935385114e-05,7.514703935385114e-05,7.514703935385114e-05,7.514703935385114e-05,1.5134424844094774,-1.6380087547081779,1.5069068490303028,3.1154192252405863,-1.571550640291969,0.002606761708173977,-0.1,-0.1
0.9669566693973392,0.5437955562856494,-1.7937936448728227,2.3026583943355496,-0.9581604405099806,-1.3218596943326089,7.514703935385114e-05,7.514703935385114e-05,7.514703935385114e-05,7.514703935385114e-05,7.514703935385114e-05,7.514703935385114e-05,7.514703935385114e-05,7.514703935385114e-05,1.5134424844094774,-1.6380087547081779,1.5069068490303028,3.1154192252405863,-1.571550640291969,0.002606761708173977,-0.1,-0.1
0.9702129194909944,-1.144467695722382,1.787924674383752,0.4187481100601824,-0.9526382182770956,-1.3383024154904208,7.514703935385114e-05,7.514703935385114e-05,7.514703935385114e-05,7.514703935385114e-05,7.514703935385114e-05,7.514703935385114e-05,7.514703935385114e-05,7.514703935385114e-05,1.5134424844094774,-1.6380087547081779,1.5069068490303028,3.1154192252405863,-1.571550640291969,0.002606761708173977,-0.1,-0.1
0.6822102839985029,-0.7320360681777097,1.5950089260997535,0.05310138297074644,-1.1102671397692252,-1.0581548116164816,7.514703935385114e-05,7.514703935385114e-05,7.514703935385114e-05,7.514703935385114e-05,7.514703935385114e-05,7.514703935385114e-05,7.514703935385114e-05,7.514703935385114e-05,1.5134424844094774,-1.6380087547081779,1.5069068490303028,3.1154192252405863,-1.571550640291969,0.002606761708173977,-0.1,-0.1
0.6792730758910781,-0.6410584280983854,2.0059335795356827,2.6900515877902293,1.108762421302648,2.0855059738563697,7.514703935385114e-05,7.514703935385114e-05,7.514703935385114e-05,7.514703935385114e-05,7.514703935385114e-05,7.514703935385114e-05,7.514703935385114e-05,7.514703935385114e-05,1.5134424844094774,-1.6380087547081779,1.5069068490303028,3.1154192252405863,-1.571550640291969,0.002606761708173977,-0.1,-0.1
0.6798606002769649,1.240587106044394,-2.0095274646945094,-1.4617473939780536,1.1194129392180785,2.091678752105122,7.514703935385114e-05,7.514703935385114e-05,7.514703935385114e-05,7.514703935385114e-05,7.514703935385114e-05,7.514703935385114e-05,7.514703935385114e-05,7.514703935385114e-05,1.5134424844094774,-1.6380087547081779,1.5069068490303028,3.1154192252405863,-1.571550640291969,0.002606761708173977,-0.1,-0.1
0.6820976375980778,-0.7319769988724031,1.5946932585741054,0.053267281058720146,-1.1103163012509127,-1.0582653096878663,7.514703935385114e-05,7.514703935385114e-05,7.514703935385114e-05,7.514703935385114e-05,7.514703935385114e-05,7.514703935385114e-05,7.514703935385114e-05,7.514703935385114e-05,1.5134424844094774,-1.6380087547081779,1.5069068490303028,3.1154192252405863,-1.571550640291969,0.002606761708173977,-0.1,-0.1
0.6822373213915046,-0.7321214592863877,1.5952097313785714,0.05293342745494661,-1.110571384732594,-1.0586105352058153,7.514703935385114e-05,7.514703935385114e-05,7.514703935385114e-05,7.514703935385114e-05,7.514703935385114e-05,7.514703935385114e-05,7.514703935385114e-05,7.514703935385114e-05,1.5134424844094774,-1.6380087547081779,1.5069068490303028,3.1154192252405863,-1.571550640291969,0.002606761708173977,-0.1,-0.1
-2.0207791534205137,1.9162444302048804,2.0549370231814033,-1.985106635535741,-2.2514716780990307,1.648247238449081,7.514703935385114e-05,7.514703935385114e-05,7.514703935385114e-05,7.514703935385114e-05,7.514703935385114e-05,7.514703935385114e-05,7.514703935385114e-05,7.514703935385114e-05,1.5134424844094774,-1.6380087547081779,1.5069068490303028,3.1154192252405863,-1.571550640291969,0.002606761708173977,-0.1,-0.1
0.6804022299982913,0.7819585164485985,-1.600147397567418,1.7296693257457019,-1.1192859556575443,-1.0482877863831328,7.514703935385114e-05,7.514703935385114e-05,7.514703935385114e-05,7.514703935385114e-05,7.514703935385114e-05,7.514703935385114e-05,7.514703935385114e-05,7.514703935385114e-05,1.5134424844094774,-1.6380087547081779,1.5069068490303028,3.1154192252405863,-1.571550640291969,0.002606761708173977,-0.1,-0.1
0.7786722100894872,0.5081543711878537,-1.9708244390145688,2.413741149817822,-1.0588314878622853,-0.08521284291391278,7.514703935385114e-05,7.514703935385114e-05,7.514703935385114e-05,7.514703935385114e-05,7.514703935385114e-05,7.514703935385114e-05,7.514703935385114e-05,7.514703935385114e-05,1.5134424844094774,-1.6380087547081779,1.5069068490303028,3.1154192252405863,-1.571550640291969,0.002606761708173977,-0.1,-0.1
-1.7295821914276566,-1.585015186960457,-2.4780903331231476,-0.49462040875047425,-2.3367915919683346,2.307667338209007,7.514703935385114e-05,7.514703935385114e-05,7.514703935385114e-05,7.514703935385114e-05,7.514703935385114e-05,7.514703935385114e-05,7.514703935385114e-05,7.514703935385114e-05,1.5134424844094774,-1.6380087547081779,1.5069068490303028,3.1154192252405863,-1.571550640291969,0.002606761708173977,-0.1,-0.1
0.7813430031245889,0.8477422520298514,-2.4731371391018713,-0.5654477988250964,1.0566958283135888,3.0534537452997097,7.514703935385114e-05,7.514703935385114e-05,7.514703935385114e-05,7.514703935385114e-05,7.514703935385114e-05,7.514703935385114e-05,7.514703935385114e-05,7.514703935385114e-05,1.5134424844094774,-1.6380087547081779,1.5069068490303028,3.1154192252405863,-1.571550640291969,0.002606761708173977,-0.1,-0.1
0.7783741618863328,0.5079376335837187,-1.970427482801364,2.4133749396420106,-1.0588831213742704,-0.08530366286204516,7.514703935385114e-05,7.514703935385114e-05,7.514703935385114e-05,7.514703935385114e-05,7.514703935385114e-05,7.514703935385114e-05,7.514703935385114e-05,7.514703935385114e-05,1.5134424844094774,-1.6380087547081779,1.5069068490303028,3.1154192252405863,-1.571550640291969,0.002606761708173977,-0.1,-0.1
0.7810486108268367,0.8471841292384905,-2.4734534476371226,-0.5644007008759048,1.0565343102485378,3.0534374944257863,7.514703935385114e-05,7.514703935385114e-05,7.514703935385114e-05,7.514703935385114e-05,7.514703935385114e-05,7.514703935385114e-05,7.514703935385114e-05,7.514703935385114e-05,1.5134424844094774,-1.6380087547081779,1.5069068490303028,3.1154192252405863,-1.571550640291969,0.002606761708173977,-0.1,-0.1
-1.7300270564193678,2.540493032556685,1.9629602807838957,0.3728204554138018,2.338813610968577,-0.8196551226383084,7.514703935385114e-05,7.514703935385114e-05,7.514703935385114e-05,7.514703935385114e-05,7.514703935385114e-05,7.514703935385114e-05,7.514703935385114e-05,7.514703935385114e-05,1.5134424844094774,-1.6380087547081779,1.5069068490303028,3.1154192252405863,-1.571550640291969,0.002606761708173977,-0.1,-0.1
0.7777472609337464,-1.3959154074577167,2.470825335718231,3.022942426961816,1.0523628099362403,3.0425745238526267,7.514703935385114e-05,7.514703935385114e-05,7.514703935385114e-05,7.514703935385114e-05,7.514703935385114e-05,7.514703935385114e-05,7.514703935385114e-05,7.514703935385114e-05,1.5134424844094774,-1.6380087547081779,1.5069068490303028,3.1154192252405863,-1.571550640291969,0.002606761708173977,-0.1,-0.1
-1.726576802997478,2.452247311580187,2.475111333355724,3.0913655884714677,-2.34267480716565,2.3216985237891667,7.514703935385114e-05,7.514703935385114e-05,7.514703935385114e-05,7.514703935385114e-05,7.514703935385114e-05,7.514703935385114e-05,7.514703935385114e-05,7.514703935385114e-05,1.5134424844094774,-1.6380087547081779,1.5069068490303028,3.1154192252405863,-1.571550640291969,0.002606761708173977,-0.1,-0.1
0.5103526898180113,0.8058689782236442,-1.7615934116088878,1.8108202380523177,-1.2271101446861117,0.14221565051653196,7.514703935385114e-05,7.514703935385114e-05,7.514703935385114e-05,7.514703935385114e-05,7.514703935385114e-05,7.514703935385114e-05,7.514703935385114e-05,7.514703935385114e-05,1.5134424844094774,-1.6380087547081779,1.5069068490303028,3.1154192252405863,-1.571550640291969,0.002606761708173977,-0.1,-0.1
0.5101318887069061,1.2814857794540346,-2.1397301266776187,-1.429016169699429,1.227398101489754,-3.0015117934872806,7.514703935385114e-05,7.514703935385114e-05,7.514703935385114e-05,7.514703935385114e-05,7.514703935385114e-05,7.514703935385114e-05,7.514703935385114e-05,7.514703935385114e-05,1.5134424844094774,-1.6380087547081779,1.5069068490303028,3.1154192252405863,-1.571550640291969,0.002606761708173977,-0.1,-0.1
-2.148058735210419,1.8751858804300099,2.179184303259357,-1.980034307817344,-2.1953958946734193,2.8399984277386268,7.514703935385114e-05,7.514703935385114e-05,7.514703935385114e-05,7.514703935385114e-05,7.514703935385114e-05,7.514703935385114e-05,7.514703935385114e-05,7.514703935385114e-05,1.5134424844094774,-1.6380087547081779,1.5069068490303028,3.1154192252405863,-1.571550640291969,0.002606761708173977,-0.1,-0.1
0.5103199221669843,0.8057460580079374,-1.7613291626561673,1.8105699143950948,-1.2270352229495356,0.14237641507625065,7.514703935385114e-05,7.514703935385114e-05,7.514703935385114e-05,7.514703935385114e-05,7.514703935385114e-05,7.514703935385114e-05,7.514703935385114e-05,7.514703935385114e-05,1.5134424844094774,-1.6380087547081779,1.5069068490303028,3.1154192252405863,-1.571550640291969,0.002606761708173977,-0.1,-0.1
0.5102461392338358,0.8054802143648581,-1.7609344931211557,1.8104029112362217,-1.2271202422366403,0.14253209193536606,7.514703935385114e-05,7.514703935385114e-05,7.514703935385114e-05,7.514703935385114e-05,7.514703935385114e-05,7.514703935385114e-05,7.514703935385114e-05,7.514703935385114e-05,1.5134424844094774,-1.6380087547081779,1.5069068490303028,3.1154192252405863,-1.571550640291969,0.002606761708173977,-0.1,-0.1
-2.1462301651929976,-2.3360993829311267,-1.7237493775333603,2.980788245046448,2.1999880907187506,-0.31965253512222735,7.514703935385114e-05,7.514703935385114e-05,7.514703935385114e-05,7.514703935385114e-05,7.514703935385114e-05,7.514703935385114e-05,7.514703935385114e-05,7.514703935385114e-05,1.5134424844094774,-1.6380087547081779,1.5069068490303028,3.1154192252405863,-1.571550640291969,0.002606761708173977,-0.1,-0.1
-1.648660933490042,-1.8000783242086824,-2.263297625227913,-0.5725200978544129,-2.3460303605250177,0.8869494740546071,7.514703935385114e-05,7.514703935385114e-05,7.514703935385114e-05,7.514703935385114e-05,7.514703935385114e-05,7.514703935385114e-05,7.514703935385114e-05,7.514703935385114e-05,1.5134424844094774,-1.6380087547081779,1.5069068490303028,3.1154192252405863,-1.571550640291969,0.002606761708173977,-0.1,-0.1
0.9870565967801956,-1.2265412231179376,2.2545399231596575,-3.096993556882825,0.9418006637258807,1.5215742771031318,7.514703935385114e-05,7.514703935385114e-05,7.514703935385114e-05,7.514703935385114e-05,7.514703935385114e-05,7.514703935385114e-05,7.514703935385114e-05,7.514703935385114e-05,1.5134424844094774,-1.6380087547081779,1.5069068490303028,3.1154192252405863,-1.571550640291969,0.002606761708173977,-0.1,-0.1
-1.6463770758196627,2.390069054822738,2.260115440626061,-2.99248825170414,-2.3503898587441228,0.9015009126455025,7.514703935385114e-05,7.514703935385114e-05,7.514703935385114e-05,7.514703935385114e-05,7.514703935385114e-05,7.514703935385114e-05,7.514703935385114e-05,7.514703935385114e-05,1.5134424844094774,-1.6380087547081779,1.5069068490303028,3.1154192252405863,-1.571550640291969,0.002606761708173977,-0.1,-0.1
-1.649310702280115,2.5527457221861236,1.7096293116081345,0.5349068927187793,2.3475386704276944,-2.2412211831467683,7.514703935385114e-05,7.514703935385114e-05,7.514703935385114e-05,7.514703935385114e-05,7.514703935385114e-05,7.514703935385114e-05,7.514703935385114e-05,7.514703935385114e-05,1.5134424844094774,-1.6380087547081779,1.5069068490303028,3.1154192252405863,-1.571550640291969,0.002606761708173977,-0.1,-0.1
0.9910519651917294,-1.1032506847171366,1.712964696303087,0.4656935766360889,-0.943212996009814,-1.6228158769494396,7.514703935385114e-05,7.514703935385114e-05,7.514703935385114e-05,7.514703935385114e-05,7.514703935385114e-05,7.514703935385114e-05,7.514703935385114e-05,7.514703935385114e-05,1.5134424844094774,-1.6380087547081779,1.5069068490303028,3.1154192252405863,-1.571550640291969,0.002606761708173977,-0.1,-0.1
0.9878739901760657,0.5173083625535585,-1.7190866756356689,2.2673067210549522,-0.9478966200691976,-1.606016709750606,7.514703935385114e-05,7.514703935385114e-05,7.514703935385114e-05,7.514703935385114e-05,7.514703935385114e-05,7.514703935385114e-05,7.514703935385114e-05,7.514703935385114e-05,1.5134424844094774,-1.6380087547081779,1.5069068490303028,3.1154192252405863,-1.571550640291969,0.002606761708173977,-0.1,-0.1
0.7101674212088619,-0.7049245541839362,1.5210582700257087,0.11106378750209726,-1.0940909523762827,-1.344977653794735,7.514703935385114e-05,7.514703935385114e-05,7.514703935385114e-05,7.514703935385114e-05,7.514703935385114e-05,7.514703935385114e-05,7.514703935385114e-05,7.514703935385114e-05,1.5134424844094774,-1.6380087547081779,1.5069068490303028,3.1154192252405863,-1.571550640291969,0.002606761708173977,-0.1,-0.1
0.7077688590822181,1.1947041997126162,-1.9584661508403742,-1.4556280813253515,1.1023043383548428,1.8047549778310659,7.514703935385114e-05,7.514703935385114e-05,7.514703935385114e-05,7.514703935385114e-05,7.514703935385114e-05,7.514703935385114e-05,7.514703935385114e-05,7.514703935385114e-05,1.5134424844094774,-1.6380087547081779,1.5069068490303028,3.1154192252405863,-1.571550640291969,0.002606761708173977,-0.1,-0.1
0.7077946801934571,0.7415505716466875,-1.5273080621155322,1.708417460758701,-1.101927179671487,-1.3346406680309904,7.514703935385114e-05,7.514703935385114e-05,7.514703935385114e-05,7.514703935385114e-05,7.514703935385114e-05,7.514703935385114e-05,7.514703935385114e-05,7.514703935385114e-05,1.5134424844094774,-1.6380087547081779,1.5069068490303028,3.1154192252405863,-1.571550640291969,0.002606761708173977,-0.1,-0.1
-2.0097952501429988,1.9618772456961882,2.0018794694038013,-1.985725026569751,-2.2555524301903422,1.3738845045917725,7.514703935385114e-05,7.514703935385114e-05,7.514703935385114e-05,7.514703935385114e-05,7.514703935385114e-05,7.514703935385114e-05,7.514703935385114e-05,7.514703935385114e-05,1.5134424844094774,-1.6380087547081779,1.5069068490303028,3.1154192252405863,-1.571550640291969,0.002606761708173977,-0.1,-0.1
0.7074965873617899,-0.6426269109374262,1.95447057427837,2.754852340412919,1.0920152898522328,1.7984673919104224,7.514703935385114e-05,7.514703935385114e-05,7.514703935385114e-05,7.514703935385114e-05,7.514703935385114e-05,7.514703935385114e-05,7.514703935385114e-05,7.514703935385114e-05,1.5134424844094774,-1.6380087547081779,1.5069068490303028,3.1154192252405863,-1.571550640291969,0.002606761708173977,-0.1,-0.1
0.71015032375002,-0.7047524376268621,1.521061522939923,0.11088050480181771,-1.0940370902014738,-1.3450427244984977,7.514703935385114e-05,7.514703935385114e-05,7.514703935385114e-05,7.514703935385114e-05,7.514703935385114e-05,7.514703935385114e-05,7.514703935385114e-05,7.514703935385114e-05,1.5134424844094774,-1.6380087547081779,1.5069068490303028,3.1154192252405863,-1.571550640291969,0.002606761708173977,-0.1,-0.1
-2.011227663822172,-2.441483631804252,-2.007868705477039,0.1362932167267301,-2.261441291740799,1.361573397857357,7.514703935385114e-05,7.514703935385114e-05,7.514703935385114e-05,7.514703935385114e-05,7.514703935385114e-05,7.514703935385114e-05,7.514703935385114e-05,7.514703935385114e-05,1.5134424844094774,-1.6380087547081779,1.5069068490303028,3.1154192252405863,-1.571550640291969,0.002606761708173977,-0.1,-0.1
0.7275720308656862,0.8015615584676827,-2.470836898494889,-0.5450469823993863,1.088009484270212,-2.918485317460956,7.514703935385114e-05,7.514703935385114e-05,7.514703935385114e-05,7.514703935385114e-05,7.514703935385114e-05,7.514703935385114e-05,7.514703935385114e-05,7.514703935385114e-05,1.5134424844094774,-1.6380087547081779,1.5069068490303028,3.1154192252405863,-1.571550640291969,0.002606761708173977,-0.1,-0.1
0.7291385171257134,-1.369742214125944,1.9588804506416444,0.34598775516069025,-1.0844527211037578,0.20873875340516043,7.514703935385114e-05,7.514703935385114e-05,7.514703935385114e-05,7.514703935385114e-05,7.514703935385114e-05,7.514703935385114e-05,7.514703935385114e-05,7.514703935385114e-05,1.5134424844094774,-1.6380087547081779,1.5069068490303028,3.1154192252405863,-1.571550640291969,0.002606761708173977,-0.1,-0.1
0.7240061235977311,-1.4402297220923275,2.4678664437333557,3.046385568225925,1.0838320555977183,-2.92939205863075,7.514703935385114e-05,7.514703935385114e-05,7.514703935385114e-05,7.514703935385114e-05,7.514703935385114e-05,7.514703935385114e-05,7.514703935385114e-05,7.514703935385114e-05,1.5134424844094774,-1.6380087547081779,1.5069068490303028,3.1154192252405863,-1.571550640291969,0.002606761708173977,-0.1,-0.1
-1.7765504407077142,-1.5493034907411778,-2.4735760490703367,-0.48980186939908876,-2.3283733344934205,2.6339341924250204,7.514703935385114e-05,7.514703935385114e-05,7.514703935385114e-05,7.514703935385114e-05,7.514703935385114e-05,7.514703935385114e-05,7.514703935385114e-05,7.514703935385114e-05,1.5134424844094774,-1.6380087547081779,1.5069068490303028,3.1154192252405863,-1.571550640291969,0.002606761708173977,-0.1,-0.1
0.7247878213872603,0.46964366727684853,-1.9651260066492793,2.422457118827266,-1.0903727962690715,0.2262652409861113,7.514703935385114e-05,7.514703935385114e-05,7.514703935385114e-05,7.514703935385114e-05,7.514703935385114e-05,7.514703935385114e-05,7.514703935385114e-05,7.514703935385114e-05,1.5134424844094774,-1.6380087547081779,1.5069068490303028,3.1154192252405863,-1.571550640291969,0.002606761708173977,-0.1,-0.1
0.7249484132464454,0.4698287953168739,-1.9650107155336063,2.4227694792684704,-1.0908072212252269,0.22574974824568114,7.514703935385114e-05,7.514703935385114e-05,7.514703935385114e-05,7.514703935385114e-05,7.514703935385114e-05,7.514703935385114e-05,7.514703935385114e-05,7.514703935385114e-05,1.5134424844094774,-1.6380087547081779,1.5069068490303028,3.1154192252405863,-1.571550640291969,0.002606761708173977,-0.1,-0.1
0.47325046437996565,0.7744941015766932,-1.752639866909942,1.8236355467365462,-1.2516734823343867,0.4338221754616115,7.514703935385114e-05,7.514703935385114e-05,7.514703935385114e-05,7.514703935385114e-05,7.514703935385114e-05,7.514703935385114e-05,7.514703935385114e-05,7.514703935385114e-05,1.5134424844094774,-1.6380087547081779,1.5069068490303028,3.1154192252405863,-1.571550640291969,0.002606761708173977,-0.1,-0.1
-2.1877103564451117,1.9086388599919217,2.1769673131233414,-1.9867030228355782,-2.175874125189117,-3.1390393699672505,7.514703935385114e-05,7.514703935385114e-05,7.514703935385114e-05,7.514703935385114e-05,7.514703935385114e-05,7.514703935385114e-05,7.514703935385114e-05,7.514703935385114e-05,1.5134424844094774,-1.6380087547081779,1.5069068490303028,3.1154192252405863,-1.571550640291969,0.002606761708173977,-0.1,-0.1
0.4726817826394727,0.7743067770624539,-1.753000058312865,1.82377863223291,-1.2516967388981235,0.43453571052284284,7.514703935385114e-05,7.514703935385114e-05,7.514703935385114e-05,7.514703935385114e-05,7.514703935385114e-05,7.514703935385114e-05,7.514703935385114e-05,7.514703935385114e-05,1.5134424844094774,-1.6380087547081779,1.5069068490303028,3.1154192252405863,-1.571550640291969,0.002606761708173977,-0.1,-0.1
-2.1893550510523356,2.352837826851387,1.7147265534740248,1.1711082828016934,2.175088206529498,0.0010779610801300195,7.514703935385114e-05,7.514703935385114e-05,7.514703935385114e-05,7.514703935385114e-05,7.514703935385114e-05,7.514703935385114e-05,7.514703935385114e-05,7.514703935385114e-05,1.5134424844094774,-1.6380087547081779,1.5069068490303028,3.1154192252405863,-1.571550640291969,0.002606761708173977,-0.1,-0.1
-2.1891617014576963,2.352576036311372,1.7152271214260926,1.1703210296288213,2.175169058000903,0.0005351873643577559,7.514703935385114e-05,7.514703935385114e-05,7.514703935385114e-05,7.514703935385114e-05,7.514703935385114e-05,7.514703935385114e-05,7.514703935385114e-05,7.514703935385114e-05,1.5134424844094774,-1.6380087547081779,1.5069068490303028,3.1154192252405863,-1.571550640291969,0.002606761708173977,-0.1,-0.1
0.4728783652643413,1.2473334820999242,-2.140273440389702,-1.4042778264517302,1.2517842994709025,-2.709717118408146,7.514703935385114e-05,7.514703935385114e-05,7.514703935385114e-05,7.514703935385114e-05,7.514703935385114e-05,7.514703935385114e-05,7.514703935385114e-05,7.514703935385114e-05,1.5134424844094774,-1.6380087547081779,1.5069068490303028,3.1154192252405863,-1.571550640291969,0.002606761708173977,-0.1,-0.1
-2.18905405078616,2.3525501606823713,1.715273724309182,1.17016865513864,2.175097176626572,0.0005215736758813207,7.514703935385114e-05,7.514703935385114e-05,7.514703935385114e-05,7.514703935385114e-05,7.514703935385114e-05,7.514703935385114e-05,7.514703935385114e-05,7.514703935385114e-05,1.5134424844094774,-1.6380087547081779,1.5069068490303028,3.1154192252405863,-1.571550640291969,0.002606761708173977,-0.1,-0.1
-1.663358037790001,-1.8254501866617412,-2.2000186061816485,-0.5951764651444381,-2.3441911156075004,0.6464651737599606,7.514703935385114e-05,7.514703935385114e-05,7.514703935385114e-05,7.514703935385114e-05,7.514703935385114e-05,7.514703935385114e-05,7.514703935385114e-05,7.514703935385114e-05,1.5134424844094774,-1.6380087547081779,1.5069068490303028,3.1154192252405863,-1.571550640291969,0.002606761708173977,-0.1,-0.1
-1.6611710779647253,2.415598862014837,2.1971052752096663,-2.940488642644284,-2.348705508194733,0.6603866138319862,7.514703935385114e-05,7.514703935385114e-05,7.514703935385114e-05,7.514703935385114e-05,7.514703935385114e-05,7.514703935385114e-05,7.514703935385114e-05,7.514703935385114e-05,1.5134424844094774,-1.6380087547081779,1.5069068490303028,3.1154192252405863,-1.571550640291969,0.002606761708173977,-0.1,-0.1
-1.663332041034101,-1.8249034243441076,-2.1998924919811924,-0.5960611727450575,-2.3444024527973917,0.6461276461557561,7.514703935385114e-05,7.514703935385114e-05,7.514703935385114e-05,7.514703935385114e-05,7.514703935385114e-05,7.514703935385114e-05,7.514703935385114e-05,7.514703935385114e-05,1.5134424844094774,-1.6380087547081779,1.5069068490303028,3.1154192252405863,-1.571550640291969,0.002606761708173977,-0.1,-0.1
0.9982313355164261,0.8235492092051654,-2.1939932398251902,-0.7001523038004362,0.9422465737238902,1.2623279845159632,7.514703935385114e-05,7.514703935385114e-05,7.514703935385114e-05,7.514703935385114e-05,7.514703935385114e-05,7.514703935385114e-05,7.514703935385114e-05,7.514703935385114e-05,1.5134424844094774,-1.6380087547081779,1.5069068490303028,3.1154192252405863,-1.571550640291969,0.002606761708173977,-0.1,-0.1
0.9966439606168971,0.48017356754856394,-1.6412179605640147,2.232435833465903,-0.9439535325228461,-1.8775734660701973,7.514703935385114e-05,7.514703935385114e-05,7.514703935385114e-05,7.514703935385114e-05,7.514703935385114e-05,7.514703935385114e-05,7.514703935385114e-05,7.514703935385114e-05,1.5134424844094774,-1.6380087547081779,1.5069068490303028,3.1154192252405863,-1.571550640291969,0.002606761708173977,-0.1,-0.1
0.9958170186888481,-1.2140831585306364,2.1920981910266097,-3.041318766444746,0.9380077125080519,1.2501611620629587,7.514703935385114e-05,7.514703935385114e-05,7.514703935385114e-05,7.514703935385114e-05,7.514703935385114e-05,7.514703935385114e-05,7.514703935385114e-05,7.514703935385114e-05,1.5134424844094774,-1.6380087547081779,1.5069068490303028,3.1154192252405863,-1.571550640291969,0.002606761708173977,-0.1,-0.1
0.999380842469031,-1.0701540462300225,1.6355654049137738,0.5154087911539499,-0.9392776094841017,-1.8933844825095743,7.514703935385114e-05,7.514703935385114e-05,7.514703935385114e-05,7.514703935385114e-05,7.514703935385114e-05,7.514703935385114e-05,7.514703935385114e-05,7.514703935385114e-05,1.5134424844094774,-1.6380087547081779,1.5069068490303028,3.1154192252405863,-1.571550640291969,0.002606761708173977,-0.1,-0.1
-1.663829729542184,2.595852742433131,1.6327343880208653,0.5827869077123378,2.34577516676513,-2.4827678858032596,7.514703935385114e-05,7.514703935385114e-05,7.514703935385114e-05,7.514703935385114e-05,7.514703935385114e-05,7.514703935385114e-05,7.514703935385114e-05,7.514703935385114e-05,1.5134424844094774,-1.6380087547081779,1.5069068490303028,3.1154192252405863,-1.571550640291969,0.002606761708173977,-0.1,-0.1
0.7277695357085431,-0.6822616197127952,1.4438498835516558,0.1732745545574528,-1.0835159510043357,-1.6229800556236358,7.514703935385114e-05,7.514703935385114e-05,7.514703935385114e-05,7.514703935385114e-05,7.514703935385114e-05,7.514703935385114e-05,7.514703935385114e-05,7.514703935385114e-05,1.5134424844094774,-1.6380087547081779,1.5069068490303028,3.1154192252405863,-1.571550640291969,0.002606761708173977,-0.1,-0.1
0.7256097811959756,1.1415897705689926,-1.9051997814118624,-1.4486625149013295,1.0916173048300042,1.5274411913291737,7.514703935385114e-05,7.514703935385114e-05,7.514703935385114e-05,7.514703935385114e-05,7.514703935385114e-05,7.514703935385114e-05,7.514703935385114e-05,7.514703935385114e-05,1.5134424844094774,-1.6380087547081779,1.5069068490303028,3.1154192252405863,-1.571550640291969,0.002606761708173977,-0.1,-0.1
0.725287456017547,-0.6488791369942131,1.901733759928672,2.821495621032522,1.0817511826939832,1.5202744850416026,7.514703935385114e-05,7.514703935385114e-05,7.514703935385114e-05,7.514703935385114e-05,7.514703935385114e-05,7.514703935385114e-05,7.514703935385114e-05,7.514703935385114e-05,1.5134424844094774,-1.6380087547081779,1.5069068490303028,3.1154192252405863,-1.571550640291969,0.002606761708173977,-0.1,-0.1
0.7278016773412679,-0.6822807283875159,1.443951892869395,0.1730917341377168,-1.0837977206813012,-1.6228601381170766,7.514703935385114e-05,7.514703935385114e-05,7.514703935385114e-05,7.514703935385114e-05,7.514703935385114e-05,7.514703935385114e-05,7.514703935385114e-05,7.514703935385114e-05,1.5134424844094774,-1.6380087547081779,1.5069068490303028,3.1154192252405863,-1.571550640291969,0.002606761708173977,-0.1,-0.1
0.7258264338573603,0.6927701271898001,-1.4496674151137694,1.687496822959086,-1.091528389786486,-1.6133602213030032,7.514703935385114e-05,7.514703935385114e-05,7.514703935385114e-05,7.514703935385114e-05,7.514703935385114e-05,7.514703935385114e-05,7.514703935385114e-05,7.514703935385114e-05,1.5134424844094774,-1.6380087547081779,1.5069068490303028,3.1154192252405863,-1.571550640291969,0.002606761708173977,-0.1,-0.1
0.6835496862718903,0.7507731613523141,-2.4481119316062068,-0.534649193258582,1.1145728932040173,-2.6173218803424807,7.514703935385114e-05,7.514703935385114e-05,7.514703935385114e-05,7.514703935385114e-05,7.514703935385114e-05,7.514703935385114e-05,7.514703935385114e-05,7.514703935385114e-05,1.5134424844094774,-1.6380087547081779,1.5069068490303028,3.1154192252405863,-1.571550640291969,0.002606761708173977,-0.1,-0.1
0.6850039827595971,-1.3885752887699963,1.9312572487766968,0.37430232141323727,-1.1113300352602522,0.5104185470306171,7.514703935385114e-05,7.514703935385114e-05,7.514703935385114e-05,7.514703935385114e-05,7.514703935385114e-05,7.514703935385114e-05,7.514703935385114e-05,7.514703935385114e-05,1.5134424844094774,-1.6380087547081779,1.5069068490303028,3.1154192252405863,-1.571550640291969,0.002606761708173977,-0.1,-0.1
0.6809631565655114,0.42667215929522123,-1.9368816929919406,2.4199475087453206,-1.1173098667657886,0.5269383694365577,7.514703935385114e-05,7.514703935385114e-05,7.514703935385114e-05,7.514703935385114e-05,7.514703935385114e-05,7.514703935385114e-05,7.514703935385114e-05,7.514703935385114e-05,1.5134424844094774,-1.6380087547081779,1.5069068490303028,3.1154192252405863,-1.571550640291969,0.002606761708173977,-0.1,-0.1
-1.8259232209485279,-1.5270428928950703,-2.4507724277443974,-0.48948150597465767,-2.3172625463841565,2.961625823145701,7.514703935385114e-05,7.514703935385114e-05,7.514703935385114e-05,7.514703935385114e-05,7.514703935385114e-05,7.514703935385114e-05,7.514703935385114e-05,7.514703935385114e-05,1.5134424844094774,-1.6380087547081779,1.5069068490303028,3.1154192252405863,-1.571550640291969,0.002606761708173977,-0.1,-0.1
-2.2233254354215513,1.9559345256012008,2.158873631653713,-1.994962498015358,-2.1575579568398267,-2.8396866480137954,7.514703935385114e-05,7.514703935385114e-05,7.514703935385114e-05,7.514703935385114e-05,7.514703935385114e-05,7.514703935385114e-05,7.514703935385114e-05,7.514703935385114e-05,1.5134424844094774,-1.6380087547081779,1.5069068490303028,3.1154192252405863,-1.571550640291969,0.002606761708173977,-0.1,-0.1
-2.224469263930287,2.3952455963977326,1.689603506952931,1.173833781875113,2.156731776580531,0.2990725120988353,7.514703935385114e-05,7.514703935385114e-05,7.514703935385114e-05,7.514703935385114e-05,7.514703935385114e-05,7.514703935385114e-05,7.514703935385114e-05,7.514703935385114e-05,1.5134424844094774,-1.6380087547081779,1.5069068490303028,3.1154192252405863,-1.571550640291969,0.002606761708173977,-0.1,-0.1
0.44573981031612614,1.1996815740542013,-2.126336292751308,-1.3772380249343856,1.2698329543561944,-2.4264101243657636,7.514703935385114e-05,7.514703935385114e-05,7.514703935385114e-05,7.514703935385114e-05,7.514703935385114e-05,7.514703935385114e-05,7.514703935385114e-05,7.514703935385114e-05,1.5134424844094774,-1.6380087547081779,1.5069068490303028,3.1154192252405863,-1.571550640291969,0.002606761708173977,-0.1,-0.1
-2.224673896195278,2.3956492251722072,1.6895066900253117,1.1742951761885658,2.1569273811770717,0.299727704372172,7.514703935385114e-05,7.514703935385114e-05,7.514703935385114e-05,7.514703935385114e-05,7.514703935385114e-05,7.514703935385114e-05,7.514703935385114e-05,7.514703935385114e-05,1.5134424844094774,-1.6380087547081779,1.5069068490303028,3.1154192252405863,-1.571550640291969,0.002606761708173977,-0.1,-0.1
0.44588801178405885,0.732103073629655,-1.7240170812496196,1.8303715510532799,-1.2698489419829895,0.7169115836790625,7.514703935385114e-05,7.514703935385114e-05,7.514703935385114e-05,7.514703935385114e-05,7.514703935385114e-05,7.514703935385114e-05,7.514703935385114e-05,7.514703935385114e-05,1.5134424844094774,-1.6380087547081779,1.5069068490303028,3.1154192252405863,-1.571550640291969,0.002606761708173977,-0.1,-0.1
0.9852486060380667,-1.0297518018229996,1.4927838093185852,0.6084284207832344,-0.946618574443791,-2.4012666201076636,7.514703935385114e-05,7.514703935385114e-05,7.514703935385114e-05,7.514703935385114e-05,7.514703935385114e-05,7.514703935385114e-05,7.514703935385114e-05,7.514703935385114e-05,1.5134424844094774,-1.6380087547081779,1.5069068490303028,3.1154192252405863,-1.571550640291969,0.002606761708173977,-0.1,-0.1
-1.7089756959083255,2.486326657500241,2.0835093935287743,-2.851075658606041,-2.342584057554317,0.20325168029710972,7.514703935385114e-05,7.514703935385114e-05,7.514703935385114e-05,7.514703935385114e-05,7.514703935385114e-05,7.514703935385114e-05,7.514703935385114e-05,7.514703935385114e-05,1.5134424844094774,-1.6380087547081779,1.5069068490303028,3.1154192252405863,-1.571550640291969,0.002606761708173977,-0.1,-0.1
-1.7090314700100422,2.4858948502974543,2.0841974438849675,-2.851835803832517,-2.3423668315228316,0.2029772241134056,7.514703935385114e-05,7.514703935385114e-05,7.514703935385114e-05,7.514703935385114e-05,7.514703935385114e-05,7.514703935385114e-05,7.514703935385114e-05,7.514703935385114e-05,1.5134424844094774,-1.6380087547081779,1.5069068490303028,3.1154192252405863,-1.571550640291969,0.002606761708173977,-0.1,-0.1
0.9828240634019435,0.38937702567398386,-1.4981374000189234,2.1717151097941483,-0.9507663867254752,-2.386898585741445,7.514703935385114e-05,7.514703935385114e-05,7.514703935385114e-05,7.514703935385114e-05,7.514703935385114e-05,7.514703935385114e-05,7.514703935385114e-05,7.514703935385114e-05,1.5134424844094774,-1.6380087547081779,1.5069068490303028,3.1154192252405863,-1.571550640291969,0.002606761708173977,-0.1,-0.1
-1.7108476196178592,-1.8477858764511879,-2.0866576001626114,-0.6400130448092781,-2.3386828826688215,0.18881168755142236,7.514703935385114e-05,7.514703935385114e-05,7.514703935385114e-05,7.514703935385114e-05,7.514703935385114e-05,7.514703935385114e-05,7.514703935385114e-05,7.514703935385114e-05,1.5134424844094774,-1.6380087547081779,1.5069068490303028,3.1154192252405863,-1.571550640291969,0.002606761708173977,-0.1,-0.1
-1.7089995764811359,2.485929392787047,2.0841048560303714,-2.850853993887744,-2.3423080755411227,0.20347015559452505,7.514703935385114e-05,7.514703935385114e-05,7.514703935385114e-05,7.514703935385114e-05,7.514703935385114e-05,7.514703935385114e-05,7.514703935385114e-05,7.514703935385114e-05,1.5134424844094774,-1.6380087547081779,1.5069068490303028,3.1154192252405863,-1.571550640291969,0.002606761708173977,-0.1,-0.1
-1.711294658302852,2.697000381327386,1.4900503302722932,0.6705681950539616,2.3395699066725637,-2.9406858901344655,7.514703935385114e-05,7.514703935385114e-05,7.514703935385114e-05,7.514703935385114e-05,7.514703935385114e-05,7.514703935385114e-05,7.514703935385114e-05,7.514703935385114e-05,1.5134424844094774,-1.6380087547081779,1.5069068490303028,3.1154192252405863,-1.571550640291969,0.002606761708173977,-0.1,-0.1
0.9840769520294718,0.735026348858529,-2.0822292974876766,-0.7320152041497364,0.9492178413374303,0.7533645454642359,7.514703935385114e-05,7.514703935385114e-05,7.514703935385114e-05,7.514703935385114e-05,7.514703935385114e-05,7.514703935385114e-05,7.514703935385114e-05,7.514703935385114e-05,1.5134424844094774,-1.6380087547081779,1.5069068490303028,3.1154192252405863,-1.571550640291969,0.002606761708173977,-0.1,-0.1
0.9822824541615476,-1.2096204967925774,2.078443254731541,-2.941118865683683,0.9452707401384383,0.7415518254485602,7.514703935385114e-05,7.514703935385114e-05,7.514703935385114e-05,7.514703935385114e-05,7.514703935385114e-05,7.514703935385114e-05,7.514703935385114e-05,7.514703935385114e-05,1.5134424844094774,-1.6380087547081779,1.5069068490303028,3.1154192252405863,-1.571550640291969,0.002606761708173977,-0.1,-0.1
0.7307297648873378,-0.6739170999845371,1.8057715878463632,2.945130414365213,1.0792221689533554,0.9913226930522295,7.514703935385114e-05,7.514703935385114e-05,7.514703935385114e-05,7.514703935385114e-05,7.514703935385114e-05,7.514703935385114e-05,7.514703935385114e-05,7.514703935385114e-05,1.5134424844094774,-1.6380087547081779,1.5069068490303028,3.1154192252405863,-1.571550640291969,0.002606761708173977,-0.1,-0.1
-2.028420202035687,2.122895764762723,1.8463146001812905,-1.9776334434624612,-2.2479000318328897,0.6100603616639703,7.514703935385114e-05,7.514703935385114e-05,7.514703935385114e-05,7.514703935385114e-05,7.514703935385114e-05,7.514703935385114e-05,7.514703935385114e-05,7.514703935385114e-05,1.5134424844094774,-1.6380087547081779,1.5069068490303028,3.1154192252405863,-1.571550640291969,0.002606761708173977,-0.1,-0.1
-2.0297174645465494,-2.4172000313499162,-1.8508997225676997,-0.030668676440514672,-2.252513393100231,0.5985086784634421,7.514703935385114e-05,7.514703935385114e-05,7.514703935385114e-05,7.514703935385114e-05,7.514703935385114e-05,7.514703935385114e-05,7.514703935385114e-05,7.514703935385114e-05,1.5134424844094774,-1.6380087547081779,1.5069068490303028,3.1154192252405863,-1.571550640291969,0.002606761708173977,-0.1,-0.1
0.7314621145433932,1.0314326452410612,-1.8088329443885365,-1.4324317764571306,1.0881608422087299,0.9983846748564933,7.514703935385114e-05,7.514703935385114e-05,7.514703935385114e-05,7.514703935385114e-05,7.514703935385114e-05,7.514703935385114e-05,7.514703935385114e-05,7.514703935385114e-05,1.5134424844094774,-1.6380087547081779,1.5069068490303028,3.1154192252405863,-1.571550640291969,0.002606761708173977,-0.1,-0.1
0.7318011869784987,0.5841121773400372,-1.3009990886079386,1.6500256652538283,-1.088126556835402,-2.142616704099774,7.514703935385114e-05,7.514703935385114e-05,7.514703935385114e-05,7.514703935385114e-05,7.514703935385114e-05,7.514703935385114e-05,7.514703935385114e-05,7.514703935385114e-05,1.5134424844094774,-1.6380087547081779,1.5069068490303028,3.1154192252405863,-1.571550640291969,0.002606761708173977,-0.1,-0.1
-2.0296866275838155,-2.416977620758871,-1.8511313977319348,-0.03092575228570697,-2.2527540689141534,0.5983853481223037,7.514703935385114e-05,7.514703935385114e-05,7.514703935385114e-05,7.514703935385114e-05,7.514703935385114e-05,7.514703935385114e-05,7.514703935385114e-05,7.514703935385114e-05,1.5134424844094774,-1.6380087547081779,1.5069068490303028,3.1154192252405863,-1.571550640291969,0.002606761708173977,-0.1,-0.1
-2.0296923173785455,-2.417015126389285,-1.8510315482843027,-0.030852375622891174,-2.252706470087418,0.5984746656899493,7.514703935385114e-05,7.514703935385114e-05,7.514703935385114e-05,7.514703935385114e-05,7.514703935385114e-05,7.514703935385114e-05,7.514703935385114e-05,7.514703935385114e-05,1.5134424844094774,-1.6380087547081779,1.5069068490303028,3.1154192252405863,-1.571550640291969,0.002606761708173977,-0.1,-0.1
0.6398776421387022,0.6562332880063897,-2.356968923048635,-0.5477899181087283,1.1418611315082452,-2.055549602862213,7.514703935385114e-05,7.514703935385114e-05,7.514703935385114e-05,7.514703935385114e-05,7.514703935385114e-05,7.514703935385114e-05,7.514703935385114e-05,7.514703935385114e-05,1.5134424844094774,-1.6380087547081779,1.5069068490303028,3.1154192252405863,-1.571550640291969,0.002606761708173977,-0.1,-0.1
0.6372822643428543,0.3417999706489769,-1.828540143232377,2.3804531349179636,-1.1447322212654398,1.0880049421498252,7.514703935385114e-05,7.514703935385114e-05,7.514703935385114e-05,7.514703935385114e-05,7.514703935385114e-05,7.514703935385114e-05,7.514703935385114e-05,7.514703935385114e-05,1.5134424844094774,-1.6380087547081779,1.5069068490303028,3.1154192252405863,-1.571550640291969,0.002606761708173977,-0.1,-0.1
-1.90562240139487,2.5902955689166247,2.3565103067229107,-3.049285432089408,-2.29920037382974,-2.6766680235823523,7.514703935385114e-05,7.514703935385114e-05,7.514703935385114e-05,7.514703935385114e-05,7.514703935385114e-05,7.514703935385114e-05,7.514703935385114e-05,7.514703935385114e-05,1.5134424844094774,-1.6380087547081779,1.5069068490303028,3.1154192252405863,-1.571550640291969,0.002606761708173977,-0.1,-0.1
0.6410988611284492,-1.3782246666358788,1.823020313220901,0.455174565402819,-1.1391408861892682,1.072590167032481,7.514703935385114e-05,7.514703935385114e-05,7.514703935385114e-05,7.514703935385114e-05,7.514703935385114e-05,7.514703935385114e-05,7.514703935385114e-05,7.514703935385114e-05,1.5134424844094774,-1.6380087547081779,1.5069068490303028,3.1154192252405863,-1.571550640291969,0.002606761708173977,-0.1,-0.1
0.6396335705506397,0.6565291368516725,-2.357976376274522,-0.5468672496820902,1.1416586969686464,-2.0555958443188214,7.514703935385114e-05,7.514703935385114e-05,7.514703935385114e-05,7.514703935385114e-05,7.514703935385114e-05,7.514703935385114e-05,7.514703935385114e-05,7.514703935385114e-05,1.5134424844094774,-1.6380087547081779,1.5069068490303028,3.1154192252405863,-1.571550640291969,0.002606761708173977,-0.1,-0.1
0.637308155798495,0.34140983152964693,-1.8282657844222858,2.380445523493871,-1.144454048343205,1.0881923929230868,7.514703935385114e-05,7.514703935385114e-05,7.514703935385114e-05,7.514703935385114e-05,7.514703935385114e-05,7.514703935385114e-05,7.514703935385114e-05,7.514703935385114e-05,1.5134424844094774,-1.6380087547081779,1.5069068490303028,3.1154192252405863,-1.571550640291969,0.002606761708173977,-0.1,-0.1
-1.9093401672497794,2.734513282172662,1.8222044807702187,0.4815891324725287,2.2951117692173066,0.46526000329553746,7.514703935385114e-05,7.514703935385114e-05,7.514703935385114e-05,7.514703935385114e-05,7.514703935385114e-05,7.514703935385114e-05,7.514703935385114e-05,7.514703935385114e-05,1.5134424844094774,-1.6380087547081779,1.5069068490303028,3.1154192252405863,-1.571550640291969,0.002606761708173977,-0.1,-0.1
0.6368881663792378,-1.5072727697146338,2.354107878055655,-3.090523137398956,1.1388213751922016,-2.067262591499588,7.514703935385114e-05,7.514703935385114e-05,7.514703935385114e-05,7.514703935385114e-05,7.514703935385114e-05,7.514703935385114e-05,7.514703935385114e-05,7.514703935385114e-05,1.5134424844094774,-1.6380087547081779,1.5069068490303028,3.1154192252405863,-1.571550640291969,0.002606761708173977,-0.1,-0.1
-1.9088892251233567,2.73427549456425,1.8223985570235395,0.4810852324356583,2.2951958090783955,0.46481791320611393,7.514703935385114e-05,7.514703935385114e-05,7.514703935385114e-05,7.514703935385114e-05,7.514703935385114e-05,7.514703935385114e-05,7.514703935385114e-05,7.514703935385114e-05,1.5134424844094774,-1.6380087547081779,1.5069068490303028,3.1154192252405863,-1.571550640291969,0.002606761708173977,-0.1,-0.1
-2.2685983790467112,2.070612806158558,2.0858671391957766,-2.0113075385289094,-2.1341864887188065,-2.2703296420041243,7.514703935385114e-05,7.514703935385114e-05,7.514703935385114e-05,7.514703935385114e-05,7.514703935385114e-05,7.514703935385114e-05,7.514703935385114e-05,7.514703935385114e-05,1.5134424844094774,-1.6380087547081779,1.5069068490303028,3.1154192252405863,-1.571550640291969,0.002606761708173977,-0.1,-0.1
0.4300227699796164,-0.8986838485712333,1.6122531159164073,0.12391043701977522,-1.2736825713651323,1.244603166814842,7.514703935385114e-05,7.514703935385114e-05,7.514703935385114e-05,7.514703935385114e-05,7.514703935385114e-05,7.514703935385114e-05,7.514703935385114e-05,7.514703935385114e-05,1.5134424844094774,-1.6380087547081779,1.5069068490303028,3.1154192252405863,-1.571550640291969,0.002606761708173977,-0.1,-0.1
0.4299297143828791,-0.8987540787862517,1.6126100257780305,0.12377189870861909,-1.2737111858099845,1.2443284939541666,7.514703935385114e-05,7.514703935385114e-05,7.514703935385114e-05,7.514703935385114e-05,7.514703935385114e-05,7.514703935385114e-05,7.514703935385114e-05,7.514703935385114e-05,1.5134424844094774,-1.6380087547081779,1.5069068490303028,3.1154192252405863,-1.571550640291969,0.002606761708173977,-0.1,-0.1
0.4297629122007623,-0.8989187837058308,1.6126004455273195,0.12352730234105093,-1.273608653557031,1.2449426964358363,7.514703935385114e-05,7.514703935385114e-05,7.514703935385114e-05,7.514703935385114e-05,7.514703935385114e-05,7.514703935385114e-05,7.514703935385114e-05,7.514703935385114e-05,1.5134424844094774,-1.6380087547081779,1.5069068490303028,3.1154192252405863,-1.571550640291969,0.002606761708173977,-0.1,-0.1
0.4275711624993119,1.0838682949718978,-2.0586447068076814,-1.3334715536728066,1.2818339937370165,-1.8882242806356875,7.514703935385114e-05,7.514703935385114e-05,7.514703935385114e-05,7.514703935385114e-05,7.514703935385114e-05,7.514703935385114e-05,7.514703935385114e-05,7.514703935385114e-05,1.5134424844094774,-1.6380087547081779,1.5069068490303028,3.1154192252405863,-1.571550640291969,0.002606761708173977,-0.1,-0.1
0.4278013683647607,0.6315266709944957,-1.6177541728043145,1.8204936386046169,-1.2820616753303364,1.2547041297160044,7.514703935385114e-05,7.514703935385114e-05,7.514703935385114e-05,7.514703935385114e-05,7.514703935385114e-05,7.514703935385114e-05,7.514703935385114e-05,7.514703935385114e-05,1.5134424844094774,-1.6380087547081779,1.5069068490303028,3.1154192252405863,-1.571550640291969,0.002606761708173977,-0.1,-0.1
-0.7620821845712935,2.14271490658075,1.8425417294243964,0.5404428939457087,1.748392849979705,-2.393338163846422,7.514703935385114e-05,7.514703935385114e-05,7.514703935385114e-05,7.514703935385114e-05,7.514703935385114e-05,7.514703935385114e-05,7.514703935385114e-05,7.514703935385114e-05,1.5134424844094774,-1.6380087547081779,1.5069068490303028,3.1154192252405863,-1.571550640291969,0.002606761708173977,-0.1,-0.1
-0.758988362830103,1.956704936213387,2.378899596891184,-2.950206866578312,-1.7500446698599592,0.7481258886225375,7.514703935385114e-05,7.514703935385114e-05,7.514703935385114e-05,7.514703935385114e-05,7.514703935385114e-05,7.514703935385114e-05,7.514703935385114e-05,7.514703935385114e-05,1.5134424844094774,-1.6380087547081779,1.5069068490303028,3.1154192252405863,-1.571550640291969,0.002606761708173977,-0.1,-0.1
1.8354438696300348,0.9755444281409226,-1.8468431623845973,2.506880921077366,-1.3239066328208657,-1.8409694580750608,7.514703935385114e-05,7.514703935385114e-05,7.514703935385114e-05,7.514703935385114e-05,7.514703935385114e-05,7.514703935385114e-05,7.514703935385114e-05,7.514703935385114e-05,1.5134424844094774,-1.6380087547081779,1.5069068490303028,3.1154192252405863,-1.571550640291969,0.002606761708173977,-0.1,-0.1
1.8383407572070636,1.2216801267583262,-2.3826431129130756,-0.3456049929638268,1.322719434392154,1.2971364432051027,7.514703935385114e-05,7.514703935385114e-05,7.514703935385114e-05,7.514703935385114e-05,7.514703935385114e-05,7.514703935385114e-05,7.514703935385114e-05,7.514703935385114e-05,1.5134424844094774,-1.6380087547081779,1.5069068490303028,3.1154192252405863,-1.571550640291969,0.002606761708173977,-0.1,-0.1
1.8382272859305535,1.2214672798301605,-2.382151161537081,-0.34598910925070087,1.3226167192250156,1.2970811395678492,7.514703935385114e-05,7.514703935385114e-05,7.514703935385114e-05,7.514703935385114e-05,7.514703935385114e-05,7.514703935385114e-05,7.514703935385114e-05,7.514703935385114e-05,1.5134424844094774,-1.6380087547081779,1.5069068490303028,3.1154192252405863,-1.571550640291969,0.002606761708173977,-0.1,-0.1
-0.76193840227791,-2.146152025623827,-2.3823284825164155,-0.37141136049967727,-1.7480813616055293,0.7372727627183574,7.514703935385114e-05,7.514703935385114e-05,7.514703935385114e-05,7.514703935385114e-05,7.514703935385114e-05,7.514703935385114e-05,7.514703935385114e-05,7.514703935385114e-05,1.5134424844094774,-1.6380087547081779,1.5069068490303028,3.1154192252405863,-1.571550640291969,0.002606761708173977,-0.1,-0.1
-0.8843134675769916,1.3542214275626165,2.157696763389035,-2.103369364665287,-1.766680760300884,0.8705401642689563,7.514703935385114e-05,7.514703935385114e-05,7.514703935385114e-05,7.514703935385114e-05,7.514703935385114e-05,7.514703935385114e-05,7.514703935385114e-05,7.514703935385114e-05,1.5134424844094774,-1.6380087547081779,1.5069068490303028,3.1154192252405863,-1.571550640291969,0.002606761708173977,-0.1,-0.1
1.6698045423656356,-0.18686335074823546,2.1338648773319076,2.7888649398610106,1.3083335074829279,1.4578401877762528,7.514703935385114e-05,7.514703935385114e-05,7.514703935385114e-05,7.514703935385114e-05,7.514703935385114e-05,7.514703935385114e-05,7.514703935385114e-05,7.514703935385114e-05,1.5134424844094774,-1.6380087547081779,1.5069068490303028,3.1154192252405863,-1.571550640291969,0.002606761708173977,-0.1,-0.1
-0.8859036064886305,1.7740268155802075,1.6582975720961441,1.1163922203016992,1.7664972209858902,-2.272135309058458,7.514703935385114e-05,7.514703935385114e-05,7.514703935385114e-05,7.514703935385114e-05,7.514703935385114e-05,7.514703935385114e-05,7.514703935385114e-05,7.514703935385114e-05,1.5134424844094774,-1.6380087547081779,1.5069068490303028,3.1154192252405863,-1.571550640291969,0.002606761708173977,-0.1,-0.1
1.6739594073858108,-0.234465766718041,1.6769216251494992,0.15427740777582682,-1.3121387183927262,-1.6872533313653884,7.514703935385114e-05,7.514703935385114e-05,7.514703935385114e-05,7.514703935385114e-05,7.514703935385114e-05,7.514703935385114e-05,7.514703935385114e-05,7.514703935385114e-05,1.5134424844094774,-1.6380087547081779,1.5069068490303028,3.1154192252405863,-1.571550640291969,0.002606761708173977,-0.1,-0.1
1.673487868718405,-0.23439183257294866,1.6769166234116817,0.15404396671804338,-1.3117849615424069,-1.6868592008899208,7.514703935385114e-05,7.514703935385114e-05,7.514703935385114e-05,7.514703935385114e-05,7.514703935385114e-05,7.514703935385114e-05,7.514703935385114e-05,7.514703935385114e-05,1.5134424844094774,-1.6380087547081779,1.5069068490303028,3.1154192252405863,-1.571550640291969,0.002606761708173977,-0.1,-0.1
1.6708812446300838,1.355079657372797,-1.6825181220292864,1.9209694309380914,-1.3186068540110873,-1.6750842338747014,7.514703935385114e-05,7.514703935385114e-05,7.514703935385114e-05,7.514703935385114e-05,7.514703935385114e-05,7.514703935385114e-05,7.514703935385114e-05,7.514703935385114e-05,1.5134424844094774,-1.6380087547081779,1.5069068490303028,3.1154192252405863,-1.571550640291969,0.002606761708173977,-0.1,-0.1
1.6883558888943937,-0.7820117617985458,1.8099840675716,-2.827734482433579,1.233238398258618,1.058158480925145,7.514703935385114e-05,7.514703935385114e-05,7.514703935385114e-05,7.514703935385114e-05,7.514703935385114e-05,7.514703935385114e-05,7.514703935385114e-05,7.514703935385114e-05,1.5134424844094774,-1.6380087547081779,1.5069068490303028,3.1154192252405863,-1.571550640291969,0.002606761708173977,-0.1,-0.1
-1.083931904826783,2.235127462691485,1.8189784935399957,-2.3908989621821766,-1.964409146061648,0.684295830345332,7.514703935385114e-05,7.514703935385114e-05,7.514703935385114e-05,7.514703935385114e-05,7.514703935385114e-05,7.514703935385114e-05,7.514703935385114e-05,7.514703935385114e-05,1.5134424844094774,-1.6380087547081779,1.5069068490303028,3.1154192252405863,-1.571550640291969,0.002606761708173977,-0.1,-0.1
1.689016735478727,0.5347850072403819,-1.1422577721071319,1.9473682971590258,-1.2384846189363174,-2.073252836337655,7.514703935385114e-05,7.514703935385114e-05,7.514703935385114e-05,7.514703935385114e-05,7.514703935385114e-05,7.514703935385114e-05,7.514703935385114e-05,7.514703935385114e-05,1.5134424844094774,-1.6380087547081779,1.5069068490303028,3.1154192252405863,-1.571550640291969,0.002606761708173977,-0.1,-0.1
1.6906362581053995,-0.5525145091561608,1.1365422065505892,0.7591033350922213,-1.2356570626892514,-2.082966594302741,7.514703935385114e-05,7.514703935385114e-05,7.514703935385114e-05,7.514703935385114e-05,7.514703935385114e-05,7.514703935385114e-05,7.514703935385114e-05,7.514703935385114e-05,1.5134424844094774,-1.6380087547081779,1.5069068490303028,3.1154192252405863,-1.571550640291969,0.002606761708173977,-0.1,-0.1
-1.0852570094045466,2.591726084831386,1.1290251905147606,1.0811268091717874,1.962655239312355,-2.460382340202352,7.514703935385114e-05,7.514703935385114e-05,7.514703935385114e-05,7.514703935385114e-05,7.514703935385114e-05,7.514703935385114e-05,7.514703935385114e-05,7.514703935385114e-05,1.5134424844094774,-1.6380087547081779,1.5069068490303028,3.1154192252405863,-1.571550640291969,0.002606761708173977,-0.1,-0.1
-1.0851976687866518,-2.3300574527815905,-1.8227599003071489,-0.4714434461083653,-1.9642863045124408,0.6729331922993964,7.514703935385114e-05,7.514703935385114e-05,7.514703935385114e-05,7.514703935385114e-05,7.514703935385114e-05,7.514703935385114e-05,7.514703935385114e-05,7.514703935385114e-05,1.5134424844094774,-1.6380087547081779,1.5069068490303028,3.1154192252405863,-1.571550640291969,0.002606761708173977,-0.1,-0.1
1.6896112520302973,0.927200321307815,-1.813161246303358,-0.917055948816855,1.2377001249418,1.0680163059533272,7.514703935385114e-05,7.514703935385114e-05,7.514703935385114e-05,7.514703935385114e-05,7.514703935385114e-05,7.514703935385114e-05,7.514703935385114e-05,7.514703935385114e-05,1.5134424844094774,-1.6380087547081779,1.5069068490303028,3.1154192252405863,-1.571550640291969,0.002606761708173977,-0.1,-0.1
-1.2389696236474372,-2.882210940884017,-1.477630294801712,-0.20214167718117612,-1.947214556804056,0.8372661190190427,7.514703935385114e-05,7.514703935385114e-05,7.514703935385114e-05,7.514703935385114e-05,7.514703935385114e-05,7.514703935385114e-05,7.514703935385114e-05,7.514703935385114e-05,1.5134424844094774,-1.6380087547081779,1.5069068490303028,3.1154192252405863,-1.571550640291969,0.002606761708173977,-0.1,-0.1
1.5601120418490304,1.1453976545199764,-1.4511488632054335,-1.5377731325282473,1.270573964599489,1.1956140704020755,7.514703935385114e-05,7.514703935385114e-05,7.514703935385114e-05,7.514703935385114e-05,7.514703935385114e-05,7.514703935385114e-05,7.514703935385114e-05,7.514703935385114e-05,1.5134424844094774,-1.6380087547081779,1.5069068490303028,3.1154192252405863,-1.571550640291969,0.002606761708173977,-0.1,-0.1
1.560931924404833,0.6370720544657646,-0.7253624912724159,1.387991853202553,-1.2701261388066107,-1.9468457593951733,7.514703935385114e-05,7.514703935385114e-05,7.514703935385114e-05,7.514703935385114e-05,7.514703935385114e-05,7.514703935385114e-05,7.514703935385114e-05,7.514703935385114e-05,1.5134424844094774,-1.6380087547081779,1.5069068490303028,3.1154192252405863,-1.571550640291969,0.002606761708173977,-0.1,-0.1
1.561839131302721,-0.055934062885477885,0.7220926910332821,0.6351580643617617,-1.2669366252627063,-1.952026008984973,7.514703935385114e-05,7.514703935385114e-05,7.514703935385114e-05,7.514703935385114e-05,7.514703935385114e-05,7.514703935385114e-05,7.514703935385114e-05,7.514703935385114e-05,1.5134424844094774,-1.6380087547081779,1.5069068490303028,3.1154192252405863,-1.571550640291969,0.002606761708173977,-0.1,-0.1
1.560873007868541,0.6374534729509334,-0.7262009413475503,1.3884252325535091,-1.270024650940893,-1.9470658862877392,7.514703935385114e-05,7.514703935385114e-05,7.514703935385114e-05,7.514703935385114e-05,7.514703935385114e-05,7.514703935385114e-05,7.514703935385114e-05,7.514703935385114e-05,1.5134424844094774,-1.6380087547081779,1.5069068490303028,3.1154192252405863,-1.571550640291969,0.002606761708173977,-0.1,-0.1
1.5618171515753532,-0.05493652929290156,0.7200139891730339,0.6362149326270005,-1.2666817169570015,-1.9519723121342019,7.514703935385114e-05,7.514703935385114e-05,7.514703935385114e-05,7.514703935385114e-05,7.514703935385114e-05,7.514703935385114e-05,7.514703935385114e-05,7.514703935385114e-05,1.5134424844094774,-1.6380087547081779,1.5069068490303028,3.1154192252405863,-1.571550640291969,0.002606761708173977,-0.1,-0.1
1.5618322239639708,-0.05510198218629947,0.7202462427446792,0.6360984295306473,-1.2666374267129623,-1.9520131833173748,7.514703935385114e-05,7.514703935385114e-05,7.514703935385114e-05,7.514703935385114e-05,7.514703935385114e-05,7.514703935385114e-05,7.514703935385114e-05,7.514703935385114e-05,1.5134424844094774,-1.6380087547081779,1.5069068490303028,3.1154192252405863,-1.571550640291969,0.002606761708173977,-0.1,-0.1
1.559577498558973,-0.23283527062279502,1.4478796306165507,-3.0567700337274366,1.2633994078818476,1.1893897940579736,7.514703935385114e-05,7.514703935385114e-05,7.514703935385114e-05,7.514703935385114e-05,7.514703935385114e-05,7.514703935385114e-05,7.514703935385114e-05,7.514703935385114e-05,1.5134424844094774,-1.6380087547081779,1.5069068490303028,3.1154192252405863,-1.571550640291969,0.002606761708173977,-0.1,-0.1
1.5618535068876938,-0.0554843306669554,0.7210715903121292,0.6354846914748034,-1.2666444800340773,-1.9519980059575786,7.514703935385114e-05,7.514703935385114e-05,7.514703935385114e-05,7.514703935385114e-05,7.514703935385114e-05,7.514703935385114e-05,7.514703935385114e-05,7.514703935385114e-05,1.5134424844094774,-1.6380087547081779,1.5069068490303028,3.1154192252405863,-1.571550640291969,0.002606761708173977,-0.1,-0.1
1.5618135092345107,-0.05516162995629325,0.7206951102816472,0.6359845642626987,-1.266653842124532,-1.952073911678611,7.514703935385114e-05,7.514703935385114e-05,7.514703935385114e-05,7.514703935385114e-05,7.514703935385114e-05,7.514703935385114e-05,7.514703935385114e-05,7.514703935385114e-05,1.5134424844094774,-1.6380087547081779,1.5069068490303028,3.1154192252405863,-1.571550640291969,0.002606761708173977,-0.1,-0.1
-1.2380850572315318,1.9983886979688776,1.4728275121084748,-1.7467145940232964,-1.9426522832739137,0.845400175378163,7.514703935385114e-05,7.514703935385114e-05,7.514703935385114e-05,7.514703935385114e-05,7.514703935385114e-05,7.514703935385114e-05,7.514703935385114e-05,7.514703935385114e-05,1.5134424844094774,-1.6380087547081779,1.5069068490303028,3.1154192252405863,-1.571550640291969,0.002606761708173977,-0.1,-0.1
1.8672883887219291,1.21765065156016,-2.479586720859607,-3.1126860912728436,-1.35128154647352,-1.4777059595212871,7.514703935385114e-05,7.514703935385114e-05,7.514703935385114e-05,7.514703935385114e-05,7.514703935385114e-05,7.514703935385114e-05,7.514703935385114e-05,7.514703935385114e-05,1.5134424844094774,-1.6380087547081779,1.5069068490303028,3.1154192252405863,-1.571550640291969,0.002606761708173977,-0.1,-0.1
-1.2116428221636868,-2.3974473354804893,-1.541742266875025,-0.5388045023039104,-2.047702763052383,0.6220940455150383,7.514703935385114e-05,7.514703935385114e-05,7.514703935385114e-05,7.514703935385114e-05,7.514703935385114e-05,7.514703935385114e-05,7.514703935385114e-05,7.514703935385114e-05,1.5134424844094774,-1.6380087547081779,1.5069068490303028,3.1154192252405863,-1.571550640291969,0.002606761708173977,-0.1,-0.1
1.6080658056809467,-0.4104559472237596,0.6791061563538061,0.9259091419099217,-1.1920742237644473,-2.1828371078662943,7.514703935385114e-05,7.514703935385114e-05,7.514703935385114e-05,7.514703935385114e-05,7.514703935385114e-05,7.514703935385114e-05,7.514703935385114e-05,7.514703935385114e-05,1.5134424844094774,-1.6380087547081779,1.5069068490303028,3.1154192252405863,-1.571550640291969,0.002606761708173977,-0.1,-0.1
1.6071818848203978,0.24176908845896283,-0.6831302366078417,1.6337623363500167,-1.1944509031763444,-2.1772127681111497,7.514703935385114e-05,7.514703935385114e-05,7.514703935385114e-05,7.514703935385114e-05,7.514703935385114e-05,7.514703935385114e-05,7.514703935385114e-05,7.514703935385114e-05,1.5134424844094774,-1.6380087547081779,1.5069068490303028,3.1154192252405863,-1.571550640291969,0.002606761708173977,-0.1,-0.1
1.6070746824905613,0.24224971585033778,-0.6839356425480424,1.6341306110532037,-1.194344820406005,-2.1770281761713677,7.514703935385114e-05,7.514703935385114e-05,7.514703935385114e-05,7.514703935385114e-05,7.514703935385114e-05,7.514703935385114e-05,7.514703935385114e-05,7.514703935385114e-05,1.5134424844094774,-1.6380087547081779,1.5069068490303028,3.1154192252405863,-1.571550640291969,0.002606761708173977,-0.1,-0.1
-1.2111990068665077,2.8930620557293576,0.6572164751117217,1.3976385343417692,2.045201000870636,-2.514355719630794,7.514703935385114e-05,7.514703935385114e-05,7.514703935385114e-05,7.514703935385114e-05,7.514703935385114e-05,7.514703935385114e-05,7.514703935385114e-05,7.514703935385114e-05,1.5134424844094774,-1.6380087547081779,1.5069068490303028,3.1154192252405863,-1.571550640291969,0.002606761708173977,-0.1,-0.1
1.6062444175219008,-0.7167393600755694,1.5248182226271085,-2.7558800448203926,1.1895137695808664,0.9568979326343491,7.514703935385114e-05,7.514703935385114e-05,7.514703935385114e-05,7.514703935385114e-05,7.514703935385114e-05,7.514703935385114e-05,7.514703935385114e-05,7.514703935385114e-05,1.5134424844094774,-1.6380087547081779,1.5069068490303028,3.1154192252405863,-1.571550640291969,0.002606761708173977,-0.1,-0.1
-1.2111866304557555,2.8914305937043623,0.6606270968808031,1.3958541601696388,2.045170077398336,-2.5143751130709306,7.514703935385114e-05,7.514703935385114e-05,7.514703935385114e-05,7.514703935385114e-05,7.514703935385114e-05,7.514703935385114e-05,7.514703935385114e-05,7.514703935385114e-05,1.5134424844094774,-1.6380087547081779,1.5069068490303028,3.1154192252405863,-1.571550640291969,0.002606761708173977,-0.1,-0.1
1.4838105595938529,0.8239760510083909,-1.052490529227483,-1.763810619303715,1.2420347456479006,1.0819191067264138,7.514703935385114e-05,7.514703935385114e-05,7.514703935385114e-05,7.514703935385114e-05,7.514703935385114e-05,7.514703935385114e-05,7.514703935385114e-05,7.514703935385114e-05,1.5134424844094774,-1.6380087547081779,1.5069068490303028,3.1154192252405863,-1.571550640291969,0.002606761708173977,-0.1,-0.1
-1.3662901933978477,2.31316675527639,1.081301439285431,-1.5123382580848934,-2.002590746117378,0.7949312563411264,7.514703935385114e-05,7.514703935385114e-05,7.514703935385114e-05,7.514703935385114e-05,7.514703935385114e-05,7.514703935385114e-05,7.514703935385114e-05,7.514703935385114e-05,1.5134424844094774,-1.6380087547081779,1.5069068490303028,3.1154192252405863,-1.571550640291969,0.002606761708173977,-0.1,-0.1
-1.3668207583672451,-2.934818678418297,-1.0853755507173328,-0.3834733749876034,-2.0062498288477753,0.7880958110363249,7.514703935385114e-05,7.514703935385114e-05,7.514703935385114e-05,7.514703935385114e-05,7.514703935385114e-05,7.514703935385114e-05,7.514703935385114e-05,7.514703935385114e-05,1.5134424844094774,-1.6380087547081779,1.5069068490303028,3.1154192252405863,-1.571550640291969,0.002606761708173977,-0.1,-0.1
1.4834598085133968,-0.18031800661424155,1.0494016884386324,-2.859716018377909,1.2364498531574075,1.0774148685263318,7.514703935385114e-05,7.514703935385114e-05,7.514703935385114e-05,7.514703935385114e-05,7.514703935385114e-05,7.514703935385114e-05,7.514703935385114e-05,7.514703935385114e-05,1.5134424844094774,-1.6380087547081779,1.5069068490303028,3.1154192252405863,-1.571550640291969,0.002606761708173977,-0.1,-0.1
-1.3247401994984063,2.625974990408618,1.2553809090629486,-1.924864181943262,-2.1195718011061233,0.5717472038461133,7.514703935385114e-05,7.514703935385114e-05,7.514703935385114e-05,7.514703935385114e-05,7.514703935385114e-05,7.514703935385114e-05,7.514703935385114e-05,7.514703935385114e-05,1.5134424844094774,-1.6380087547081779,1.5069068490303028,3.1154192252405863,-1.571550640291969,0.002606761708173977,-0.1,-0.1
-1.3254822895990723,-2.457533035614174,-1.2599091552973714,-0.6140444578124477,-2.120944228148034,0.562486896785222,7.514703935385114e-05,7.514703935385114e-05,7.514703935385114e-05,7.514703935385114e-05,7.514703935385114e-05,7.514703935385114e-05,7.514703935385114e-05,7.514703935385114e-05,1.5134424844094774,-1.6380087547081779,1.5069068490303028,3.1154192252405863,-1.571550640291969,0.002606761708173977,-0.1,-0.1
1.521038985843992,-0.65573273577699,1.2347950271322239,-2.6721799221944393,1.1477955607782337,0.857931885836748,7.514703935385114e-05,7.514703935385114e-05,7.514703935385114e-05,7.514703935385114e-05,7.514703935385114e-05,7.514703935385114e-05,7.514703935385114e-05,7.514703935385114e-05,1.5134424844094774,-1.6380087547081779,1.5069068490303028,3.1154192252405863,-1.571550640291969,0.002606761708173977,-0.1,-0.1
1.5215817325449112,0.5237457344268014,-1.238143856905195,-1.3817195096724153,1.1520908850566705,0.8649954833375637,7.514703935385114e-05,7.514703935385114e-05,7.514703935385114e-05,7.514703935385114e-05,7.514703935385114e-05,7.514703935385114e-05,7.514703935385114e-05,7.514703935385114e-05,1.5134424844094774,-1.6380087547081779,1.5069068490303028,3.1154192252405863,-1.571550640291969,0.002606761708173977,-0.1,-0.1
-1.4819525805501759,-3.0531195309785315,-0.5839597609015357,-0.6115627807247318,-2.055982790287019,0.727047068598302,7.514703935385114e-05,7.514703935385114e-05,7.514703935385114e-05,7.514703935385114e-05,7.514703935385114e-05,7.514703935385114e-05,7.514703935385114e-05,7.514703935385114e-05,1.5134424844094774,-1.6380087547081779,1.5069068490303028,3.1154192252405863,-1.571550640291969,0.002606761708173977,-0.1,-0.1
1.400772493146466,0.4505184847735335,-0.5256513887964068,-2.0622443125806904,1.2133397563254993,0.9719544360624618,7.514703935385114e-05,7.514703935385114e-05,7.514703935385114e-05,7.514703935385114e-05,7.514703935385114e-05,7.514703935385114e-05,7.514703935385114e-05,7.514703935385114e-05,1.5134424844094774,-1.6380087547081779,1.5069068490303028,3.1154192252405863,-1.571550640291969,0.002606761708173977,-0.1,-0.1
-1.4819454430728674,-3.0535343330910467,-0.5830780946328769,-0.6120590834896361,-2.055995075199554,0.7270150824935634,7.514703935385114e-05,7.514703935385114e-05,7.514703935385114e-05,7.514703935385114e-05,7.514703935385114e-05,7.514703935385114e-05,7.514703935385114e-05,7.514703935385114e-05,1.5134424844094774,-1.6380087547081779,1.5069068490303028,3.1154192252405863,-1.571550640291969,0.002606761708173977,-0.1,-0.1
-1.481730208727913,2.673262881083372,0.5775485916966796,-1.2144828058670258,-2.0539233942297335,0.7308906057066993,7.514703935385114e-05,7.514703935385114e-05,7.514703935385114e-05,7.514703935385114e-05,7.514703935385114e-05,7.514703935385114e-05,7.514703935385114e-05,7.514703935385114e-05,1.5134424844094774,-1.6380087547081779,1.5069068490303028,3.1154192252405863,-1.571550640291969,0.002606761708173977,-0.1,-0.1
1.400654839901988,-0.051690598777488106,0.5219388014099535,-2.6067724083365893,1.2104553948159977,0.969336290948786,7.514703935385114e-05,7.514703935385114e-05,7.514703935385114e-05,7.514703935385114e-05,7.514703935385114e-05,7.514703935385114e-05,7.514703935385114e-05,7.514703935385114e-05,1.5134424844094774,-1.6380087547081779,1.5069068490303028,3.1154192252405863,-1.571550640291969,0.002606761708173977,-0.1,-0.1
-1.4817093692748702,2.6720673469486953,0.5798362384155863,-1.2158082466544564,-2.0536969624234724,0.7309604171440216,7.514703935385114e-05,7.514703935385114e-05,7.514703935385114e-05,7.514703935385114e-05,7.514703935385114e-05,7.514703935385114e-05,7.514703935385114e-05,7.514703935385114e-05,1.5134424844094774,-1.6380087547081779,1.5069068490303028,3.1154192252405863,-1.571550640291969,0.002606761708173977,-0.1,-0.1
-1.4819562418956957,-3.0526143232589624,-0.5851152984980899,-0.611128770000383,-2.05604574306329,0.7270581113494512,7.514703935385114e-05,7.514703935385114e-05,7.514703935385114e-05,7.514703935385114e-05,7.514703935385114e-05,7.514703935385114e-05,7.514703935385114e-05,7.514703935385114e-05,1.5134424844094774,-1.6380087547081779,1.5069068490303028,3.1154192252405863,-1.571550640291969,0.002606761708173977,-0.1,-0.1
1.4007346107469032,0.45136404965631705,-0.5272313935227261,-2.061361090628784,1.2134791711115993,0.9716942762952937,7.514703935385114e-05,7.514703935385114e-05,7.514703935385114e-05,7.514703935385114e-05,7.514703935385114e-05,7.514703935385114e-05,7.514703935385114e-05,7.514703935385114e-05,1.5134424844094774,-1.6380087547081779,1.5069068490303028,3.1154192252405863,-1.571550640291969,0.002606761708173977,-0.1,-0.1
-1.4821898787773438,-3.054389865244987,-0.5815237709951513,-0.6125721798509758,-2.056334092827813,0.7273262332407305,7.514703935385114e-05,7.514703935385114e-05,7.514703935385114e-05,7.514703935385114e-05,7.514703935385114e-05,7.514703935385114e-05,7.514703935385114e-05,7.514703935385114e-05,1.5134424844094774,-1.6380087547081779,1.5069068490303028,3.1154192252405863,-1.571550640291969,0.002606761708173977,-0.1,-0.1
-1.4817517384523693,2.6715626478859638,0.5810448627250192,-1.216207264906931,-2.054051171843166,0.7310346964472622,7.514703935385114e-05,7.514703935385114e-05,7.514703935385114e-05,7.514703935385114e-05,7.514703935385114e-05,7.514703935385114e-05,7.514703935385114e-05,7.514703935385114e-05,1.5134424844094774,-1.6380087547081779,1.5069068490303028,3.1154192252405863,-1.571550640291969,0.002606761708173977,-0.1,-0.1
-1.5323684808604732,3.0584011596955762,0.6792963144777212,-1.5012093218850866,-2.2453144165344066,0.42454457197947515,7.514703935385114e-05,7.514703935385114e-05,7.514703935385114e-05,7.514703935385114e-05,7.514703935385114e-05,7.514703935385114e-05,7.514703935385114e-05,7.514703935385114e-05,1.5134424844094774,-1.6380087547081779,1.5069068490303028,3.1154192252405863,-1.571550640291969,0.002606761708173977,-0.1,-0.1
1.340467518427564,0.07619429949701906,-0.639167078712227,-1.8048798154954775,1.0745979352402704,0.65755604000067,7.514703935385114e-05,7.514703935385114e-05,7.514703935385114e-05,7.514703935385114e-05,7.514703935385114e-05,7.514703935385114e-05,7.514703935385114e-05,7.514703935385114e-05,1.5134424844094774,-1.6380087547081779,1.5069068490303028,3.1154192252405863,-1.571550640291969,0.002606761708173977,-0.1,-0.1
1.3405359008550248,0.0758533437680736,-0.6385682968982554,-1.8052712624453573,1.0747340032559312,0.6575866657807002,7.514703935385114e-05,7.514703935385114e-05,7.514703935385114e-05,7.514703935385114e-05,7.514703935385114e-05,7.514703935385114e-05,7.514703935385114e-05,7.514703935385114e-05,1.5134424844094774,-1.6380087547081779,1.5069068490303028,3.1154192252405863,-1.571550640291969,0.002606761708173977,-0.1,-0.1
-1.5326082387263917,-2.571434444922936,-0.6840073370582257,-0.7949196655306163,-2.246501667181677,0.418689275780506,7.514703935385114e-05,7.514703935385114e-05,7.514703935385114e-05,7.514703935385114e-05,7.514703935385114e-05,7.514703935385114e-05,7.514703935385114e-05,7.514703935385114e-05,1.5134424844094774,-1.6380087547081779,1.5069068490303028,3.1154192252405863,-1.571550640291969,0.002606761708173977,-0.1,-0.1
1.3403342404510832,-0.5350821944692683,0.636114433255181,-2.4671090781253615,1.0720043578184173,0.6535763195288108,7.514703935385114e-05,7.514703935385114e-05,7.514703935385114e-05,7.514703935385114e-05,7.514703935385114e-05,7.514703935385114e-05,7.514703935385114e-05,7.514703935385114e-05,1.5134424844094774,-1.6380087547081779,1.5069068490303028,3.1154192252405863,-1.571550640291969,0.002606761708173977,-0.1,-0.1
1.340533253734724,0.07547366245092449,-0.6377957312125266,-1.8056055097085215,1.0747692528275954,0.6574540377718969,7.514703935385114e-05,7.514703935385114e-05,7.514703935385114e-05,7.514703935385114e-05,7.514703935385114e-05,7.514703935385114e-05,7.514703935385114e-05,7.514703935385114e-05,1.5134424844094774,-1.6380087547081779,1.5069068490303028,3.1154192252405863,-1.571550640291969,0.002606761708173977,-0.1,-0.1
-1.5323377879374507,3.057375648900141,0.6810631721186713,-1.5024342662406303,-2.245114628142232,0.42428646414456395,7.514703935385114e-05,7.514703935385114e-05,7.514703935385114e-05,7.514703935385114e-05,7.514703935385114e-05,7.514703935385114e-05,7.514703935385114e-05,7.514703935385114e-05,1.5134424844094774,-1.6380087547081779,1.5069068490303028,3.1154192252405863,-1.571550640291969,0.002606761708173977,-0.1,-0.1
1.3405363587311294,0.0767167881803542,-0.640365024523106,-1.8043789321892079,1.0749275282986288,0.6575353842327384,7.514703935385114e-05,7.514703935385114e-05,7.514703935385114e-05,7.514703935385114e-05,7.514703935385114e-05,7.514703935385114e-05,7.514703935385114e-05,7.514703935385114e-05,1.5134424844094774,-1.6380087547081779,1.5069068490303028,3.1154192252405863,-1.571550640291969,0.002606761708173977,-0.1,-0.1
-2.6345655629657494,-3.0664288007438927,2.211253431561166,-0.2690512015730645,2.3945715909572516,1.041905186909244,7.514703935385114e-05,7.514703935385114e-05,7.514703935385114e-05,7.514703935385114e-05,7.514703935385114e-05,7.514703935385114e-05,7.514703935385114e-05,7.514703935385114e-05,1.5134424844094774,-1.6380087547081779,1.5069068490303028,3.1154192252405863,-1.571550640291969,0.002606761708173977,-0.1,-0.1
-2.6266176428536587,-0.40627011298580007,-2.5357482252404004,-1.3352635349857085,-2.38837305615786,-2.116654491633485,7.514703935385114e-05,7.514703935385114e-05,7.514703935385114e-05,7.514703935385114e-05,7.514703935385114e-05,7.514703935385114e-05,7.514703935385114e-05,7.514703935385114e-05,1.5134424844094774,-1.6380087547081779,1.5069068490303028,3.1154192252405863,-1.571550640291969,0.002606761708173977,-0.1,-0.1
-2.625073635928513,-2.6834198407577743,2.5328249258226627,2.1591634283071865,-2.402432176728227,-2.112940928799078,7.514703935385114e-05,7.514703935385114e-05,7.514703935385114e-05,7.514703935385114e-05,7.514703935385114e-05,7.514703935385114e-05,7.514703935385114e-05,7.514703935385114e-05,1.5134424844094774,-1.6380087547081779,1.5069068490303028,3.1154192252405863,-1.571550640291969,0.002606761708173977,-0.1,-0.1
-1.3713513907203358,-0.35612741037680984,-2.6035704957509687,0.6107170985066982,2.090040979985806,-0.6374150814865093,7.514703935385114e-05,7.514703935385114e-05,7.514703935385114e-05,7.514703935385114e-05,7.514703935385114e-05,7.514703935385114e-05,7.514703935385114e-05,7.514703935385114e-05,1.5134424844094774,-1.6380087547081779,1.5069068490303028,3.1154192252405863,-1.571550640291969,0.002606761708173977,-0.1,-0.1
-1.3843298027942494,-0.1655645961276548,-2.1745049307000386,3.141592653589793,-2.1032993760808054,2.51921784390507,7.514703935385114e-05,7.514703935385114e-05,7.514703935385114e-05,7.514703935385114e-05,7.514703935385114e-05,7.514703935385114e-05,7.514703935385114e-05,7.514703935385114e-05,1.5134424844094774,-1.6380087547081779,1.5069068490303028,3.1154192252405863,-1.571550640291969,0.002606761708173977,-0.1,-0.1
-1.3844336251614668,-0.16575515334684007,-2.174289680636308,3.141592653589793,-2.103700103660058,2.519427525171205,7.514703935385114e-05,7.514703935385114e-05,7.514703935385114e-05,7.514703935385114e-05,7.514703935385114e-05,7.514703935385114e-05,7.514703935385114e-05,7.514703935385114e-05,1.5134424844094774,-1.6380087547081779,1.5069068490303028,3.1154192252405863,-1.571550640291969,0.002606761708173977,-0.1,-0.1
-2.6348229740083795,-3.066381222451446,2.211118169145302,-0.26866622225924897,2.394565336479366,1.0423021550358316,7.514703935385114e-05,7.514703935385114e-05,7.514703935385114e-05,7.514703935385114e-05,7.514703935385114e-05,7.514703935385114e-05,7.514703935385114e-05,7.514703935385114e-05,1.5134424844094774,-1.6380087547081779,1.5069068490303028,3.1154192252405863,-1.571550640291969,0.002606761708173977,-0.1,-0.1
-1.384563705633187,-0.16592330246184717,-2.174207311103633,3.141592653589793,-2.1036973357824738,2.519205367522407,7.514703935385114e-05,7.514703935385114e-05,7.514703935385114e-05,7.514703935385114e-05,7.514703935385114e-05,7.514703935385114e-05,7.514703935385114e-05,7.514703935385114e-05,1.5134424844094774,-1.6380087547081779,1.5069068490303028,3.1154192252405863,-1.571550640291969,0.002606761708173977,-0.1,-0.1
-1.3825178784167362,-2.6732645131153228,2.5999668216318725,-2.277698048907589,2.1063050167849364,-0.6411987798413792,7.514703935385114e-05,7.514703935385114e-05,7.514703935385114e-05,7.514703935385114e-05,7.514703935385114e-05,7.514703935385114e-05,7.514703935385114e-05,7.514703935385114e-05,1.5134424844094774,-1.6380087547081779,1.5069068490303028,3.1154192252405863,-1.571550640291969,0.002606761708173977,-0.1,-0.1
-0.9219608812494046,0.9012695872961013,-2.504193766975243,-0.8614809126565773,1.7623775574419622,-0.9598958465630794,7.514703935385114e-05,7.514703935385114e-05,7.514703935385114e-05,7.514703935385114e-05,7.514703935385114e-05,7.514703935385114e-05,7.514703935385114e-05,7.514703935385114e-05,1.5134424844094774,-1.6380087547081779,1.5069068490303028,3.1154192252405863,-1.571550640291969,0.002606761708173977,-0.1,-0.1
2.899599269987443,2.68422667425229,2.0460854031511797,0.8402770440728182,1.9103220810144619,1.7514556117001516,7.514703935385114e-05,7.514703935385114e-05,7.514703935385114e-05,7.514703935385114e-05,7.514703935385114e-05,7.514703935385114e-05,7.514703935385114e-05,7.514703935385114e-05,1.5134424844094774,-1.6380087547081779,1.5069068490303028,3.1154192252405863,-1.571550640291969,0.002606761708173977,-0.1,-0.1
0.5369189201751846,-0.3335405910453196,-0.9128758512400913,1.5526273680995906,-1.0601432650070575,-0.16059808150820726,7.514703935385114e-05,7.514703935385114e-05,7.514703935385114e-05,7.514703935385114e-05,7.514703935385114e-05,7.514703935385114e-05,7.514703935385114e-05,7.514703935385114e-05,1.5134424844094774,-1.6380087547081779,1.5069068490303028,3.1154192252405863,-1.571550640291969,0.002606761708173977,-0.1,-0.1
-2.1687975779345217,-1.7458099958610438,-1.6127965933246462,-0.23702861447684787,-2.4920908878591987,2.762412032456122,7.514703935385114e-05,7.514703935385114e-05,7.514703935385114e-05,7.514703935385114e-05,7.514703935385114e-05,7.514703935385114e-05,7.514703935385114e-05,7.514703935385114e-05,1.5134424844094774,-1.6380087547081779,1.5069068490303028,3.1154192252405863,-1.571550640291969,0.002606761708173977,-0.1,-0.1
0.5363934787238467,0.13961098236948896,-1.5863556674222539,-1.390328471426463,1.060716545030464,2.9814387881503257,7.514703935385114e-05,7.514703935385114e-05,7.514703935385114e-05,7.514703935385114e-05,7.514703935385114e-05,7.514703935385114e-05,7.514703935385114e-05,7.514703935385114e-05,1.5134424844094774,-1.6380087547081779,1.5069068490303028,3.1154192252405863,-1.571550640291969,0.002606761708173977,-0.1,-0.1
0.5355163932186809,-1.3641780430689747,1.5837839181233033,-3.052450325953193,1.054323398857883,2.973050721557861,7.514703935385114e-05,7.514703935385114e-05,7.514703935385114e-05,7.514703935385114e-05,7.514703935385114e-05,7.514703935385114e-05,7.514703935385114e-05,7.514703935385114e-05,1.5134424844094774,-1.6380087547081779,1.5069068490303028,3.1154192252405863,-1.571550640291969,0.002606761708173977,-0.1,-0.1
-2.465725263011227,3.0419883497461884,0.999452953068879,-1.2332041601739916,-2.211854078146539,2.929931546442745,7.514703935385114e-05,7.514703935385114e-05,7.514703935385114e-05,7.514703935385114e-05,7.514703935385114e-05,7.514703935385114e-05,7.514703935385114e-05,7.514703935385114e-05,1.5134424844094774,-1.6380087547081779,1.5069068490303028,3.1154192252405863,-1.571550640291969,0.002606761708173977,-0.1,-0.1
-2.465735869334513,3.041374183729102,1.0008629575335075,-1.2341412368699485,-2.212220668334742,2.9298346841343106,7.514703935385114e-05,7.514703935385114e-05,7.514703935385114e-05,7.514703935385114e-05,7.514703935385114e-05,7.514703935385114e-05,7.514703935385114e-05,7.514703935385114e-05,1.5134424844094774,-1.6380087547081779,1.5069068490303028,3.1154192252405863,-1.571550640291969,0.002606761708173977,-0.1,-0.1
-2.4661043896191535,-2.282903862221821,-1.0048247223116529,-0.19101832212268888,-2.2165455627650443,2.923526463820769,7.514703935385114e-05,7.514703935385114e-05,7.514703935385114e-05,7.514703935385114e-05,7.514703935385114e-05,7.514703935385114e-05,7.514703935385114e-05,7.514703935385114e-05,1.5134424844094774,-1.6380087547081779,1.5069068490303028,3.1154192252405863,-1.571550640291969,0.002606761708173977,-0.1,-0.1
0.35998795278113194,-0.8453248730358104,0.9813789946162458,-2.9940575066169854,1.2224901014178142,3.0292764413785607,7.514703935385114e-05,7.514703935385114e-05,7.514703935385114e-05,7.514703935385114e-05,7.514703935385114e-05,7.514703935385114e-05,7.514703935385114e-05,7.514703935385114e-05,1.5134424844094774,-1.6380087547081779,1.5069068490303028,3.1154192252405863,-1.571550640291969,0.002606761708173977,-0.1,-0.1
-2.299617924842849,2.9593072234663484,2.008873916085063,-2.4437959133746583,-2.584751985502948,2.2162897789566665,7.514703935385114e-05,7.514703935385114e-05,7.514703935385114e-05,7.514703935385114e-05,7.514703935385114e-05,7.514703935385114e-05,7.514703935385114e-05,7.514703935385114e-05,1.5134424844094774,-1.6380087547081779,1.5069068490303028,3.1154192252405863,-1.571550640291969,0.002606761708173977,-0.1,-0.1
0.26665798163917787,-1.5291584120656407,1.4166509541164507,0.4779201487210937,-1.0686133938408637,-0.5729645190170802,7.514703935385114e-05,7.514703935385114e-05,7.514703935385114e-05,7.514703935385114e-05,7.514703935385114e-05,7.514703935385114e-05,7.514703935385114e-05,7.514703935385114e-05,1.5134424844094774,-1.6380087547081779,1.5069068490303028,3.1154192252405863,-1.571550640291969,0.002606761708173977,-0.1,-0.1
-2.3020765095713127,-2.9897106071827007,1.395338912192079,0.9712646812218025,2.581109761189349,-0.9312679440211326,7.514703935385114e-05,7.514703935385114e-05,7.514703935385114e-05,7.514703935385114e-05,7.514703935385114e-05,7.514703935385114e-05,7.514703935385114e-05,7.514703935385114e-05,1.5134424844094774,-1.6380087547081779,1.5069068490303028,3.1154192252405863,-1.571550640291969,0.002606761708173977,-0.1,-0.1
0.264567264834215,0.2235226152330685,-1.9879075383748506,-1.0181418629691674,1.0744110554452246,2.5791089119885107,7.514703935385114e-05,7.514703935385114e-05,7.514703935385114e-05,7.514703935385114e-05,7.514703935385114e-05,7.514703935385114e-05,7.514703935385114e-05,7.514703935385114e-05,1.5134424844094774,-1.6380087547081779,1.5069068490303028,3.1154192252405863,-1.571550640291969,0.002606761708173977,-0.1,-0.1
0.26380491680342877,-0.18031513144169997,-1.4219732708097104,1.9624096606546315,-1.0755641029960357,-0.5620378140632387,7.514703935385114e-05,7.514703935385114e-05,7.514703935385114e-05,7.514703935385114e-05,7.514703935385114e-05,7.514703935385114e-05,7.514703935385114e-05,7.514703935385114e-05,1.5134424844094774,-1.6380087547081779,1.5069068490303028,3.1154192252405863,-1.571550640291969,0.002606761708173977,-0.1,-0.1
0.26267441492576304,-1.640251647368805,1.9850555305205455,-3.122198469719767,1.069077335396247,2.5684791323860123,7.514703935385114e-05,7.514703935385114e-05,7.514703935385114e-05,7.514703935385114e-05,7.514703935385114e-05,7.514703935385114e-05,7.514703935385114e-05,7.514703935385114e-05,1.5134424844094774,-1.6380087547081779,1.5069068490303028,3.1154192252405863,-1.571550640291969,0.002606761708173977,-0.1,-0.1
-2.7012976832885607,2.7716515960856474,1.5902992322854825,-1.6220552345543238,-2.228674763183019,2.5019911324163386,7.514703935385114e-05,7.514703935385114e-05,7.514703935385114e-05,7.514703935385114e-05,7.514703935385114e-05,7.514703935385114e-05,7.514703935385114e-05,7.514703935385114e-05,1.5134424844094774,-1.6380087547081779,1.5069068490303028,3.1154192252405863,-1.571550640291969,0.002606761708173977,-0.1,-0.1
0.055136487162357244,-0.09649093388944868,-1.0131173140952359,1.4412358104859888,-1.2717370920002546,-0.48924581441668863,7.514703935385114e-05,7.514703935385114e-05,7.514703935385114e-05,7.514703935385114e-05,7.514703935385114e-05,7.514703935385114e-05,7.514703935385114e-05,7.514703935385114e-05,1.5134424844094774,-1.6380087547081779,1.5069068490303028,3.1154192252405863,-1.571550640291969,0.002606761708173977,-0.1,-0.1
0.055081256149336844,-0.09692924340496353,-1.0123491898024666,1.4404583257085057,-1.2718189716876558,-0.48907183604350574,7.514703935385114e-05,7.514703935385114e-05,7.514703935385114e-05,7.514703935385114e-05,7.514703935385114e-05,7.514703935385114e-05,7.514703935385114e-05,7.514703935385114e-05,1.5134424844094774,-1.6380087547081779,1.5069068490303028,3.1154192252405863,-1.571550640291969,0.002606761708173977,-0.1,-0.1
0.05516243965112813,-0.0961477972825723,-1.0136832775602536,1.4416311151854853,-1.2716889367008875,-0.4891668411416111,7.514703935385114e-05,7.514703935385114e-05,7.514703935385114e-05,7.514703935385114e-05,7.514703935385114e-05,7.514703935385114e-05,7.514703935385114e-05,7.514703935385114e-05,1.5134424844094774,-1.6380087547081779,1.5069068490303028,3.1154192252405863,-1.571550640291969,0.002606761708173977,-0.1,-0.1
0.0551999314019414,-0.0967452245368506,-1.012366378118808,1.4405492941411338,-1.2720280988344377,-0.48921642272425553,7.514703935385114e-05,7.514703935385114e-05,7.514703935385114e-05,7.514703935385114e-05,7.514703935385114e-05,7.514703935385114e-05,7.514703935385114e-05,7.514703935385114e-05,1.5134424844094774,-1.6380087547081779,1.5069068490303028,3.1154192252405863,-1.571550640291969,0.002606761708173977,-0.1,-0.1
0.05418025799897556,0.3703476984259061,-1.5780960931122219,-1.6035821257770766,1.2724663594864356,2.6516253685629394,7.514703935385114e-05,7.514703935385114e-05,7.514703935385114e-05,7.514703935385114e-05,7.514703935385114e-05,7.514703935385114e-05,7.514703935385114e-05,7.514703935385114e-05,1.5134424844094774,-1.6380087547081779,1.5069068490303028,3.1154192252405863,-1.571550640291969,0.002606761708173977,-0.1,-0.1
0.05396136261390725,0.3700841875200862,-1.5772559325272626,-1.6040121893313157,1.272676645765573,2.6517460360513163,7.514703935385114e-05,7.514703935385114e-05,7.514703935385114e-05,7.514703935385114e-05,7.514703935385114e-05,7.514703935385114e-05,7.514703935385114e-05,7.514703935385114e-05,1.5134424844094774,-1.6380087547081779,1.5069068490303028,3.1154192252405863,-1.571550640291969,0.002606761708173977,-0.1,-0.1
0.7768363821787105,0.10874369438734496,-1.283215836082355,-1.612169724377303,1.092602428526746,-2.9398935582533348,7.514703935385114e-05,7.514703935385114e-05,7.514703935385114e-05,7.514703935385114e-05,7.514703935385114e-05,7.514703935385114e-05,7.514703935385114e-05,7.514703935385114e-05,1.5134424844094774,-1.6380087547081779,1.5069068490303028,3.1154192252405863,-1.571550640291969,0.002606761708173977,-0.1,-0.1
0.7785362989744969,-0.7957614882745427,0.2907257655977389,0.8633395776823068,-1.0889738216581766,0.19742079892911932,7.514703935385114e-05,7.514703935385114e-05,7.514703935385114e-05,7.514703935385114e-05,7.514703935385114e-05,7.514703935385114e-05,7.514703935385114e-05,7.514703935385114e-05,1.5134424844094774,-1.6380087547081779,1.5069068490303028,3.1154192252405863,-1.571550640291969,0.002606761708173977,-0.1,-0.1
0.7781359069479737,-0.514915825105887,-0.29499762455751277,1.167273081447774,-1.090701478490459,0.19946495567124026,7.514703935385114e-05,7.514703935385114e-05,7.514703935385114e-05,7.514703935385114e-05,7.514703935385114e-05,7.514703935385114e-05,7.514703935385114e-05,7.514703935385114e-05,1.5134424844094774,-1.6380087547081779,1.5069068490303028,3.1154192252405863,-1.571550640291969,0.002606761708173977,-0.1,-0.1
0.7781396203059091,-0.5161407833318752,-0.29252673551158687,1.1658552915749656,-1.0906480283554825,0.19954935824232062,7.514703935385114e-05,7.514703935385114e-05,7.514703935385114e-05,7.514703935385114e-05,7.514703935385114e-05,7.514703935385114e-05,7.514703935385114e-05,7.514703935385114e-05,1.5134424844094774,-1.6380087547081779,1.5069068490303028,3.1154192252405863,-1.571550640291969,0.002606761708173977,-0.1,-0.1
0.7784982150236781,-0.7945096325746873,0.2880666440104313,0.8646196622550592,-1.0888864636430327,0.1974438684392748,7.514703935385114e-05,7.514703935385114e-05,7.514703935385114e-05,7.514703935385114e-05,7.514703935385114e-05,7.514703935385114e-05,7.514703935385114e-05,7.514703935385114e-05,1.5134424844094774,-1.6380087547081779,1.5069068490303028,3.1154192252405863,-1.571550640291969,0.002606761708173977,-0.1,-0.1
0.7782377143906513,-0.5143722835601531,-0.29599347875153365,1.1677640425508256,-1.090615903572036,0.19967172008456854,7.514703935385114e-05,7.514703935385114e-05,7.514703935385114e-05,7.514703935385114e-05,7.514703935385114e-05,7.514703935385114e-05,7.514703935385114e-05,7.514703935385114e-05,1.5134424844094774,-1.6380087547081779,1.5069068490303028,3.1154192252405863,-1.571550640291969,0.002606761708173977,-0.1,-0.1
-2.0033987382428067,3.033236621594443,1.3043677380229652,-1.6575567648765643,-2.380146049389858,-3.1127623072866393,7.514703935385114e-05,7.514703935385114e-05,7.514703935385114e-05,7.514703935385114e-05,7.514703935385114e-05,7.514703935385114e-05,7.514703935385114e-05,7.514703935385114e-05,1.5134424844094774,-1.6380087547081779,1.5069068490303028,3.1154192252405863,-1.571550640291969,0.002606761708173977,-0.1,-0.1
0.7769104406682376,0.1088928628363108,-1.2834901917761445,-1.6119415924349298,1.0925666031931054,-2.9400740689421254,7.514703935385114e-05,7.514703935385114e-05,7.514703935385114e-05,7.514703935385114e-05,7.514703935385114e-05,7.514703935385114e-05,7.514703935385114e-05,7.514703935385114e-05,1.5134424844094774,-1.6380087547081779,1.5069068490303028,3.1154192252405863,-1.571550640291969,0.002606761708173977,-0.1,-0.1
-2.0043174204737944,-2.004050526660854,-1.3096098567697565,-0.2970360821745175,-2.3834532864326294,-3.1233805684563785,7.514703935385114e-05,7.514703935385114e-05,7.514703935385114e-05,7.514703935385114e-05,7.514703935385114e-05,7.514703935385114e-05,7.514703935385114e-05,7.514703935385114e-05,1.5134424844094774,-1.6380087547081779,1.5069068490303028,3.1154192252405863,-1.571550640291969,0.002606761708173977,-0.1,-0.1
-2.2352439321096447,-2.69405579309279,-0.3077387227817787,-0.5249017970292974,-2.170857475773212,-2.9968615564327417,7.514703935385114e-05,7.514703935385114e-05,7.514703935385114e-05,7.514703935385114e-05,7.514703935385114e-05,7.514703935385114e-05,7.514703935385114e-05,7.514703935385114e-05,1.5134424844094774,-1.6380087547081779,1.5069068490303028,3.1154192252405863,-1.571550640291969,0.002606761708173977,-0.1,-0.1
0.6329377386334751,-0.1858978179886844,-0.23466449170266324,-2.386259716587737,1.225087915431893,-2.8921699082919337,7.514703935385114e-05,7.514703935385114e-05,7.514703935385114e-05,7.514703935385114e-05,7.514703935385114e-05,7.514703935385114e-05,7.514703935385114e-05,7.514703935385114e-05,1.5134424844094774,-1.6380087547081779,1.5069068490303028,3.1154192252405863,-1.571550640291969,0.002606761708173977,-0.1,-0.1
-2.2352223977092907,-2.696205078268208,-0.3033174262429877,-0.5272627056668838,-2.1708734649633428,-2.9966748778428953,7.514703935385114e-05,7.514703935385114e-05,7.514703935385114e-05,7.514703935385114e-05,7.514703935385114e-05,7.514703935385114e-05,7.514703935385114e-05,7.514703935385114e-05,1.5134424844094774,-1.6380087547081779,1.5069068490303028,3.1154192252405863,-1.571550640291969,0.002606761708173977,-0.1,-0.1
-2.2351670121224023,-2.9848401694080904,0.29829254852673287,-0.8390989998776481,-2.1694068573418877,-2.994987823750817,7.514703935385114e-05,7.514703935385114e-05,7.514703935385114e-05,7.514703935385114e-05,7.514703935385114e-05,7.514703935385114e-05,7.514703935385114e-05,7.514703935385114e-05,1.5134424844094774,-1.6380087547081779,1.5069068490303028,3.1154192252405863,-1.571550640291969,0.002606761708173977,-0.1,-0.1
0.12173973869160855,-0.09935232561374029,-1.6681476096518315,2.1901416131332128,-1.1039493155613647,-0.7685870101526758,7.514703935385114e-05,7.514703935385114e-05,7.514703935385114e-05,7.514703935385114e-05,7.514703935385114e-05,7.514703935385114e-05,7.514703935385114e-05,7.514703935385114e-05,1.5134424844094774,-1.6380087547081779,1.5069068490303028,3.1154192252405863,-1.571550640291969,0.002606761708173977,-0.1,-0.1
0.12290599988885573,0.2665331380760679,-2.2064932838598605,-0.7803529725992586,1.1016690647993805,2.3721762697975883,7.514703935385114e-05,7.514703935385114e-05,7.514703935385114e-05,7.514703935385114e-05,7.514703935385114e-05,7.514703935385114e-05,7.514703935385114e-05,7.514703935385114e-05,1.5134424844094774,-1.6380087547081779,1.5069068490303028,3.1154192252405863,-1.571550640291969,0.002606761708173977,-0.1,-0.1
-2.328328129807231,2.969407074527515,2.217650859300584,-2.859457748201477,-2.621587119266824,1.8300052099375255,7.514703935385114e-05,7.514703935385114e-05,7.514703935385114e-05,7.514703935385114e-05,7.514703935385114e-05,7.514703935385114e-05,7.514703935385114e-05,7.514703935385114e-05,1.5134424844094774,-1.6380087547081779,1.5069068490303028,3.1154192252405863,-1.571550640291969,0.002606761708173977,-0.1,-0.1
0.121389694545966,-0.09942655156750216,-1.6682660182099287,2.189783510268837,-1.104144735488708,-0.7685372655078219,7.514703935385114e-05,7.514703935385114e-05,7.514703935385114e-05,7.514703935385114e-05,7.514703935385114e-05,7.514703935385114e-05,7.514703935385114e-05,7.514703935385114e-05,1.5134424844094774,-1.6380087547081779,1.5069068490303028,3.1154192252405863,-1.571550640291969,0.002606761708173977,-0.1,-0.1
