thanhndv212/figaroh-plus/examples/tiago/data/calibration/mocap/vicon/relative_encoder/vicon_calibration_fc10_gripper1_base2.csv
x1,y1,z1,torso_lift_joint,arm_1_joint,arm_2_joint,arm_3_joint,arm_4_joint,arm_5_joint,arm_6_joint,arm_7_joint
0.7554886856191607,-0.10636024870340588,0.7796297197377426,0.29642688252543936,1.610084845793362,-0.9300979551042644,-3.13980162417975,1.8306198517825214,-1.57701571762823,-0.6199674382823896,-1.5768677851512432
0.3049092707628578,0.2694711693648786,1.3530842094490454,0.2821956663459985,2.6702338456663797,0.9842415177415993,-2.6979858493667632,-0.3133479765143019,1.880312692952785,-1.3144825508136482,1.619245238225717
0.6624148423147217,-0.833309127312361,1.014396522863275,0.3279380999296154,0.23475213802527212,0.9215929512572989,-0.7595091595132869,1.0678567174505094,-1.8605369403971705,-0.19631228950017285,-0.6106143756792543
0.49568606557547373,0.09660571025651987,1.0703892366039873,0.019743557745099994,2.3642910669602433,0.9319320778274962,-0.4908062813732878,-0.32325329598042707,1.7724989061344127,-0.1957075549224743,-0.9961969721872179
-0.11096333494603594,0.19271812230838048,0.1862918823667511,0.3476034373289581,2.599492190720513,-1.3105652905274576,-1.2173109720882433,1.2023672616378112,1.13776164920971,0.5084962703962879,-1.7689922619228
0.26517428874455456,-0.29122976350198126,0.24652627935080873,0.04601613574165699,0.6077869029758327,0.7883238609286964,0.017006012558163554,2.286819145020242,-1.2982480635495561,1.386523389522903,-1.6700500048704094
0.724705172585988,-0.5131201639710115,0.09529801563962942,0.10290101989814217,0.5705085397544543,-0.871694502980727,0.7431259298214129,-0.31850171157379775,-1.9834132193090959,-1.1722577902184061,-1.7322124669475805
0.19825385349011027,-0.5595396433144137,0.43110959611185423,0.28227385722104326,2.187560496411493,-1.5007594782098919,0.9244811241146745,2.2863888519346323,1.7302153619074343,1.1715799222101073,-0.2525352611014359
0.22246641379213172,0.42078971740798354,0.0529071167303195,0.24376420034761448,2.6788570510744263,-1.0001116503974008,0.7499884949915209,0.19456412943045445,-1.5498287788308225,-1.1987584185820774,-1.5326246428844152
-0.18168841669242664,-0.7001538436812883,-0.004673833260751048,0.10250999765423231,0.1719243967723513,-0.7777888870811427,1.4004511322583206,0.6766355099756214,1.9020019860414628,-0.852581396914903,-0.6928449256987527
0.3827224020561535,0.04713698057860771,0.8006677038505181,0.32011888028774604,1.8541997957798997,-1.4198255153351194,-2.154677691669255,2.2514191274282056,-0.9360254153875224,1.393646582088252,-1.7740589343955957
0.5673315563601145,-0.1087892447068971,0.2705904118474395,0.019469812681107933,2.3682965009059993,0.8995681541640334,0.5046703075568726,1.9939061396563733,0.813307874504645,-1.1594443800521632,1.848323588271453
0.5488769061511221,0.4236322131768864,0.9152399043427171,0.19336916198630916,2.67888573859302,0.920242994686501,-2.1726671185637936,-0.3227052828976297,-0.8813282814647224,-1.1004422420687698,-1.3604682931857712
0.5959616229199448,-0.3698190556682094,0.1915608674370357,0.13332188200802975,2.493040770395356,-1.406512463921293,1.2261079137645552,1.8078644806319357,-0.733439572776337,-0.8115354321637385,0.4159399434735538
0.4397730085216367,0.14310528920951526,1.0483718878193584,0.029947639377611322,2.238017436186238,0.8904979187419415,1.0210772508844894,-0.32376541277692494,0.22583760659484692,-0.566725359303657,2.0481233413665794
0.3352293575356509,-0.57455422804447,0.4729013836020845,0.019899942137774677,0.23580481824348803,-1.0015308941020349,-2.380088024681014,2.286404768352183,0.19086545124302012,0.9960078799370816,-1.7066893935705751
0.29894024253732293,-0.42629864748327595,0.760760410179444,0.30768632098581394,2.2022410343192114,-1.2319148473860102,1.199518200688454,2.283981109606247,1.4545327139698014,-0.5186524853179514,-0.9470221666108298
0.6352660812535948,-0.25650411595067335,0.5358088249531843,0.33278601610758635,0.4009247487455855,-1.1059734928669005,-1.531988567355609,2.0263926162628003,-1.8126070159257037,-0.6717386606432375,0.7784613064855359
-0.21040195485819202,-0.4633572806063514,0.5720743188990429,0.22366643670059153,0.06988714904874106,0.8127943047188916,1.1924964172962527,2.1339843310649362,0.8781433767739495,0.10315641055095019,1.8169112271108474
0.2825718447881563,0.3328771363986964,0.9288923446283671,0.34130895904672504,2.459006691752176,-1.078697977534266,-2.669760213582895,2.0581300618074,2.0743189809074627,-0.5303113231382153,0.16038241558058985
0.5189564196931546,0.2652730104543848,0.41116122694216756,0.028656892014178523,2.0519701359519327,-1.012532728436234,-2.977572937234899,2.0773827964695157,1.8974138437983776,0.9013642592009705,-0.42921314089138385
