thanhndv212/figaroh-plus/examples/tiago/data/calibration/mocap/vicon/relative_encoder/vicon_calibration_gripper_shoulder.csv
x1,y1,z1,torso_lift_joint,arm_1_joint,arm_2_joint,arm_3_joint,arm_4_joint,arm_5_joint,arm_6_joint,arm_7_joint
1.0702012691614518,0.21571600527518753,-0.16717582017183097,0.2964449867997999,1.6100897469779418,-0.9300320316864583,-3.1396336402378195,1.8302934632993562,-1.5770112822143945,-0.6199671562740432,-1.5768691477757302
0.4785266743978791,0.5626702899524099,0.352045187927271,0.2821954582383966,2.6702244350692617,0.984242410642356,-2.6979802103563113,-0.313312305312992,1.880306689010508,-1.3144844769001118,1.619247358398952
0.8028765154640725,-0.37437176683729695,0.03051761697223143,0.3279561186812292,0.23444867565739247,0.9215967442853726,-0.7594108072836819,1.0680294373733963,-1.8609167078511142,-0.1962817392629047,-0.6107072033161716
0.6956815308451298,0.5554644483347828,0.5387103715347629,0.019709041870855117,2.3643966000279866,0.9320776311408492,-0.4907716072592933,-0.32330687969061944,1.7726707792492682,-0.19574572335525356,-0.996169726514788
-0.042069562862314225,0.5499338971601854,-0.8076771465610477,0.3476137775923728,2.599564039277105,-1.310683810800983,-1.2173269936387847,1.202360621433886,1.1377949502448073,0.508510900065955,-1.7690330457054995
0.4782230906591567,-0.02034302748870409,-0.2704618046501197,0.04600219798280307,0.6077026624839226,0.7884776236663386,0.01702173936791406,2.286910804191968,-1.2983637549445728,1.3866515510282493,-1.6700293454411879
0.8256326092637921,-0.27871255166790143,-0.6550134983501207,0.10289915716012175,0.5705103831022555,-0.8715939830000681,0.7429554794566241,-0.31842276112046775,-1.9834080352052206,-1.1722228993353105,-1.7321923085514357
0.47004663211653874,-0.10462211745973204,-0.4034466526739401,0.282273834503913,2.1875586000715748,-1.5008505550193834,0.924475354475993,2.2863612932132513,1.7302304149256351,1.1715783329702436,-0.2525291401361317
0.4951691907856077,0.6611075801986029,-0.8431484991086076,0.24373879223180903,2.67880579277277,-1.000108636080744,0.7499885594980643,0.19457474143038261,-1.5498287461844256,-1.1987542145305359,-1.5326330936797445
0.09404174795314124,-0.4312647270553299,-0.6518068356223223,0.10250996758187493,0.1719162475106698,-0.7777726285159023,1.4004389331359646,0.6766373267371052,1.9019988759829871,-0.8525824710413875,-0.692843923413023
0.517978033176828,0.37169397538998283,-0.2364472203507616,0.3201587524563738,1.8541780755507746,-1.4199731575779257,-2.1548535838880927,2.2513462934367405,-0.9361425610987973,1.39375499037734,-1.7742503103756788
0.6752001622070515,0.2863865154235984,-0.23663762042400938,0.01947415273719517,2.368299740864555,0.8994447016407485,0.5046606936985083,1.9940329007345692,0.8133079071479884,-1.1594660083057664,1.8483292528646242
0.7108103777052384,0.718365028192846,0.267606847189201,0.1931877842692286,2.6788839644724,0.9202172424818462,-2.172676944045707,-0.3227525525088056,-0.8813288150450705,-1.100440884478821,-1.3604699712901929
0.6547271703278772,-0.0071688147471205,-0.5787672009100637,0.13323962129298328,2.4931411107710493,-1.4067637285824308,1.2263722393478673,1.808007186438532,-0.7335633385357451,-0.8114552427627241,0.4161356476640644
0.6246512997387875,0.5742126852027682,0.5399995338033958,0.0299578296367023,2.2380235316785937,0.890663948670796,1.0211988117416522,-0.3238321475489849,0.2258875347852053,-0.5667751223179889,2.048342930008572
0.5776625193580842,-0.26931734252232287,-0.015538950065754897,0.01989992877248512,0.23580151350616904,-1.0016010855539565,-2.380058813970091,2.286412898467257,0.19087564660380843,0.9960078667411869,-1.706689512815565
0.5474213387277668,-0.08418265713834039,-0.26324308979155164,0.3076678974664953,2.2021789833617236,-1.2319194928007204,1.1995726739683004,2.283991349333392,1.4545295704879266,-0.5186763665833538,-0.9470336779805517
0.9062174820629251,0.19927686629410923,-0.3936394725824205,0.33280168260223403,0.400914488395451,-1.1060497722170937,-1.5321502128220303,2.026433837731243,-1.8126918235149678,-0.671756917357691,0.7784804397951824
-0.11109236615654372,-0.20584948759097232,-0.3003124807749239,0.22389311349359226,0.06975928185027652,0.8129971386911685,1.1928645475604533,2.134051519733601,0.8782231748965033,0.10323112570683744,1.8170520323347017
0.3830323328452443,0.6401746032442573,-0.0956588561705638,0.341219151202059,2.4589705822872268,-1.0787023267604816,-2.6697246087225457,2.0581234539277364,2.074315103033371,-0.5302887652864149,0.16039260004770195
0.8561560110936206,0.6173422548301909,-0.1544752628012579,0.028730070862679587,2.051969098236593,-1.0124449680743954,-2.977573021030267,2.077336615110971,1.8974195231469937,0.9013762661411526,-0.42920945691626955
