thanhndv212/figaroh-plus/examples/tiago/data/calibration/mocap/vicon/relative_encoder/vicon_calibration_fc10_gripper3_base2.csv
x1,y1,z1,torso_lift_joint,arm_1_joint,arm_2_joint,arm_3_joint,arm_4_joint,arm_5_joint,arm_6_joint,arm_7_joint
0.8669419124390705,-0.11222869056870788,0.7602244082099496,0.29642688252543936,1.610084845793362,-0.9300979551042644,-3.13980162417975,1.8306198517825214,-1.57701571762823,-0.6199674382823896,-1.5768677851512432
0.280047200929568,0.230486557946739,1.3334137087370592,0.2821956663459985,2.6702338456663797,0.9842415177415993,-2.6979858493667632,-0.3133479765143019,1.880312692952785,-1.3144825508136482,1.619245238225717
0.6879490579947345,-0.8011733083250616,0.9867917296534295,0.3279380999296154,0.23475213802527212,0.9215929512572989,-0.7595091595132869,1.0678567174505094,-1.8605369403971705,-0.19631228950017285,-0.6106143756792543
0.5172849089391883,0.1742977162708268,1.150367171682236,0.019743557745099994,2.3642910669602433,0.9319320778274962,-0.4908062813732878,-0.32325329598042707,1.7724989061344127,-0.1957075549224743,-0.9961969721872179
-0.20182200883314017,0.21594635037436039,0.12261368507748788,0.3476034373289581,2.599492190720513,-1.3105652905274576,-1.2173109720882433,1.2023672616378112,1.13776164920971,0.5084962703962879,-1.7689922619228
0.2564206813448106,-0.2849912625442448,0.2946989631863578,0.04601613574165699,0.6077869029758327,0.7883238609286964,0.017006012558163554,2.286819145020242,-1.2982480635495561,1.386523389522903,-1.6700500048704094
0.7342767555301103,-0.5521857448941223,0.06684017503900125,0.10290101989814217,0.5705085397544543,-0.871694502980727,0.7431259298214129,-0.31850171157379775,-1.9834132193090959,-1.1722577902184061,-1.7322124669475805
0.24749543543557162,-0.5482405109364469,0.42419800195563845,0.28227385722104326,2.187560496411493,-1.5007594782098919,0.9244811241146745,2.2863888519346323,1.7302153619074343,1.1715799222101073,-0.2525352611014359
0.24103743714358727,0.41448409977372025,0.007045578980751699,0.24376420034761448,2.6788570510744263,-1.0001116503974008,0.7499884949915209,0.19456412943045445,-1.5498287788308225,-1.1987584185820774,-1.5326246428844152
-0.18033525636555692,-0.7489067833597316,0.007043397339214497,0.10250999765423231,0.1719243967723513,-0.7777888870811427,1.4004511322583206,0.6766355099756214,1.9020019860414628,-0.852581396914903,-0.6928449256987527
0.36910417649265936,0.0069301033032029835,0.7748017962263851,0.32011888028774604,1.8541997957798997,-1.4198255153351194,-2.154677691669255,2.2514191274282056,-0.9360254153875224,1.393646582088252,-1.7740589343955957
0.5291194424820341,-0.12660949338909178,0.29830734626792865,0.019469812681107933,2.3682965009059993,0.8995681541640334,0.5046703075568726,1.9939061396563733,0.813307874504645,-1.1594443800521632,1.848323588271453
0.5662372314238749,0.4307393352313216,0.961073495244035,0.19336916198630916,2.67888573859302,0.920242994686501,-2.1726671185637936,-0.3227052828976297,-0.8813282814647224,-1.1004422420687698,-1.3604682931857712
0.5741854329346744,-0.37448098426486065,0.14651241534678217,0.13332188200802975,2.493040770395356,-1.406512463921293,1.2261079137645552,1.8078644806319357,-0.733439572776337,-0.8115354321637385,0.4159399434735538
0.44069609866496506,0.189359129293444,1.152005335016843,0.029947639377611322,2.238017436186238,0.8904979187419415,1.0210772508844894,-0.32376541277692494,0.22583760659484692,-0.566725359303657,2.0481233413665794
0.3614887007917936,-0.6286265255092969,0.5690634217823847,0.019899942137774677,0.23580481824348803,-1.0015308941020349,-2.380088024681014,2.286404768352183,0.19086545124302012,0.9960078799370816,-1.7066893935705751
0.33400127912453476,-0.4545396653474433,0.7404505296444622,0.30768632098581394,2.2022410343192114,-1.2319148473860102,1.199518200688454,2.283981109606247,1.4545327139698014,-0.5186524853179514,-0.9470221666108298
0.724628845810021,-0.187407331424974,0.524030843991713,0.33278601610758635,0.4009247487455855,-1.1059734928669005,-1.531988567355609,2.0263926162628003,-1.8126070159257037,-0.6717386606432375,0.7784613064855359
-0.28924287732305354,-0.5189197590734911,0.5121044003694903,0.22366643670059153,0.06988714904874106,0.8127943047188916,1.1924964172962527,2.1339843310649362,0.8781433767739495,0.10315641055095019,1.8169112271108474
0.23416064642997653,0.32110883643845645,0.930652321619401,0.34130895904672504,2.459006691752176,-1.078697977534266,-2.669760213582895,2.0581300618074,2.0743189809074627,-0.5303113231382153,0.16038241558058985
0.6175441442618799,0.31373708285317403,0.4401945673676782,0.028656892014178523,2.0519701359519327,-1.012532728436234,-2.977572937234899,2.0773827964695157,1.8974138437983776,0.9013642592009705,-0.42921314089138385
