thanhndv212/figaroh-plus/examples/tiago/data/identification/tiago_velocity.csv
t,- torso_lift_joint_velocity,- arm_1_joint_velocity,- arm_2_joint_velocity,- arm_3_joint_velocity,- arm_4_joint_velocity,- arm_5_joint_velocity,- arm_6_joint_velocity,- arm_7_joint_velocity
0.0,7.713603758928901e-08,5.667211488324872e-07,-6.160841877411023e-05,-2.715852180364284e-09,-9.333929388322751e-07,-5.0293228134673995e-05,4.9564074118612915e-05,-7.98199715538969e-05
0.010879278182983398,7.327923570982456e-08,5.383850913908628e-07,-0.00012923118685851997,-2.5800595713460696e-09,-8.867232918906613e-07,-4.7778566727940295e-05,0.00011021344107539192,-1.2701402313492402e-05
0.020119190216064453,6.961527392433334e-08,5.114658368213197e-07,-0.00012276962751559396,-2.451056592778766e-09,-8.423871272961282e-07,-4.538963839154328e-05,8.007925746602715e-05,1.2557179357777377e-05
0.030049562454223633,6.613451022811667e-08,4.858925449802537e-07,-0.00011663114613981425,-2.3285037631398277e-09,-8.002677709313218e-07,-4.3120156471966115e-05,-1.5866057746742372e-05,5.7899996559620405e-05
0.041031837463378906,6.282778471671082e-08,4.6159791773124097e-07,-0.00011079958883282353,-2.212078574982836e-09,-7.602543823847557e-07,-4.096414864836781e-05,-0.00013998090647303883,0.00013827709780739116
0.05031299591064453,5.968639548087528e-08,4.385180218446789e-07,-0.00018801270772971643,-2.101474646233694e-09,-7.222416632655178e-07,1.0341639524989844e-05,-8.372428040844294e-05,-0.00011492466078775427
0.06014227867126465,5.670207570683151e-08,4.1659212075244495e-07,-0.00017861207234323058,-1.9964009139220094e-09,-6.861295801022419e-07,0.00010240801184681854,0.00012877470578263759,-0.00027119947276998583
0.07042145729064941,5.386697192148993e-08,3.957625147148227e-07,-0.00016968146872606906,-1.896580868225909e-09,-6.518231010971298e-07,5.2929290012861105e-05,0.0002110526129767387,-0.00016892285664825353
0.08059215545654297,5.1173623325415435e-08,3.7597438897908155e-07,-0.0002366786487008941,-1.8017518248146134e-09,-6.192319460422733e-07,-3.9575415664846455e-05,0.000200499982327906,-0.00011554759322730431
0.09006977081298828,4.861494215914466e-08,3.5717566953012747e-07,-0.0003057566775324501,-1.7116642335738827e-09,-5.882703487401596e-07,-3.759664488160413e-05,7.007080666049563e-05,1.0633962985075983e-05
0.10036802291870117,4.618419505118743e-08,3.393168860536211e-07,-0.0004394043039839155,-1.6260810218951885e-09,-5.588568313031516e-07,-3.571681263752392e-05,-6.6410240429504e-05,9.875393600713596e-05
0.11013364791870117,4.3874985298628056e-08,3.2235104175094e-07,-0.0004961521620695325,-1.544776970800429e-09,-5.30913989737994e-07,-3.393097200564772e-05,-0.00013337341436871086,2.3532553246097092e-05
0.12008881568908691,4.168123603369665e-08,3.06233489663393e-07,-0.0006247849762811647,-1.4675381222604075e-09,-5.043682902510943e-07,-3.223442340536533e-05,-3.5371559239534277e-05,-0.0002516436276483876
0.12996196746826172,3.9597174232011817e-08,2.9092181518022334e-07,-0.0006711947877451904,-1.394161216147387e-09,-4.791498757385395e-07,1.5596773928307885e-05,0.00010505544721268801,-0.00019284197010255885
0.14106321334838867,3.761731552041122e-08,2.7637572442121216e-07,-0.0007761954658633639,-1.3244531553400176e-09,-4.5519238195161255e-07,9.729301274220031e-05,0.00016165973298478447,-8.010477470954611e-05
0.15111637115478516,3.573644974439066e-08,2.6255693820015156e-07,-0.0008899312610662045,-1.2582304975730166e-09,-4.324327628540319e-07,-4.377244138858916e-05,6.277621067308942e-05,1.4700999688387035e-05
0.16009211540222168,3.394962725717112e-08,2.4942909129014395e-07,-0.0009305294923877257,-1.1953189726943656e-09,-4.108111247113303e-07,-4.1583819319159696e-05,-9.231692382095046e-05,0.00016592027366435307
0.17006802558898926,3.2252145894312566e-08,2.3695763672563674e-07,-0.0008840030177683394,-1.1355530240596472e-09,-3.9027056847576375e-07,-3.950462835320171e-05,-6.481389093268297e-05,4.318832649500088e-05
0.18054986000061035,3.0639538599596935e-08,2.2510975488935489e-07,-0.0009130276602974511,-1.0787753728566649e-09,-3.7075704005197556e-07,-3.7529396935541625e-05,4.7391792430688106e-05,-0.00019869406522658527
0.19016313552856445,2.9107561669617086e-08,2.1385426714488712e-07,-0.0008673762772825785,-1.0248366042138316e-09,-3.5221918804937676e-07,-3.565292708876454e-05,2.1283468166103086e-05,-0.00021249809660830662
0.20069551467895508,2.7652183586136232e-08,2.0316155378764275e-07,-0.0008240074634184495,-9.7359477400314e-10,-3.346082286469079e-07,-3.387028073432631e-05,0.00012847255464691984,-9.361993188876938e-05
0.2103104591369629,2.6269574406829418e-08,1.9300347609826062e-07,-0.0008626496212789578,-9.24915035302983e-10,-3.178778172145625e-07,6.287344889077872e-05,2.699871132617609e-05,5.363638808827022e-05
0.22025513648986816,2.4956095686487946e-08,1.8335330229334757e-07,-0.0008195171402150099,-8.786692835378338e-10,-3.0198392635383436e-07,0.00015139090051529495,-8.892762932644297e-05,0.00016553097377016695
0.22990036010742188,2.370829090216355e-08,1.7418563717868017e-07,-0.0007785412832042594,-8.347358193609421e-10,-2.868847300361426e-07,-4.538672817301902e-05,-3.7179226944483514e-05,6.26503832503795e-05
0.24071931838989258,2.252287635705537e-08,1.6547635531974616e-07,-0.0007396142190440464,-7.92999028392895e-10,-2.7254049353433545e-07,-4.311739176436807e-05,-1.4183820036953465e-05,-4.616436371368494e-05
0.25112247467041016,2.13967325392026e-08,1.5720253755375885e-07,-0.0007026335080918441,-7.533490769732502e-10,-2.5891346885761865e-07,-4.096152217614967e-05,-0.00010123361807565158,-0.00013161513456854648
0.2601892948150635,2.0326895912242467e-08,1.493424106760709e-07,-0.0006675018326872519,-7.156816231245876e-10,-2.459677954147377e-07,-3.891344606734218e-05,-4.5804373054460936e-05,2.6068314512105035e-05
0.27008843421936035,1.931055111663034e-08,1.4187529014226735e-07,-0.0006341267410528892,-6.798975419683583e-10,-2.3366940564400078e-07,-3.6967773763975066e-05,-6.652165151642891e-05,0.00013980238435998981
0.28042054176330566,1.8345023560798823e-08,1.3478152563515397e-07,-0.0006024204040002447,-6.459026648699403e-10,-2.2198593536180072e-07,-3.511938507577631e-05,-4.106017915861496e-05,0.0001549476549239828
0.2913377285003662,1.7427772382758882e-08,1.2804244935339627e-07,-0.0005722993838002324,-6.136075316264432e-10,-2.1088663859371068e-07,9.176117020967729e-05,6.52633181590378e-05,1.2215884741681113e-06
0.3011150360107422,1.6556383763620937e-08,1.2164032688572646e-07,-0.0005436844146102208,-5.829271550451211e-10,-2.0034230666402513e-07,-6.207007744959354e-06,3.865512239005215e-05,2.4505538911493464e-05
0.3109922409057617,1.572856457543989e-08,7.783339227870506e-05,-0.0005165001938797097,-5.53780797292865e-10,-1.9032519133082387e-07,-5.2157070061982646e-05,-5.579845913802813e-05,2.3280261965918786e-05
0.32114505767822266,1.4942136346667897e-08,7.39417226647698e-05,-0.0004906751841857243,-5.260917574282217e-10,-1.8080893176428267e-07,-4.954921655888351e-05,-0.0002102579048561879,-3.4794665739564976e-07
0.32987070083618164,1.4195029529334501e-08,7.02446365315313e-05,-0.00046614142497643804,-4.997871695568106e-10,-1.7176848517606852e-07,-4.707175573093933e-05,-0.00019974500961337355,0.00015637489534666804
0.3399665355682373,1.3485278052867775e-08,6.673240470495473e-05,-0.0004428343537276161,-4.747978110789701e-10,-1.631800609172651e-07,-4.471816794439236e-05,1.3382100793428632e-05,3.5700672842599535e-05
0.35053229331970215,1.2811014150224386e-08,6.339578446970699e-05,-0.0004206926360412353,-4.5105792052502154e-10,-1.5502105787140184e-07,-4.248225954717274e-05,0.0001862729706237106,-5.286434823450097e-05
0.3599202632904053,1.2170463442713166e-08,6.022599524622164e-05,-0.0003996580042391735,-4.2850502449877044e-10,-1.4727000497783173e-07,8.128294780166017e-06,0.0001527161014175258,-7.446435149777519e-05
0.36995530128479004,1.1561940270577507e-08,5.721469548391055e-05,-0.00037967510402721485,-4.070797732738319e-10,-1.3990650472894013e-07,0.00014412805202549097,9.961157235187606e-05,-2.5272409928112998e-05
0.3807048797607422,1.098384325704863e-08,5.435396070971502e-05,-0.0004321313963339939,-3.8672578461014027e-10,-1.3291117949249312e-07,-3.31729562846371e-05,-5.420178626096659e-05,8.23003391363241e-05
0.39087772369384766,1.0434651094196198e-08,5.163626267422927e-05,-0.00041052482651729417,-3.6738949537963323e-10,-1.2626562051786845e-07,-3.151430847040525e-05,-0.00016362411057754974,5.575883945357648e-05
0.4006309509277344,9.912918539486388e-09,4.90544495405178e-05,-0.00038999858519142946,-3.4902002061065155e-10,-1.1995233949197503e-07,-2.9938593046884984e-05,-1.5240197382198635e-05,-8.723181018557597e-05
0.40996742248535156,9.417272612512068e-09,4.660172706349191e-05,-0.00037049865593185796,-3.3156901958011894e-10,-1.1395472251737627e-07,-2.8441663394540735e-05,3.443917146357568e-05,1.4964498277017656e-05
0.42023611068725586,8.946408981886464e-09,4.427164071031731e-05,-0.00035197372313526505,-3.1499056860111296e-10,-1.0825698639150746e-07,-2.7019580224813698e-05,5.493358489410221e-05,8.086538937428271e-05
0.42992734909057617,8.49908853279214e-09,4.2058058674801443e-05,-0.0003343750369785018,-2.992410401710573e-10,-1.0284413707193209e-07,-2.566860121357301e-05,-1.845742482260673e-05,0.00014746645037757238
0.44024229049682617,8.074134106152533e-09,3.995515574106137e-05,-0.00031765628512957667,-2.842789881625044e-10,-9.770193021833548e-08,6.413064670199742e-05,-0.00010605037143637659,0.00018435103678613967
0.45038938522338867,7.670427400844906e-09,3.79573979540083e-05,-0.0003017734708730978,-2.700650387543792e-10,-7.569512803317449e-05,0.00010592529284696303,3.425568257562582e-05,-4.87122897341638e-06
0.46027255058288574,7.286906030802661e-09,3.605952805630788e-05,-0.0002866847973294429,-2.565617868166602e-10,-7.191037163151576e-05,-3.8094803310115806e-05,-5.9939655896320976e-05,-9.711022186791107e-05
0.4701049327850342,6.922560729262527e-09,3.4256551653492484e-05,-0.0002723505574629708,-2.4373369747582717e-10,-6.831485304993997e-05,-3.6190063144610015e-05,-5.6942673101504924e-05,-4.592368216522383e-05
0.4807741641998291,6.5764326927994005e-09,3.254372407081786e-05,-0.0002587330295898222,-2.315470126020358e-10,-6.489911039744297e-05,-3.438055998737951e-05,-3.2599285401818834e-05,6.385377216606712e-05
0.49066591262817383,6.24761105815943e-09,3.091653786727696e-05,-0.0002457963781103311,-2.19969661971934e-10,-6.165415487757081e-05,-3.266153198801053e-05,-7.706334487991382e-05,0.00019894315480233903
0.499967098236084,5.9352305052514584e-09,2.9370710973913113e-05,-0.0002335065592048145,-2.089711788733373e-10,-5.857144713369227e-05,-3.102845538861e-05,2.4415585939544093e-05,4.2557351699021786e-05
0.5099642276763916,5.638468979988885e-09,2.7902175425217455e-05,-0.00022183123124457378,-1.985226199296704e-10,-5.5642874777007654e-05,1.629075127875716e-05,6.896259054052094e-05,-5.338299783883348e-06
0.5203018188476562,5.35654553098944e-09,2.650706665395658e-05,-0.00021073966968234508,-1.8859648893318687e-10,-5.286073103815727e-05,0.00010381683322226885,6.551446101349487e-05,-5.071384794689181e-06
0.5300493240356445,5.088718254439968e-09,2.5181713321258752e-05,-0.00020020268619822782,-1.7916666448652753e-10,-5.02176944862494e-05,5.1027785958287125e-06,-5.4665278243833795e-05,1.856298768637251e-05
0.5399167537689209,4.834282341717969e-09,2.392262765519581e-05,-0.0001901925518883164,-1.7020833126220113e-10,-4.770680976193693e-05,-4.133342467716028e-05,-0.00021356573953289055,-5.4556938695580505e-06
0.5505051612854004,4.59256822463207e-09,2.272649627243602e-05,-0.00018068292429390057,-1.6169791469909107e-10,-4.532146927384008e-05,-3.926675344330226e-05,-0.00013798834675420648,1.6450126091266348e-05
0.5606350898742676,4.362939813400466e-09,2.159017145881422e-05,-0.00017164877807920555,-1.5361301896413652e-10,-4.305539581014807e-05,-3.730341577113715e-05,4.858882879127502e-05,-2.929181976523337e-05
0.5700187683105469,4.144792822730443e-09,2.0510662885873507e-05,-0.00016306633917524528,-1.459323680159297e-10,-4.090262601964067e-05,-3.543824498258029e-05,9.487229107898405e-05,2.0885674950301074e-05
0.5802145004272461,3.93755318159392e-09,1.948512974157983e-05,-0.000154913022216483,-1.386357496151332e-10,-3.8857494718658635e-05,-3.366633273345128e-05,2.3007227514760644e-05,4.221520753954408e-05
0.5905115604400635,3.7406755225142244e-09,1.8510873254500836e-05,-0.00014716737110565884,-1.3170396213437652e-10,-3.69146199827257e-05,5.6563565998319936e-05,-2.2416424908530924e-05,8.43777382101204e-05
0.6000204086303711,3.553641746388513e-09,1.7585329591775793e-05,-0.0001398090025503759,-1.2511876402765768e-10,-3.5068888983589417e-05,0.00014974701727255273,-0.00014131014063077665,0.00020017338826728667
0.6099441051483154,3.3759596590690873e-09,1.6706063112187e-05,-0.0001328185524228571,-1.1886282582627478e-10,-3.331544453440994e-05,-4.158514469229787e-05,-1.934162666098003e-05,-6.26218964102658e-05
0.6210618019104004,3.207161676115633e-09,1.587075995657765e-05,-0.00012617762480171424,-1.1291968453496104e-10,-3.164967230768944e-05,-3.950588745768298e-05,-8.002129937793488e-05,-0.00016223539167310266
0.6311628818511963,3.0468035923098513e-09,1.5077221958748767e-05,-0.00011986874356162853,-1.0727370030821299e-10,-3.0067188692304967e-05,-3.753059308479883e-05,1.4354571654248229e-05,-1.8561412994509394e-05
0.6399190425872803,2.8944634126943585e-09,1.4323360860811329e-05,-0.00011387530638354709,-1.0191001529280233e-10,-2.856382925768972e-05,-3.565406343055889e-05,6.571042994816396e-05,8.651383140847239e-05
0.6504435539245605,2.7497402420596403e-09,1.3607192817770761e-05,-0.00010818154106436973,-9.681451452816221e-11,-2.713563779480523e-05,-3.387136025903094e-05,-2.67386669127347e-06,0.00014728691498007798
0.6613504886627197,2.6122532299566583e-09,1.2926833176882223e-05,-0.00010277246401115124,-9.19737888017541e-11,-2.577885590506497e-05,-3.2177792246079395e-05,-4.446729674172907e-05,0.00018184969261609337
0.6707923412322998,2.481640568458825e-09,1.2280491518038111e-05,-9.763384081059367e-05,-8.737509936166639e-11,-2.448991310981172e-05,0.00011407087367792427,7.828921502177536e-05,-4.4202456482274636e-05
0.6809613704681396,2.357558540035884e-09,1.1666466942136205e-05,-9.275214877006399e-05,-8.300634439358307e-11,-2.3265417454321133e-05,6.337007677606664e-05,2.9377501052725162e-05,-8.698958687612233e-05
0.6908464431762695,2.2396806130340897e-09,1.1083143595029395e-05,-8.811454133156078e-05,-7.885602717390392e-11,-2.2102146581605075e-05,-7.790285977863783e-05,-4.1143590357870413e-05,-0.0001056575129849693
0.7000160217285156,2.1276965823823853e-09,1.0528986415277925e-05,-8.370881426498274e-05,-7.491322581520872e-11,-2.099703925252482e-05,-7.400771678970593e-05,1.0687731704487535e-05,4.894779029765357e-05
0.7099337577819824,2.021311753263266e-09,1.0002537094514027e-05,-7.95233735517336e-05,-7.116756452444828e-11,-1.9947187289898577e-05,-7.030733095022063e-05,-1.284994857626563e-05,0.00016151686926043233
0.7208819389343262,1.9202461656001026e-09,9.502410239788325e-06,-7.554720487414692e-05,-6.760918629822586e-11,-1.8949827925403647e-05,-2.5018690758492374e-05,8.679185674656263e-06,0.00013255438897530211
0.7301297187805176,1.8242338573200974e-09,9.027289727798908e-06,-7.176984463043957e-05,-6.422872698331457e-11,-1.8002336529133463e-05,-2.3767756220567755e-05,0.00010677884324141468,-2.1873755749204563e-05
0.7399523258209229,1.7330221644540925e-09,8.575925241408963e-06,-6.818135239891759e-05,-6.101729063414884e-11,-1.710221970267679e-05,2.3891667518043833e-05,0.00010143990107934394,-2.0780067961744333e-05
0.7504258155822754,1.6463710562313878e-09,8.147128979338515e-06,-6.477228477897171e-05,-5.7966426102441394e-11,-1.624710871754295e-05,0.00010995551222195569,-1.2705129074390825e-05,-4.1555671583610634e-05
0.7604963779449463,0.000194099399171043,7.73977253037159e-06,-6.153367054002312e-05,-5.506810479731932e-11,-1.5434753281665802e-05,-3.153728959473722e-05,-0.0001480648988262621,-8.480956340628797e-05
0.7700724601745605,0.00018439442921249082,7.3527839038530095e-06,-5.845698701302196e-05,-5.2314699557453355e-11,-1.466301561758251e-05,-2.996042511500036e-05,-9.301216478260734e-05,6.237938207106948e-05
0.7799181938171387,0.00017517470775186628,6.985144708660359e-06,-5.553413766237086e-05,-4.969896457958068e-11,-1.3929864836703384e-05,-2.846240385925034e-05,0.00011993869104162745,-1.0173002894179598e-05
0.7901313304901123,0.00016641597236427297,6.63588747322734e-06,-5.275743077925232e-05,-4.721401635060164e-11,-1.3233371594868213e-05,-2.703928366628782e-05,0.00013639209734710704,1.2785988108090338e-05
0.7999753952026367,0.0001580951737460593,6.304093099565973e-06,-5.01195592402897e-05,-4.4853315533071557e-11,-1.2571703015124802e-05,-2.568731948297343e-05,8.343264410277498e-05,1.2146688702685825e-05
0.8099045753479004,0.00015019041505875635,5.988888444587674e-06,-4.7613581278275215e-05,-4.2610649756417975e-11,-1.1943117864368561e-05,-2.4402953508824755e-05,3.328315982145252e-05,5.7517206343735235e-05
0.8200457096099854,0.00014268089430581854,5.689444022358291e-06,-4.523290221436145e-05,-4.0480117268597075e-11,-1.1345961971150133e-05,6.684978621732652e-05,-8.092173823302048e-05,0.00012216579006458527
0.8299901485443115,0.0001355468495905276,5.404971821240376e-06,-4.2971257103643374e-05,-3.845611140516722e-11,-1.0778663872592625e-05,0.0001552197016772269,-5.3947550128690856e-05,-9.0295410172856e-05
0.8404412269592285,0.0001287695071110012,5.134723230178357e-06,-4.0822694248461206e-05,-3.653330583490886e-11,-1.0239730678962993e-05,-2.7487688582885484e-05,1.4354729318844065e-05,-0.00010764894031124666
0.8498644828796387,0.00012233103175545115,4.877987068669439e-06,-3.878155953603814e-05,-3.4706640543163414e-11,-9.727744145014843e-06,-2.6113304153741207e-05,0.00011039516911116617,-5.508317037420014e-06
0.8603501319885254,0.00011621448016767859,4.634087715235966e-06,-3.684248155923623e-05,-3.297130851600524e-11,-9.2413569377641e-06,-2.4807638946054145e-05,8.307280689325552e-05,6.0174910101508e-05
0.8705308437347412,0.00011040375615929465,4.402383329474168e-06,-3.500035748127442e-05,-3.132274309020498e-11,-8.779289090875894e-06,-2.3567256998751436e-05,1.1468034382516493e-05,0.00012461729676250884
0.880042314529419,0.00010488356835132991,4.182264163000459e-06,-3.3250339607210695e-05,-2.975660593569473e-11,-8.340324636332098e-06,-2.2388894148813862e-05,-0.0001566591517159687,0.00019019519665838933
0.8899710178375244,9.963938993376342e-05,3.973150954850436e-06,-3.158782262685016e-05,-2.8268775638909992e-11,-7.923308404515493e-06,-2.126944944137317e-05,-1.1106920737348552e-05,-4.884668549591125e-05
0.9000439643859863,9.465742043707525e-05,3.7744934071079145e-06,-3.0008431495507647e-05,-2.6855336856964492e-11,-7.527142984289718e-06,7.039820495349252e-05,-3.3202620181184685e-05,-0.0001596595786246335
0.9101138114929199,8.992454941522148e-05,3.5857687367525186e-06,-2.8508009920732264e-05,-2.5512570014116265e-11,-7.1507858350752315e-06,0.00011229041229554356,3.657568721246305e-05,-3.814630571908763e-05
0.9204258918762207,8.54283219444604e-05,3.4064802999148927e-06,-2.708260942469565e-05,-2.423694151341045e-11,-6.79324654332147e-06,-2.5754562280106506e-05,0.00010096212983228473,2.997623654731159e-05
0.9299745559692383,8.115690584723737e-05,3.236156284919148e-06,-2.5728478953460868e-05,-2.3025094437739927e-11,-6.453584216155396e-06,-2.446683416610118e-05,2.4092109298270222e-05,0.00010029933876234628
0.9400763511657715,7.70990605548755e-05,3.0743484706731902e-06,-2.4442055005787825e-05,-2.187383971585293e-11,-6.130905005347626e-06,-2.324349245779612e-05,-4.4892225448532906e-05,0.00016306410110611858
0.9501514434814453,7.324410752713172e-05,2.9206310471395306e-06,-2.3219952255498432e-05,-2.0780147730060283e-11,-5.824359755080245e-06,-2.2081317834906313e-05,4.789362433030905e-05,-7.144220021524495e-05
0.9600346088409424,6.958190215077513e-05,2.774599494782554e-06,-2.205895464272351e-05,-1.9741140343557267e-11,-5.533141767326232e-06,-2.0977251943160998e-05,-2.374007898019823e-05,-0.0001371091122984745
0.9710323810577393,6.610280704323637e-05,2.635869520043426e-06,-2.0956006910587334e-05,-1.8754083326379402e-11,-5.2564846789599205e-06,-1.9928389346002947e-05,-2.255307503118832e-05,-8.877862450925507e-05
0.9809925556182861,6.279766669107454e-05,2.5040760440412545e-06,-1.9908206565057966e-05,-1.781637916006043e-11,-4.993660445011924e-06,0.00011906996404439116,-2.1425421279624526e-05,5.366224063931475e-05
0.9908995628356934,5.965778335652081e-05,2.3788722418391917e-06,-1.8912796236805067e-05,-1.6925560202057408e-11,-4.743977422761328e-06,6.708279679608174e-05,-6.63878192617244e-05,0.00018908013574560982
1.0008056163787842,5.667489418869477e-05,2.259928629747232e-06,-1.7967156424964815e-05,-1.6079282191954538e-11,-4.506778551623262e-06,-2.8098540631207785e-05,9.762916747947878e-05,1.8928533180212362e-05
1.0104434490203857,5.3841149479260026e-05,2.14693219825987e-06,-1.7068798603716573e-05,-1.527531808235681e-11,-4.281439624042098e-06,-7.408902856426948e-05,9.274770910550484e-05,-2.941330844342034e-05
1.0210039615631104,5.1149092005297025e-05,2.0395855883468762e-06,-1.6215358673530742e-05,-1.4511552178238968e-11,-4.067367642839994e-06,-2.707141733114198e-05,6.645374374777258e-05,-4.9599222923706334e-05
1.0301513671875,4.8591637405032174e-05,1.937606308929532e-06,-1.5404590739854203e-05,-1.378597456932702e-11,-3.863999260697994e-06,-2.5717846464584882e-05,-0.00011124646342876182,-7.203033606169011e-05
1.0406618118286133,4.616205553478056e-05,1.8407259934830554e-06,-1.4634361202861492e-05,-1.3096675840860668e-11,-3.670799297663094e-06,-2.4431954141355637e-05,-0.00019249717168588537,-2.5022303544326846e-05
1.0507745742797852,4.385395275804153e-05,1.7486896938089026e-06,-1.3902643142718417e-05,-1.2441842048817634e-11,-3.4872593327799394e-06,2.221110894408975e-05,-6.931864965560392e-05,4.436100970048178e-05
1.0604634284973145,4.166125512013945e-05,1.6612552091184573e-06,-1.3207510985582495e-05,-1.1819749946376752e-11,-3.3128963661409423e-06,0.00016154654411854773,9.800093855244024e-05,-2.8080036095364635e-05
1.0700478553771973,3.9578192364132476e-05,1.5781924486625343e-06,-1.2547135436303369e-05,-1.1228762449057913e-11,-3.147251547833895e-06,1.0851537646302162e-05,0.00011687050483587126,-2.906421079543374e-06
1.0807995796203613,3.759928274592585e-05,1.4992828262294074e-06,-1.19197786644882e-05,-1.0667324326605017e-11,-2.9898889704422003e-06,-7.471753744036951e-05,6.851373049189134e-05,-2.761100025566195e-06
1.090318202972412,3.571931860862956e-05,1.4243186849179369e-06,-1.1323789731263789e-05,-1.0133958110274766e-11,-2.8403945219200903e-06,-7.098166056835103e-05,1.69569140289715e-05,4.550808491403738e-05
1.100482702255249,3.393335267819808e-05,1.35310275067204e-06,-1.0757600244700598e-05,-9.627260204761027e-12,-2.6983747958240856e-06,-2.2730752183795644e-05,-0.00011799640774088207,0.0001326363313806027
1.11000657081604,3.2236685044288176e-05,1.285447613138438e-06,-1.0219720232465568e-05,-9.145897194522976e-12,-2.5634560560328813e-06,-2.1594214574605863e-05,-6.416898697206926e-05,-0.00011363348709732553
1.120438575744629,3.0624850792073765e-05,1.221175232481516e-06,-9.70873422084229e-06,-8.688602334796826e-12,-2.435283253231237e-06,-2.0514503845875568e-05,7.043543671586642e-05,-0.00023934778708179145
1.1298842430114746,2.9093608252470076e-05,1.1601164708574402e-06,-9.223297509800175e-06,-8.254172218056985e-12,-2.313519090569675e-06,7.699337049362478e-05,0.00016339581402729798,-0.00013089824858047696
1.1401951313018799,2.7638927839846572e-05,1.1021106473145681e-06,-8.762132634310165e-06,-7.841463607154135e-12,-2.197843136041191e-06,0.000161718105304508,0.00017736962415982417,-5.792253364977976e-05
1.150557279586792,2.625698144785424e-05,1.0470051149488398e-06,-8.324026002594656e-06,-7.449390426796428e-12,-2.0879509792391313e-06,-2.3407381838775498e-05,5.7851404278044546e-05,5.562333170649765e-05
1.1602051258087158,2.4944132375461528e-05,9.946548592013978e-07,-7.907824702464923e-06,-7.076920905456606e-12,-1.983553430277175e-06,-6.927342525039734e-05,-0.00010966860969830642,0.0001704331963800609
1.1699237823486328,2.369692575668845e-05,9.449221162413279e-07,-7.512433467341676e-06,-6.723074860183776e-12,-1.8843757587633159e-06,-6.580975398787747e-05,-3.375444631755819e-05,-2.426840195897519e-06
1.1801860332489014,2.2512079468854024e-05,8.976760104292614e-07,-7.136811793974592e-06,-6.386921117174587e-12,-1.79015697082515e-06,-1.7947144782568085e-05,5.70775190101338e-05,-0.00026973822722157874
1.1906003952026367,2.1386475495411323e-05,8.527922099077983e-07,-6.779971204275862e-06,-6.067575061315857e-12,-1.7006491222838926e-06,-1.704978754343968e-05,0.00012004080997360815,-0.00019043414894651873
1.1998951435089111,2.0317151720640756e-05,8.101525994124083e-07,-6.440972644062069e-06,-5.764196308250064e-12,-1.615616666169698e-06,-1.6197298166267695e-05,0.0001629594726487317,-8.307103515159877e-05
1.209859848022461,1.930129413460872e-05,7.696449694417878e-07,-6.118924011858965e-06,-5.47598649283756e-12,-1.534835832861213e-06,7.614726280243475e-05,4.039312894079576e-05,8.126823471168375e-05
1.2215747833251953,1.833622942787828e-05,7.311627209696984e-07,-5.812977811266017e-06,-5.202187168195682e-12,-1.4580940412181522e-06,0.00011136919107507988,-7.871440174453352e-05,0.00019429269721438905
1.2299385070800781,1.7419417956484367e-05,6.946045849212134e-07,-5.522328920702716e-06,-4.942077809785898e-12,-1.3851893391572445e-06,-0.00011218940639233976,6.967620060309998e-06,-6.0660842799212e-05
1.2400763034820557,1.654844705866015e-05,6.598743556751528e-07,-5.24621247466758e-06,-4.694973919296603e-12,-1.3159298721993821e-06,-0.00010657993607272276,6.619239057294494e-06,-0.0001476791367693898
1.2500975131988525,1.572102470572714e-05,6.268806378913951e-07,-4.983901850934201e-06,-4.460225223331773e-12,-1.250133378589413e-06,-0.00010125093926908662,6.288277104429766e-06,-0.00014029517993092029
1.2612287998199463,1.4934973470440782e-05,5.955366059968253e-07,-4.73470675838749e-06,-4.237213962165184e-12,-1.1876267096599423e-06,-5.5127282533670724e-05,4.7034973021169846e-05,-1.0097091618489605e-05
1.2699339389801025,1.4188224796918742e-05,5.65759775696984e-07,-4.497971420468115e-06,-4.025353264056925e-12,-1.128245374176945e-06,-5.237091840698719e-05,-3.379363033905772e-05,0.00012120252081105662
1.280003309249878,1.3478813557072805e-05,5.374717869121347e-07,-4.273072849444709e-06,-3.8240856008540785e-12,-1.0718331054680977e-06,-4.420318988900908e-06,1.3228104675645e-05,6.981034127275395e-05
1.2908716201782227,1.2804872879219164e-05,5.10598197566528e-07,-4.0594192069724735e-06,-3.6328813208113744e-12,-1.0182414501946927e-06,7.977446077430193e-05,7.554702230217711e-05,-3.864738055807702e-05
1.2999582290649414,1.2164629235258205e-05,4.850682876882015e-07,-3.85644824662385e-06,-3.4512372547708056e-12,-9.67329377684958e-07,-7.490529376064229e-05,2.1539327354985517e-05,-8.69453553622559e-05
1.3099303245544434,1.1556397773495293e-05,4.6081487330379144e-07,-3.6636258342926574e-06,-3.2786753920322652e-12,-9.189629088007101e-07,-0.00011686804819695873,-7.095367726146086e-05,-8.25980875941431e-05
1.3204100131988525,1.0978577884820528e-05,4.3777412963860183e-07,-3.4804445425780244e-06,-3.1147416224306517e-12,-8.730147633606746e-07,-0.00011102464578711078,-0.00015478179677839792,-7.846818321444009e-05
1.3305943012237549,1.0429648990579501e-05,4.1588542315667173e-07,-3.306422315449123e-06,-2.959004541309119e-12,-8.293640251926408e-07,-6.064510230374938e-05,-0.00016945686253646815,0.00012718262631929552
1.3401801586151123,9.908166541050526e-06,3.950911519988381e-07,-3.1411011996766668e-06,-2.811054314243663e-12,-7.878958239330087e-07,-5.761284718856191e-05,5.38057682813345e-05,1.495835175016969e-06
1.3499469757080078,9.412758213998e-06,3.753365943988962e-07,-2.9840461396928335e-06,-2.67050159853148e-12,-7.485010327363582e-07,-5.473220482913381e-05,0.00021386427975256052,-0.00011482809935894046
1.3607096672058105,8.942120303298099e-06,3.5656976467895134e-07,-2.8348438327081917e-06,-2.536976518604906e-12,-7.110759810995402e-07,3.303688975104133e-05,0.00018191294468024882,-0.0001303448154756771
1.3701093196868896,8.495014288133193e-06,3.3874127644500374e-07,-2.693101641072782e-06,-2.4101276926746604e-12,-6.755221820445632e-07,0.00012851242897493278,0.00012425360559051922,-7.526388284617608e-05
1.3800806999206543,8.070263573726532e-06,3.218042126227535e-07,-2.558446559019143e-06,-2.2896213080409275e-12,-6.41746072942335e-07,-6.074038177307923e-05,-6.478626398828083e-05,1.9912905945765453e-05
1.3904833793640137,7.666750395040204e-06,3.057140019916158e-07,-2.4305242310681855e-06,-2.175140242638881e-12,-6.096587692952183e-07,-0.00010150072247464505,-0.0002148377100546152,-4.677877903684001e-05
1.3999502658843994,7.2834128752881935e-06,2.9042830189203503e-07,-2.308998019514776e-06,-2.066383230506937e-12,-5.791758308304573e-07,-9.642568635091279e-05,6.112843890366603e-05,-6.855113676278698e-05
1.4098925590515137,6.919242231523783e-06,2.7590688679743326e-07,-2.1935481185390375e-06,-1.96306406898159e-12,-5.502170392889345e-07,-4.5722286205805414e-05,5.807201695848273e-05,-6.512357992464763e-05
1.4204802513122559,6.573280119947594e-06,2.621115424575616e-07,-2.0838707126120856e-06,-1.8649108655325104e-12,-5.227061873244877e-07,-4.3436171895515145e-05,3.358538644962245e-05,-4.0284371267479104e-05
1.4304864406585693,6.244616113950214e-06,2.490059653346835e-07,-1.9796771769814813e-06,-1.7716653222558849e-12,-4.965708779582633e-07,-4.126436330073938e-05,-1.3715612570376258e-05,7.351576993412433e-06
1.4399728775024414,5.932385308252703e-06,2.365556670679493e-07,-1.880693318132407e-06,-1.6830820561430904e-12,-4.7174233406035005e-07,0.0001049798976812523,-0.00013318070095599246,0.00012713486715787686
1.449918270111084,5.6357660428400675e-06,2.2472788371455183e-07,-1.7866586522257867e-06,-1.5989279533359358e-12,-4.481552173573325e-07,5.383514796181117e-05,-8.062591107282305e-05,-6.280489554152233e-05
1.461026906967163,5.353977740698064e-06,2.1349148952882423e-07,-1.6973257196144973e-06,-1.5189815556691388e-12,-4.2574745648946587e-07,-7.26063941945608e-05,-1.4719723140037277e-05,-0.00012153954314359083
1.4709396362304688,5.08627885366316e-06,2.02816915052383e-07,-1.6124594336337722e-06,-1.4430324778856817e-12,-4.0446008366499254e-07,-6.897607448483276e-05,7.81598233533587e-05,-2.3319005650017175e-05
1.479928731918335,4.8319649109800015e-06,1.9267606929976383e-07,-1.5318364619520836e-06,-1.3708808539913977e-12,-3.842370794817429e-07,-6.552727076059111e-05,7.425183218569075e-05,7.896087004382202e-05
1.4902722835540771,4.5903666654310015e-06,1.8304226583477563e-07,-1.4552446388544794e-06,-1.3023368112918277e-12,-3.650252255076557e-07,-1.818522750370027e-05,2.6473560857549106e-05,0.00011907850626048804
1.50010085105896,4.360848332159452e-06,1.7389015254303685e-07,-1.3824824069117554e-06,7.827205586116384e-05,-3.467739642322729e-07,-1.7275966128515253e-05,-4.4735576153543885e-05,0.00013641973393686585
1.5109350681304932,4.1428059155514785e-06,1.65195644915885e-07,-1.3133582865661675e-06,7.435845306810564e-05,-3.2943526602065924e-07,2.564776315090308e-05,8.368099557315096e-05,3.418954321004897e-06
1.5200695991516113,3.9356656197739045e-06,1.5693586267009073e-07,-1.247690372237859e-06,7.064053041470035e-05,-3.1296350271962624e-07,0.00012425179290537092,-2.0389472117519582e-05,-9.663841130705834e-05
1.5313255786895752,3.7388823387852093e-06,1.490890695365862e-07,-1.185305853625966e-06,6.710850389396533e-05,-2.9731532758364494e-07,3.6907685173689355e-05,-0.0001005015165980412,-0.0001323722497848965
1.5410940647125244,3.5519382218459486e-06,1.4163461605975687e-07,-1.1260405609446677e-06,6.375307869926706e-05,-2.824495612044627e-07,-5.824027174221959e-05,-4.882515443953135e-05,6.085150801881056e-05
1.5498411655426025,3.374341310753651e-06,1.3455288525676902e-07,-1.0697385328974343e-06,6.05654247643037e-05,-2.683270831442395e-07,-5.532825815510861e-05,-7.241605816364697e-05,0.00018796973984837063
1.5615644454956055,3.2056242452159684e-06,1.2782524099393055e-07,-1.0162516062525625e-06,5.753715352608851e-05,-2.5491072898702753e-07,-1.3433169350508767e-05,6.815511038347963e-05,8.074956311385221e-05
1.570103645324707,3.04534303295517e-06,1.2143397894423403e-07,-9.654390259399344e-07,5.4660295849784085e-05,-2.421651925376761e-07,-1.2761510882983328e-05,6.474735486430565e-05,2.3381818818913737e-05
1.5800764560699463,2.8930758813074115e-06,1.1536227999702232e-07,-9.171670746429376e-07,0.00012864311826305675,-2.300569329107923e-07,-1.212343533883416e-05,6.150998712109036e-05,2.2212727877968046e-05
1.590259075164795,2.748422087242041e-06,1.0959416599717119e-07,-8.713087209107907e-07,0.0001222109623499039,-2.1855408626525266e-07,7.826417963916983e-05,-3.1346955446039236e-05,0.00011088353469514473
1.600395679473877,2.611000982879939e-06,1.0411445769731263e-07,-8.277432848652512e-07,0.0001161004142324087,-2.0762638195199003e-07,0.00016451556736746505,-0.0001650265027391093,0.0001053393579603789
1.6102097034454346,2.480450933735942e-06,9.8908734812447e-08,-7.863561206219885e-07,0.00011029539352078826,-1.9724506285439052e-07,-2.934276483362286e-05,-6.395890068580087e-05,-0.0001319683022285422
1.6199774742126465,2.356428387049145e-06,9.396329807182464e-08,-7.470383145908891e-07,0.00010478062384474885,-1.87382809711671e-07,-7.450993913867579e-05,3.250766944195732e-05,-3.2101262023646944e-05
1.6313698291778564,2.2386069676966876e-06,8.92651331682334e-08,-7.096863988613446e-07,9.95415926525114e-05,-1.7801366922608743e-07,-7.078444218174199e-05,9.120293436665794e-05,2.9824449474333903e-05
1.6406607627868652,2.1266766193118533e-06,8.480187650982173e-08,-6.742020789182774e-07,9.456451301988583e-05,-1.6911298576478304e-07,-1.827090020910838e-05,1.3181307853009931e-05,0.00010179470679593232
1.6498901844024658,2.0203427883462605e-06,8.056178268433063e-08,-6.404919749723635e-07,8.983628736889154e-05,-1.606573364765439e-07,-1.735735519865296e-05,-8.649969837948516e-05,0.00014621594187605563
1.6604256629943848,1.9193256489289472e-06,7.65336935501141e-08,-6.084673762237452e-07,8.534447300044696e-05,-1.526244696527167e-07,-1.648948743872031e-05,-6.0501348938589065e-05,0.00011723178026033101
1.6702120304107666,1.8233593664824998e-06,7.270700887260839e-08,-5.78044007412558e-07,8.107724935042461e-05,-1.4499324617008085e-07,0.0001244376190680725,8.26263506431972e-05,-0.00012213419564412536
1.6800191402435303,1.7321913981583747e-06,6.907165842897796e-08,-5.4914180704193e-07,7.702338688290337e-05,-1.377435838615768e-07,7.183611774561566e-05,3.2115412741979713e-05,-0.00025516634696907427
1.6899592876434326,1.645581828250456e-06,6.561807550752906e-08,-5.216847166898335e-07,7.31722175387582e-05,-1.3085640466849796e-07,-6.950880024880975e-05,7.642734614060578e-05,-0.00015057262154918356
1.7005910873413086,1.563302736837933e-06,6.23371717321526e-08,-4.956004808553418e-07,6.951360666182029e-05,-1.2431358443507306e-07,-6.603336023636925e-05,5.111867446175225e-05,7.36714013108739e-06
1.7098803520202637,1.4851375999960363e-06,5.922031314554497e-08,-4.708204568125747e-07,6.603792632872928e-05,-1.180979052133194e-07,-6.273169222455078e-05,-7.4134836741672e-05,0.00017877539159700802
1.720043659210205,1.4108807199962344e-06,5.625929748826772e-08,-4.4727943397194593e-07,6.273603001229281e-05,-1.1219300995265343e-07,-1.4703587066289812e-05,-4.798233463107167e-05,0.0001473908617436409
1.7307982444763184,1.3403366839964225e-06,5.3446332613854333e-08,-4.249154622733486e-07,5.959922851167817e-05,-1.0658335945502075e-07,-1.396840771297532e-05,3.95081750202332e-05,1.2384229276827879e-05
1.7402288913726807,1.2733198497966013e-06,5.0774015983161614e-08,-4.0366968915968117e-07,5.6619267086094257e-05,-1.0125419148226972e-07,3.512535763800103e-05,-3.506025117879741e-05,-6.082799963503247e-05
1.7499237060546875,1.2096538573067712e-06,4.8235315184003534e-08,-3.8348620470169707e-07,5.3788303731789544e-05,-9.619148190815622e-08,0.000127448796594082,-0.00017442679887681115,-0.00010482645307225346
1.7602663040161133,1.1491711644414326e-06,4.5823549424803354e-08,-3.643118944666122e-07,5.109888854520006e-05,-9.138190781274841e-08,-1.1113588424803336e-05,-0.00012164214386991298,7.666812983359803e-05
1.7712593078613281,1.091712606219361e-06,4.353237195356319e-08,-3.4609629974328155e-07,4.8543944117940056e-05,-8.681281242211099e-08,-5.2153817135875335e-05,-0.0001571559448087216,0.00019762244773884673
1.7808568477630615,1.037126975908393e-06,4.135575335588503e-08,-3.2879148475611746e-07,4.611674691204305e-05,-8.247217180100544e-08,-4.954612627908157e-05,4.086786686097421e-05,-2.4246890773553455e-06
1.7908306121826172,9.852706271129732e-07,3.9287965688090774e-08,-3.123519105183116e-07,4.381090956644089e-05,-7.834856321095517e-08,-4.7068819965127485e-05,0.00015308132065968599,-0.00011656030176524808
1.800546646118164,9.360070957573245e-07,3.7323567403686236e-08,-2.96734314992396e-07,4.1620364088118844e-05,-7.443113505040741e-08,2.32252130735956e-06,0.00012190830448958636,-8.721333653987033e-05
1.8100254535675049,8.892067409694582e-07,3.545738903350192e-08,-2.818975992427762e-07,3.95393458837129e-05,-7.070957829788703e-08,2.206395241991582e-06,9.176455408434478e-05,-5.880433453211456e-05
1.8200511932373047,8.447464039209853e-07,3.368451958182682e-08,-2.678027192806374e-07,3.756237858952725e-05,-6.717409938299268e-08,9.307327267506208e-05,-0.00011752236730903104,5.7857378688462395e-05
1.8303132057189941,8.02509083724936e-07,3.2000293602735476e-08,-2.544125833166055e-07,3.5684259660050886e-05,-6.381539441384303e-08,0.00017754067312285174,-0.00020076731302512223,-3.4156554327503485e-05
1.8403127193450928,7.623836295386891e-07,3.04002789225987e-08,-2.4169195415077524e-07,3.390004667704834e-05,-6.062462469315087e-08,-1.401579436644462e-05,6.045527414672681e-05,-0.0001466233727568429
1.849916934967041,7.242644480617546e-07,2.8880264976468763e-08,-2.2960735644323645e-07,3.220504434319592e-05,-5.7593393458493324e-08,-6.0788465174919744e-05,0.00015237943149298518,-9.18187435922034e-05
1.8599913120269775,6.880512256586668e-07,2.7436251727645323e-08,-2.1812698862107461e-07,3.059479212603612e-05,-5.4713723785568654e-08,-5.774904191617376e-05,0.0001447604599183359,-4.201533006347237e-05
1.8707976341247559,6.536486643757334e-07,2.6064439141263055e-08,-2.0722063919002087e-07,2.9065052519734317e-05,-5.197803759629022e-08,-1.2343502508090755e-05,3.12272186417414e-05,2.386256740810465e-05
1.8800716400146484,6.209662311569467e-07,2.47612171841999e-08,-1.968596072305198e-07,2.76117998937476e-05,-4.9379135716475704e-08,-1.1726327382686216e-05,-0.00016608185207048258,0.00021841714881783636
1.8899672031402588,5.899179195990994e-07,2.3523156324989904e-08,-1.8701662686899382e-07,2.623120989906022e-05,-4.691017893065192e-08,-1.1140011013551906e-05,-8.862391197426041e-05,3.474889882406479e-08
1.9003422260284424,0.00018909356115998544,2.2346998508740407e-08,-1.7766579552554413e-07,2.4919649404107207e-05,-4.456466998411932e-08,7.74810636222988e-05,3.8713577096299195e-06,-0.00022012717375907918
1.9101359844207764,0.00017963888310198615,2.1229648583303385e-08,-1.687825057492669e-07,0.00010192028372207472,-4.2336436484913355e-08,0.00012018217344457448,7.354053432923436e-05,-9.268290756264863e-05
1.9200851917266846,0.00017065693894688684,2.0168166154138214e-08,-1.6034338046180355e-07,9.682426953597098e-05,-4.021961466066769e-08,-6.922943664859606e-05,0.00013863944564563235,-1.9272824151656494e-05
1.9304866790771484,0.0001621240919995425,1.9159757846431302e-08,-1.5232621143871336e-07,9.198305605917243e-05,-3.82086339276343e-08,-6.576796481616626e-05,-1.489345641955621e-07,0.00011354722498347261
1.9405455589294434,0.00015401788739956534,1.8201769954109736e-08,-1.447099008667777e-07,8.73839032562138e-05,-3.6298202231252584e-08,-6.247956657535794e-05,-0.00013653820525807845,0.00024426658115639166
1.9499657154083252,0.00014631699302958707,1.729168145640425e-08,-1.374744058234388e-07,8.301470809340311e-05,-3.4483292119689956e-08,-1.1091666467083303e-05,-3.31834514361794e-05,-9.266356798943271e-06
1.960409164428711,0.0001390011433781077,1.6427097383584035e-08,-1.3060068553226686e-07,7.886397268873295e-05,-3.275912751370546e-08,-1.0537083143729138e-05,3.412990837487674e-05,-0.00020576560067675417
1.9701321125030518,0.00013205108620920232,1.5605742514404834e-08,-1.2407065125565353e-07,7.49207740542963e-05,-3.1121171138020183e-08,3.6979572413868386e-05,5.591831365634737e-05,-0.00017198241994270197
1.9809634685516357,0.0001254485318987422,1.4825455388684591e-08,-1.1786711869287084e-07,7.117473535158147e-05,-2.9565112581119172e-08,0.00011927789848274186,0.00011623287649070516,-5.819916808360826e-05
1.9899837970733643,0.00011917610530380509,1.4084182619250362e-08,-1.1197376275822729e-07,6.76159985840024e-05,-2.8086856952063212e-08,-3.8420684744986815e-05,9.264773797105626e-06,9.644547862417336e-05
2.0002808570861816,0.00011321730003861483,1.3379973488287843e-08,-1.0637507462031593e-07,6.423519865480228e-05,-2.668251410446005e-08,-8.092997732981645e-05,-0.00010227428194793449,0.00020269902174814954
2.010558843612671,0.00010755643503668408,1.271097481387345e-08,-1.0105632088930013e-07,6.102343872206217e-05,-2.5348388399237046e-08,-7.688347846332563e-05,3.617594574211415e-05,1.4782052537201957e-05
2.0199601650238037,0.00010217861328484988,1.2075426073179778e-08,-9.600350484483511e-08,5.7972266785959054e-05,-2.4080968979275194e-08,-2.4639773081461598e-05,-1.4032383003689306e-05,-3.4356581548355886e-05
2.0299813747406006,9.706968262060738e-05,1.147165476952079e-08,-9.120332960259335e-08,5.50736534466611e-05,-2.2876920530311434e-08,-2.3407784427388518e-05,-0.00010439693585010674,-0.00012370492446754
2.040803909301758,9.2216198489577e-05,1.089807203104475e-08,-8.664316312246368e-08,5.231997077432804e-05,-2.173307450379586e-08,-2.2237395206019092e-05,-9.917708905759739e-05,9.375320321436663e-06
2.050466537475586,8.760538856509815e-05,1.0353168429492512e-08,-8.231100496634049e-08,4.970397223561164e-05,-2.064642077860607e-08,7.305405206490997e-05,-0.00014130802336003156,0.0001972657093266479
2.0601587295532227,8.322511913684323e-05,9.835510008017885e-09,-7.819545471802346e-08,4.7218773623831054e-05,-1.9614099739675764e-08,0.0001636511144629434,7.132025309879462e-06,9.315265885904549e-05
2.0709640979766846,7.906386318000107e-05,9.34373450761699e-09,-7.428568198212229e-08,4.4857834942639496e-05,-1.8633394752691975e-08,-1.350993065608202e-05,0.00015463160226577695,-0.0001016057746542718
2.0804338455200195,7.5110670021001e-05,8.876547782236141e-09,-7.057139788301618e-08,4.261494319550752e-05,-1.7701725015057374e-08,-6.116363025686141e-05,0.0001469000221524881,-9.652548592155821e-05
2.0900371074676514,7.135513651995095e-05,8.432720393124334e-09,-6.704282798886537e-08,4.048419603573214e-05,-1.6816638764304505e-08,-5.810544874401834e-05,0.00011589088853098162,-6.803507911159822e-05
2.100027561187744,6.778737969395341e-05,8.011084373468118e-09,-6.36906865894221e-08,3.8459986233945536e-05,-1.5975806826089278e-08,-9.479550988136161e-06,-9.564646982962442e-05,3.947612821994872e-06
2.1109724044799805,6.439801070925574e-05,7.61053015479471e-09,-6.050615225995099e-08,3.6536986922248254e-05,-1.5177016484784814e-08,-9.005573438729353e-06,-0.00032072729667346545,2.464688221138548e-05
2.119905948638916,6.117811017379294e-05,7.230003647054974e-09,-5.748084464695344e-08,3.471013757613584e-05,-1.4418165660545573e-08,-8.555294766792885e-06,1.1491248309929939e-06,-2.7558804677658473e-05
2.1300132274627686,5.8119204665103296e-05,6.868503464702225e-09,-5.460680241460577e-08,3.2974630697329045e-05,-1.3697257377518294e-08,3.698788670618805e-05,0.00015899562716073932,-9.385398954575463e-05
2.140634298324585,5.521324443184813e-05,6.525078291467114e-09,-5.1876462293875476e-08,3.1325899162462595e-05,-1.3012394508642379e-08,0.0001641610321387331,0.00019405335905865382,-4.6153776812515426e-05
2.150728702545166,5.245258221025572e-05,6.198824376893758e-09,-4.92826391791817e-08,2.9759604204339465e-05,-1.236177478321026e-08,-2.4780424711247416e-05,0.00011657566413957754,-2.1254412316511314e-05
2.1600773334503174,4.9829953099742934e-05,5.888883158049069e-09,-4.681850722022261e-08,2.827162399412249e-05,-1.1743686044049747e-08,-7.235950478662228e-05,-8.452552431113639e-05,0.00017508071354304928
2.1708788871765137,4.733845544475579e-05,5.594439000146616e-09,-4.447758185921148e-08,2.6858042794416366e-05,-1.115650174184726e-08,-6.874152954729116e-05,-0.00016505397486167467,0.0001663266778658928
2.1805381774902344,4.4971532672518e-05,5.314717050139285e-09,-4.2253702766250906e-08,2.5515140654695548e-05,-1.0598676654754895e-08,-1.8088540570153073e-05,-6.236945111905734e-05,-0.00012528513102602956
2.1902413368225098,4.27229560388921e-05,5.0489811976323204e-09,-4.014101762793836e-08,2.423938362196077e-05,-1.006874282201715e-08,-1.718411354164542e-05,1.1248489758559433e-05,-4.8521406153064175e-05
2.200173854827881,4.058680823694749e-05,4.796532137750704e-09,-3.813396674654144e-08,2.302741444086273e-05,-9.565305680916293e-09,-1.6324907864563147e-05,5.6628587241672194e-05,4.578970809667049e-05
2.2101030349731445,3.8557467825100114e-05,4.5567055308631686e-09,-3.6227268409214365e-08,2.1876043718819592e-05,-9.087040396870478e-09,7.656703123927239e-05,5.379715787958858e-05,8.95380695471494e-05
2.220198154449463,3.662959443384511e-05,4.32887025432001e-09,-3.441590498875365e-08,2.0782241532878613e-05,-8.632688377026955e-09,0.00011779327866867683,-3.900189799711844e-05,0.0001751703640525195
2.2301976680755615,3.479811471215285e-05,4.112426741604009e-09,-3.269510973931596e-08,1.974312945623468e-05,-8.201053958175607e-09,-2.502593965093116e-05,8.59138169813031e-06,7.512547625910355e-05
2.240598678588867,3.30582089765452e-05,3.9068054045238084e-09,-3.106035425235016e-08,1.8755972983422946e-05,-7.791001260266826e-09,-6.772266618980619e-05,8.161812613219619e-06,-6.04748681181122e-05
2.2504923343658447,3.140529852771794e-05,3.711465134297618e-09,-2.9507336539732652e-08,1.78181743342518e-05,-7.401451197253484e-09,-6.433653288031587e-05,-6.154822831287628e-05,-0.00012675307500764152
2.260148048400879,2.9835033601332042e-05,3.525891877582737e-09,-2.8031969712746017e-08,1.6927265617539207e-05,-7.03137863739081e-09,-1.3962502950650785e-05,-1.1313613611583187e-05,2.1056188599688414e-05
2.2707877159118652,2.834328192126544e-05,3.3495972837036e-09,-2.6630371227108714e-08,1.6080902336662246e-05,-6.679809705521269e-09,-1.3264377803118245e-05,-3.223358294583242e-05,0.0001274316292438786
2.2814338207244873,2.6926117825202167e-05,3.18211741951842e-09,-2.5298852665753278e-08,1.5276857219829134e-05,-6.3458192202452054e-09,-1.2601158912962332e-05,-5.20860703311012e-05,0.00018545254737937402
2.2901883125305176,2.5579811933942057e-05,3.0230115485424986e-09,-2.4033910032465615e-08,1.4513014358837676e-05,-6.028528259232945e-09,0.00014397619719721394,0.000158447964071498,-8.373224359715478e-05
2.300377607345581,2.4300821337244952e-05,2.8718609711153737e-09,-2.2832214530842332e-08,1.3787363640895792e-05,-5.727101846271298e-09,9.202521482916753e-05,0.00021765382463019312,-0.0001466738901795671
2.310235023498535,2.3085780270382702e-05,2.728267922559605e-09,-2.1690603804300216e-08,1.3097995458851002e-05,-5.4407467539577325e-09,-5.5449931161057905e-06,0.00011380218619485525,-0.00018582466927250944
2.3201072216033936,0.00021925452560167161,2.5918545264316247e-09,-2.0606073614085205e-08,1.2443095685908452e-05,-5.168709416259845e-09,-5.135266623529256e-05,-5.318515282733782e-05,-0.00019957589719636686
2.33001708984375,0.00040543517502834343,2.4622618001100434e-09,-1.9575769933380944e-08,1.1820940901613028e-05,-4.9102739454468524e-09,-4.878503292352793e-05,-7.354737687769479e-05,6.363919627233525e-05
2.3400511741638184,0.00038516341627692623,2.339148710104541e-09,-1.8596981436711895e-08,1.1229893856532376e-05,-4.66476024817451e-09,-8.371273879135643e-07,-9.262433497852903e-05,8.321156340343747e-05
2.350465774536133,0.0005537829820811947,2.222191274599314e-09,-1.76671323648763e-08,1.0668399163705756e-05,-4.431522235765784e-09,-7.95271018517886e-07,4.3643783847282535e-05,-5.2585916843619524e-05
2.359936475753784,0.000526093832977135,2.111081710869348e-09,-1.6783775746632485e-08,1.0134979205520467e-05,-4.209946123977495e-09,4.7298021186825366e-05,4.146159465491841e-05,-4.995662100143854e-05
2.370105504989624,0.000692008628770822,2.0055276253258805e-09,-1.594458695930086e-08,9.628230245244443e-06,-3.99944881777862e-09,0.00013471909229289001,1.6942021880821006e-05,-2.5012296910015136e-05
2.380592107772827,0.0008441570586208446,1.9052512440595865e-09,-1.5147357611335817e-08,9.14681873298222e-06,-3.799476376889689e-09,-2.8628157003553385e-06,-7.113571479896499e-05,-6.737699985738685e-05
2.390166997909546,0.0010058430074579273,1.809988681856607e-09,-1.4389989730769025e-08,8.689477796333108e-06,-3.6095025580452045e-09,-2.7196749153375716e-06,-0.00018662775349026527,5.504067456673101e-05
2.4000051021575928,0.0011541381671632876,1.7194892477637766e-09,-1.3670490244230573e-08,8.255003906516452e-06,-3.4290274301429443e-09,-2.583691169570693e-06,-1.4965682639149936e-05,2.9098543241744582e-05
2.4100399017333984,0.0012915592511339531,1.6335147853755876e-09,-1.2986965732019045e-08,7.842253711190629e-06,-3.257576058635797e-09,-2.4545066110921584e-06,0.00019085781328487427,-8.628705713815171e-05
2.4202563762664795,0.001418096124319909,1.551839046106808e-09,-1.2337617445418092e-08,7.450141025631097e-06,-3.0946972557040067e-09,-2.3317812805375505e-06,0.00018131492262063052,-3.7337710320199644e-05
2.430020332336426,0.0015469444895372445,1.4742470938014675e-09,-1.1720736573147186e-08,7.077633974349542e-06,-2.9399623929188064e-09,-2.215192216510673e-06,0.0001255966936199215,-3.54708248041941e-05
2.4401307106018066,0.001662832135036389,1.4005347391113941e-09,-1.1134699744489827e-08,6.723752275632065e-06,-2.792964273272866e-09,8.81558260594898e-05,6.491535607443877e-06,7.912803976749716e-05
2.450310468673706,0.0017723254547251806,1.3305080021558243e-09,-1.0577964757265336e-08,6.387564661850462e-06,-2.6533160596092224e-09,0.00017372805901733141,-0.00015129808362934798,0.00014265665597472583
2.4599385261535645,0.002088302448692559,1.263982602048033e-09,-1.0049066519402068e-08,6.068186428757939e-06,-2.520650256628761e-09,-2.3944384141459635e-05,-9.648666939590844e-05,-0.00010070872708392503
2.47019100189209,0.0021748969878625218,1.2007834719456314e-09,-9.546613193431964e-09,5.7647771073200416e-06,-2.394617743797323e-09,-2.274716493438665e-05,1.986374025593711e-05,-7.336807549331876e-05
2.480278730392456,0.0022598476287259087,1.1407442983483497e-09,-9.069282533760365e-09,5.476538251954039e-06,-2.2748868566074567e-09,-2.1609806687667318e-05,8.672711449036052e-05,-1.8431104714325414e-06
2.490008592605591,0.002347194116178265,1.0837070834309322e-09,-8.615818407072347e-09,5.202711339356337e-06,-2.1611425137770838e-09,-2.052931635328395e-05,5.8996122320536664e-05,6.843295438805657e-05
2.4999990463256836,0.0024254976508829977,1.0295217292593855e-09,-8.18502748671873e-09,4.94257577238852e-06,-2.0530853880882296e-09,-1.9502850535619752e-05,-3.53482374918259e-05,0.00011070858351681726
2.510578155517578,0.0024893276495227697,9.780456427964162e-10,-7.775776112382792e-09,4.695446983769094e-06,-1.9504311186838182e-09,-1.8527708008838762e-05,-7.681219078937819e-05,0.00014840451951311998
2.5199313163757324,0.0025733036874752663,9.291433606565953e-10,-7.386987306763652e-09,4.460674634580639e-06,-1.8529095627496272e-09,7.976240261892106e-05,4.8733075284247324e-05,-7.8084088224029e-05
2.5301504135131836,0.002635932674248265,8.826861926237655e-10,-7.017637941425469e-09,4.237640902851607e-06,-1.7602640846121457e-09,0.00012045116034908296,-2.071889527162698e-05,-0.00014119520060448947
2.540818452835083,0.002687474295622056,8.385518829925772e-10,-6.666756044354195e-09,4.0257588577090265e-06,-1.6722508803815384e-09,-1.402770316868389e-05,-4.1092334758100464e-05,-0.00011272605632421018
2.550347089767456,0.0027584713804676203,7.966242888429483e-10,-6.333418242136485e-09,3.824470914823575e-06,-1.5886383363624613e-09,-1.3326318010249696e-05,-1.5055476229567504e-05,6.078593902635945e-05
2.5601935386657715,0.0028187413540769557,7.567930744008009e-10,-6.0167473300296605e-09,3.633247369082396e-06,-1.5092064195443382e-09,-1.266000210973721e-05,-8.373504824425428e-05,0.00017346721845198926
2.5700862407684326,0.0026778042863731077,7.189534206807608e-10,-5.715909963528177e-09,3.451585000628276e-06,-1.4337460985671213e-09,-1.202700200425035e-05,8.166457339611535e-05,4.964180808071002e-05
2.580200433731079,0.0025439140720544522,6.830057496467227e-10,-5.430114465351768e-09,3.279005750596862e-06,-1.3620587936387652e-09,-1.1425651904037832e-05,0.00010015077772235456,-2.0548581311460462e-05
2.5906543731689453,0.002604370932777871,6.488554621643865e-10,-5.1586087420841796e-09,3.115055463067019e-06,-1.2939558539568268e-09,-1.085436930883594e-05,9.514323883623683e-05,-1.9521152245887438e-05
2.60006046295166,0.0026810316779072663,6.164126890561672e-10,-4.90067830497997e-09,2.959302689913668e-06,-1.2292580612589854e-09,0.00013463872785733213,-6.2475089060714276e-06,-1.854509463359307e-05
2.609959125518799,0.0025469800940119028,5.855920546033588e-10,-4.655644389730972e-09,2.811337555417984e-06,-1.1677951581960361e-09,8.179608257373504e-05,-0.00019037796902368091,-1.7617839901922172e-05
2.6197762489318848,0.0024196310893113077,7.798907701882941e-05,-4.422862170244423e-09,2.6707706776470846e-06,-1.1094054002862342e-09,-1.5136791668079398e-05,-0.0001344375355159198,7.610612220631484e-05
2.6315386295318604,0.002465130704284424,7.408962316788794e-05,-4.201719061732202e-09,2.5372321437647304e-06,-1.0539351302719224e-09,-1.4379952084675427e-05,4.72523746750609e-05,-2.4903646912431913e-05
2.6401798725128174,0.0023418741690702026,7.038514200949354e-05,-3.991633108645592e-09,2.4103705365764937e-06,-1.0012383737583263e-09,-1.3660954480441656e-05,9.765101325892283e-05,2.9102792750804658e-05
2.6499619483947754,0.0022247804606166923,6.686588490901887e-05,-3.792051453213312e-09,2.289852009747669e-06,-9.511764550704099e-10,-1.2977906756419573e-05,4.612407305839314e-05,2.7647653113264423e-05
2.66184663772583,0.0021135414375858578,6.352259066356792e-05,-3.6024488805526465e-09,2.1753594092602856e-06,-9.036176323168893e-10,-1.2329011418598594e-05,2.4581645646120407e-05,4.550149421695428e-05
2.6700305938720703,0.0020078643657065647,6.0346461130389523e-05,-3.422326436525014e-09,2.0665914387972714e-06,-8.584367507010448e-10,4.412248977559528e-05,-0.0001441525885060252,0.00021073157137594615
2.680142879486084,0.0019074711474212365,5.7329138073870045e-05,-3.251210114698763e-09,1.9632618668574077e-06,-8.155149131659925e-10,0.00013204909896369013,-0.00011441177566151383,4.246270887262681e-05
2.690103769302368,0.0018120975900501744,5.446268117017654e-05,-3.0886496089638246e-09,1.8650987735145372e-06,-7.747391675076928e-10,3.378055089876354e-05,-8.577466359925696e-05,-0.0001200760895252988
2.7009143829345703,0.0017214927105476657,5.173954711166771e-05,-2.934217128515633e-09,1.7718438348388103e-06,-7.360022091323081e-10,-1.0132989288002033e-05,2.963094864392768e-06,-2.962325976534698e-05
2.710857391357422,0.0016354180750202823,4.9152569756084326e-05,-2.7875062720898513e-09,1.6832516430968697e-06,-6.992020986756926e-10,-9.626339823601932e-06,2.8149401211731336e-06,6.365185828278355e-05
2.7199127674102783,0.001553647171269268,4.6694941268280106e-05,-2.6481309584853584e-09,1.5990890609420262e-06,-6.642419937419079e-10,-9.145022832421835e-06,-4.7654554011075197e-05,0.0001611267596210333
2.7303788661956787,0.0014759648127058045,4.43601942048661e-05,-2.5157244105610903e-09,1.5191346078949249e-06,-6.310298940548124e-10,-8.687771690800743e-06,-0.0001326891878176745,0.00019677910239355607
2.740128993988037,0.0014021665720705143,4.214218449462279e-05,-2.3899381900330357e-09,1.4431778775001786e-06,-5.994783993520718e-10,-8.253383106260705e-06,6.091823557385903e-05,-3.281672677154265e-08
2.75003981590271,0.0013320582434669884,4.003507526989165e-05,-2.270441280531384e-09,1.3710189836251696e-06,-5.695044793844682e-10,8.427787723367065e-05,-1.1216619593310796e-05,-6.912011927890984e-05
2.760779619216919,0.001265455331293639,3.803332150639707e-05,-2.1569192165048148e-09,1.302468034443911e-06,-5.410292554152447e-10,0.0001650423143879865,-9.563411962964464e-05,-0.00010815327882296403
2.7705116271972656,0.001202182564728957,3.6131655431077214e-05,-2.049073255679574e-09,1.2373446327217154e-06,-5.139777926444825e-10,-3.1014311339394964e-05,-4.3901286146157935e-05,3.81077676241797e-05
2.780371904373169,0.001142073436492509,3.432507265952335e-05,-1.946619592895595e-09,1.1754774010856296e-06,-4.882789030122583e-10,-2.9463595772425215e-05,-0.00011103519744893204,0.0001517506719264466
2.789879560470581,0.0010849697646678836,3.260881902654718e-05,-1.8492886132508152e-09,1.116703531031348e-06,-4.638649578616453e-10,-2.7990415983803953e-05,-3.355966816583828e-05,7.223936891947709e-05
2.8009541034698486,0.0010307212764344893,3.097837807521982e-05,-1.7568241825882743e-09,1.0608683544797807e-06,-4.4067170996856306e-10,-2.6590895184613754e-05,3.002300272724088e-05,-3.454707866781145e-05
2.8108344078063965,0.0009791852126127649,2.9429459171458826e-05,-1.6689829734588606e-09,1.0078249367557916e-06,-4.1863812447013486e-10,-2.5261350425383065e-05,2.8521852590878838e-05,-3.281972473442088e-05
2.8198952674865723,0.0009302259519821266,2.7957986212885882e-05,-1.5855338247859176e-09,9.574336899180019e-07,-3.977062182466281e-10,-2.399828290411391e-05,-7.318438245419366e-05,-3.1178738497699833e-05
2.830221652984619,0.0008837146543830203,2.6560086902241588e-05,-1.5062571335466216e-09,9.095620054221017e-07,-3.7782090733429665e-10,0.00010990456565704808,-0.00015799378627545766,1.4614509899167776e-05
2.8408093452453613,0.0008395289216638692,2.5232082557129507e-05,-1.4309442768692904e-09,8.640839051509965e-07,-3.589298619675818e-10,6.113203333704672e-05,-0.0001500940969616765,0.000186993000552797
2.8499233722686768,0.0007975524755806757,2.397047842927303e-05,-1.3593970630258259e-09,8.208797098934467e-07,-3.409833688692027e-10,-4.1623112881042104e-05,5.680769698889924e-05,2.8095533698292924e-05
2.860074520111084,0.0007576748518016419,2.277195450780938e-05,-1.2914272098745344e-09,7.798357243987744e-07,-3.2393420042574255e-10,-3.954195723699e-05,0.00023365562500098013,-0.00010807547763276291
2.8702733516693115,0.0007197911092115597,2.163335678241891e-05,-1.2268558493808077e-09,7.408439381788355e-07,-3.077374904044554e-10,-3.7564859375140495e-05,0.00019956319458660859,-0.00012508135291544728
2.88083553314209,0.0006838015537509817,2.0551688943297963e-05,-1.1655130569117673e-09,7.038017412698937e-07,-2.923506158842326e-10,-3.568661640638347e-05,0.00014633848500523777,-7.558073541763458e-05
2.8899638652801514,0.0006496114760634326,1.9524104496133065e-05,-1.107237404066179e-09,6.68611654206399e-07,-2.7773308509002095e-10,-3.39022855860643e-05,-3.576798774605782e-05,5.3047978853981454e-05
2.899991512298584,0.000617130902260261,1.854789927132641e-05,-1.05187553386287e-09,6.351810714960791e-07,-2.638464308355199e-10,1.3263921144122796e-05,-0.00021586395816235092,5.039557991127377e-05
2.910428047180176,0.0005862743571472479,1.762050430776009e-05,-9.992817571697265e-10,6.034220179212751e-07,-2.5065410929374385e-10,0.00010033453539225918,-2.96031396435608e-05,-8.372491454229124e-05
2.9199321269989014,0.0005569606392898855,1.6739479092372084e-05,-9.493176693112402e-10,5.732509170252113e-07,-2.381214038290566e-10,-4.0207837760792545e-07,4.3666932588807846e-05,-7.74875356498606e-06
2.9302690029144287,0.0005291126073253911,1.590250513775348e-05,-9.018517858456781e-10,5.445883711739507e-07,-2.2621533363760378e-10,-4.4557686486053794e-05,8.565929798671049e-05,3.6814396140606284e-05
2.941648483276367,0.0005026569769591215,1.5107379880865804e-05,-8.567591965533941e-10,5.173589526152532e-07,-2.149045669557236e-10,-4.23298021617511e-05,1.0679030785923165e-06,7.512789133796538e-05
2.950352907180786,0.00047752412811116545,1.4352010886822513e-05,-8.139212367257243e-10,4.914910049844905e-07,-2.041593386079374e-10,-4.0213312053663545e-05,-0.0001298728390044259,0.00020225884370015572
2.9599485397338867,0.0004536479217056072,1.3634410342481387e-05,-7.73225174889438e-10,4.669164547352659e-07,-1.9395137167754052e-10,-3.820264645098036e-05,-2.827334209886199e-05,4.9487119082129475e-05
2.969963550567627,0.0004309655256203268,1.2952689825357317e-05,-7.345639161449661e-10,4.4357063199850256e-07,-1.8425380309366348e-10,-3.629251412843134e-05,-4.062637985050798e-06,-6.697242191633482e-05
2.9804792404174805,0.0004094172493393104,1.2305055334089451e-05,-6.978357203377178e-10,4.213921003985774e-07,-1.750411129389803e-10,5.2471619646791966e-05,-6.907163713741195e-05,-0.00012883593187213176
2.9899699687957764,0.00038894638687234486,1.1689802567384977e-05,-6.629439343208318e-10,4.0032249537864853e-07,-1.6628905729203128e-10,0.0001458298852924828,3.03637913474891e-05,2.1578634663520515e-05
2.9999499320983887,0.0003694990675287276,1.1105312439015728e-05,-6.297967376047902e-10,3.803063706097161e-07,-1.579746044274297e-10,-4.443497797170407e-05,5.973930655171476e-06,0.00013485805855507774
3.011216163635254,0.0003510241141522912,1.0550046817064942e-05,-5.983069007245507e-10,3.612910520792303e-07,-1.500758742060582e-10,-4.221322907311886e-05,-7.546099881197711e-05,0.00020925138856171387
3.0199503898620605,0.00033347290844467666,1.0022544476211694e-05,-5.683915556883231e-10,3.4322649947526875e-07,-1.4257208049575528e-10,-4.010256761946292e-05,5.889551422642018e-05,1.5971970796704405e-05
3.0300722122192383,0.0003167992630224428,9.521417252401109e-06,-5.399719779039069e-10,3.260651745015053e-07,-1.3544347647096752e-10,-3.809743923848977e-05,7.849598401704508e-05,-5.246236424896855e-05
3.040487289428711,0.00030095929987132065,9.045346389781053e-06,-5.129733790087116e-10,3.0976191577643005e-07,-1.2867130264741914e-10,-3.6192567276565276e-05,8.856056065511491e-06,-0.00011555437478720146
3.050886631011963,0.0002859113348777546,8.593079070292e-06,-4.87324710058276e-10,2.9427381998760853e-07,-1.2223773751504818e-10,-3.438293891273701e-05,-5.7584542491021664e-05,-8.777739079675552e-05
3.059908628463745,0.00027161576813386685,8.163425116777399e-06,-4.629584745553622e-10,2.795601289882281e-07,-1.1612585063929576e-10,1.7822738157749558e-05,-0.00010519184549132508,0.00011855759924254344
3.070563316345215,0.0002580349797271735,7.755253860938528e-06,-4.3981055082759407e-10,2.6558212253881666e-07,-1.1031955810733097e-10,0.00014526924996860878,-1.4373820737602466e-05,6.985050304084214e-05
3.0803847312927246,0.00024513323074081483,7.367491167891601e-06,-4.1782002328621435e-10,7.856259159017187e-05,-1.0480358020196441e-10,-4.8446463368380995e-05,5.626446436373961e-05,-5.0174678885306184e-05
3.0901527404785156,0.00023287656920377406,6.999116609497021e-06,-3.9692902212190363e-10,7.463446201066327e-05,-9.956340119186618e-11,-4.602414019996194e-05,5.345124114555262e-05,-4.766594494104087e-05
3.1000614166259766,0.00022123274074358534,6.64916077902217e-06,-3.770825710158084e-10,7.09027389101301e-05,-9.458523113227286e-11,-4.372293318996384e-05,4.777779524583599e-06,7.182518697025653e-07
3.1101016998291016,0.00021017110370640606,6.316702740071061e-06,-3.5822844246501797e-10,6.735760196462359e-05,-8.985596957565922e-11,-4.1536786530465646e-05,-0.00013185524611465188,6.823392762088029e-07
3.1204609870910645,0.00019966254852108576,6.000867603067508e-06,-3.4031702034176707e-10,6.39897218663924e-05,-8.536317109687624e-11,-3.945994720394236e-05,-0.00010316746573077263,2.2743240390545003e-05
3.1299681663513184,0.00018967942109503145,5.700824222914132e-06,-3.233011693246787e-10,6.079023577307278e-05,-8.109501254203243e-11,-3.748694984374524e-05,9.345888227318821e-05,-2.6260915308330983e-05
3.140021562576294,0.00018019545004027988,5.415783011768425e-06,-3.0713611085844476e-10,5.7750723984419135e-05,-7.70402619149308e-11,5.50845643507098e-05,0.0001341345215106713,2.0400713808228076e-05
3.1515936851501465,0.00017118567753826588,5.144993861180003e-06,-2.917793053155225e-10,5.486318778519818e-05,-7.318824881918426e-11,9.187306174597161e-05,6.811370701594177e-05,3.9152040924215325e-05
3.1603634357452393,0.0001626263936613526,4.887744168121003e-06,-2.771903400497464e-10,5.2120028395938266e-05,-6.952883637822504e-11,-6.841686647092236e-05,-1.3140115899653e-05,0.00011504257644280225
3.1700587272644043,0.00015449507397828494,4.643356959714952e-06,-2.633308230472591e-10,4.951402697614135e-05,-6.605239455931379e-11,-6.499602314737624e-05,-8.314669941382664e-05,0.00017995403692981843
3.1805779933929443,0.00014677032027937068,4.411189111729204e-06,-2.5016428189489613e-10,4.7038325627334286e-05,-6.274977483134809e-11,-6.174622199000742e-05,7.833704799212378e-06,-4.61013380225603e-05
3.19075345993042,0.00013943180426540213,4.190629656142744e-06,-2.376560678001513e-10,4.468640934596757e-05,-5.961228608978069e-11,-5.8658910890507044e-05,2.991238680651921e-05,-0.000246029576346737
3.200584650039673,0.00013246021405213202,3.981098173335606e-06,-2.2577326441014374e-10,4.245208887866919e-05,-5.663167178529165e-11,-5.572596534598169e-05,9.80151228718091e-05,-0.00016412974212378425
3.2099380493164062,0.0001258372033495254,3.782043264668826e-06,-2.1448460118963654e-10,4.032948443473573e-05,-5.380008819602706e-11,-4.284269290688518e-06,0.00014176976451623583,-9.957061653561921e-06
3.221046209335327,0.00011954534318204913,3.5929411014353845e-06,-2.037603711301547e-10,3.831301021299894e-05,-5.1110083786225706e-11,0.00011929959239972935,5.243484413984287e-05,0.00011391043965499183
3.2298574447631836,0.00011356807602294667,3.413294046363615e-06,-1.9357235257364693e-10,3.639735970234899e-05,-4.855457959691442e-11,-9.357047500542597e-05,-5.363944195973371e-05,0.0002116674615648267
3.2404911518096924,0.00010788967222179933,3.2426293440454342e-06,-1.8389373494496459e-10,3.457749171723154e-05,-4.6126850617068695e-11,-8.889195125515467e-05,7.781094150921134e-05,2.9392873325303438e-05
3.250884532928467,0.00010249518861070935,3.0804978768431623e-06,-1.7469904819771635e-10,3.284861713136996e-05,-4.382050808621526e-11,-8.444735369239693e-05,9.597378153727111e-05,-0.00012645048006565437
3.261247158050537,9.737042918017389e-05,2.926472983001004e-06,-1.6596409578783053e-10,3.1206186274801464e-05,-4.162948268190449e-11,-8.022498600777708e-05,3.0019126760170447e-06,-0.0001642145459545669
3.270047903060913,9.250190772116519e-05,2.7801493338509534e-06,-1.57665890998439e-10,2.9645876961061388e-05,-3.954800854780927e-11,-7.621373670738822e-05,5.4419346697456356e-05,5.0266299964073176e-05
3.2800471782684326,8.787681233510692e-05,2.6411418671584057e-06,-1.4978259644851705e-10,2.8163583113008316e-05,-3.75706081204188e-11,-7.24030498720188e-05,-6.242464309974728e-05,0.00020752521641313613
3.2900888919830322,8.348297171835157e-05,2.5090847738004855e-06,-1.422934666260912e-10,2.67554039573579e-05,-3.569207771439786e-11,2.2233267262694752e-05,3.171275369636568e-05,0.00015164087327191868
3.3000874519348145,7.930882313243399e-05,2.383630535110461e-06,-1.3517879329478663e-10,2.5417633759490004e-05,-3.390747382867797e-11,6.669428260118985e-05,7.569979471317291e-05,5.2913472205067386e-05
3.3099453449249268,7.53433819758123e-05,2.264449008354938e-06,-1.2841985363004728e-10,2.4146752071515503e-05,-3.221210013724407e-11,-7.54982810281656e-05,7.191480497751427e-05,5.026779859481401e-05
3.3216214179992676,7.157621287702168e-05,2.151226557937191e-06,-1.2199886094854492e-10,2.2939414467939727e-05,-3.060149513038186e-11,-0.00011084600404803245,-2.948752794954931e-05,2.819309012943574e-05
3.329874277114868,6.799740223317059e-05,2.0436652300403314e-06,-1.1589891790111767e-10,2.179244374454274e-05,-2.9071420373862768e-11,-0.00010530370384563082,-0.00022139810295573688,5.440985725204997e-05
3.340350389480591,6.459753212151206e-05,1.9414819685383146e-06,-1.1010397200606178e-10,2.0702821557315602e-05,-2.7617849355169628e-11,-5.64592090084233e-05,-0.0001231695785180981,0.00013884798367929939
3.351088047027588,6.136765551543646e-05,1.8444078701113988e-06,-1.0459877340575868e-10,1.966768047944982e-05,-2.6236956887411147e-11,-5.3636248558002135e-05,5.329875140856592e-05,4.675065899495889e-05
3.360956907272339,5.829927273966463e-05,1.752187476605829e-06,-9.936883473547074e-11,1.868429645547733e-05,-2.4925109043040587e-11,-4.793281880130443e-06,7.371439096313218e-05,6.74937031702055e-05
3.3701670169830322,5.5384309102681395e-05,1.6645781027755373e-06,-9.44003929986972e-11,1.7750081632703463e-05,-2.3678853590888557e-11,0.00014413904633449884,-4.317660645335807e-06,8.890112869846568e-05
3.3802080154418945,5.261509364754732e-05,1.5813491976367605e-06,-8.968037334876234e-11,1.686257755106829e-05,-2.249491091134413e-11,-4.488505652956083e-05,-4.95560652499027e-05,0.00012991035990037608
3.3910763263702393,4.998433896516995e-05,1.5022817377549223e-06,-8.519635468132422e-11,1.6019448673514873e-05,-2.1370165365776922e-11,-4.264080370308279e-05,-0.00017325245215158276,0.00016547290529341034
3.4000229835510254,4.748512201691145e-05,1.427167650867176e-06,-8.0936536947258e-11,1.5218476239839128e-05,-2.0301657097488076e-11,-9.147500470296371e-05,-8.814046776646556e-05,-0.00012311506648893846
3.4108681678771973,4.5110865916065875e-05,1.3558092683238173e-06,-7.688971009989509e-11,1.445755242784717e-05,-1.9286574242613672e-11,-4.4792265245067366e-05,6.364801790146828e-05,-0.0001801227969986058
3.42045259475708,4.285532262026258e-05,1.2880188049076263e-06,-7.304522459490034e-11,1.3734674806454812e-05,-1.8322245530482987e-11,-4.2552651982814e-05,0.00015582997734795502,-7.575229680711535e-05
3.430356025695801,4.071255648924945e-05,1.223617864662245e-06,-6.939296336515532e-11,1.3047941066132072e-05,-1.7406133253958838e-11,-4.0425019383673296e-05,0.00014803847848055728,-2.5963800942992846e-05
3.4406516551971436,3.867692866478698e-05,1.1624369714291326e-06,-6.592331519689755e-11,1.2395544012825467e-05,-1.6535826591260895e-11,5.024538093368401e-05,-3.6661744139838935e-05,0.00010830811312642989
3.450753688812256,3.6743082231547625e-05,1.1043151228576759e-06,-6.262714943705266e-11,1.1775766812184193e-05,-1.570903526169785e-11,9.287798127284716e-05,-0.00012511839570453312,0.00019318244624179451
3.461033582687378,3.490592811997024e-05,1.0490993667147921e-06,-5.949579196520002e-11,1.1186978471574983e-05,-1.4923583498612956e-11,-4.515068449006116e-05,-2.99392981197972e-05,-3.878462056908734e-05
3.4708449840545654,3.316063171397173e-05,9.966443983790526e-07,-5.652100236694002e-11,1.0627629547996233e-05,-1.4177404323682308e-11,-4.2893150265558105e-05,-7.49191170545818e-05,-0.0001297989572221819
3.480686664581299,3.1502600128273144e-05,9.468121784600999e-07,-5.3694952248593016e-11,1.0096248070596421e-05,-1.3468534107498192e-11,-4.07484927522802e-05,2.167169315691884e-05,-3.046415500230126e-05
3.491079807281494,2.9927470121859485e-05,8.994715695370949e-07,-5.101020463616336e-11,9.5914356670666e-06,-1.2795107402123282e-11,-3.8711068114666186e-05,2.0588108499077073e-05,0.00010326903142431587
3.5004043579101562,2.843109661576651e-05,8.544979910602402e-07,-4.8459694404355194e-11,9.111863883713269e-06,-1.2155352032017118e-11,-3.677551470893288e-05,-0.00010211844745122009,0.00021978273037844337
3.5100760459899902,2.7009541784978184e-05,8.117730915072281e-07,-4.603670968413743e-11,8.656270689527604e-06,-1.1547584430416261e-11,1.2271440022300584e-05,-7.340843558076117e-05,0.00013798132536581854
3.5209436416625977,2.5659064695729273e-05,7.711844369318667e-07,-4.373487419993056e-11,8.223457155051223e-06,-1.0970205208895448e-11,0.0001377213257928326,7.733602026518648e-05,-1.599177496938197e-05
3.53068208694458,2.437611146094281e-05,7.326252150852733e-07,-4.154813048993403e-11,7.812284297298662e-06,-1.0421694948450675e-11,-5.708628771790994e-05,0.00012044960605719791,-0.00015613334663674302
3.53996205329895,2.3157305887895666e-05,6.959939543310096e-07,-3.947072396543733e-11,7.4216700824337284e-06,-9.900610201028141e-12,-5.4231973332014436e-05,-8.053936774184657e-06,-0.00022181531682202694
3.550314426422119,2.1999440593500883e-05,6.611942566144591e-07,-3.749718776716546e-11,7.050586578312042e-06,-9.405579690976733e-12,-5.152037466541371e-05,-7.651239935471243e-06,-7.8380203936426e-05
3.5611207485198975,2.089946856382584e-05,6.281345437837361e-07,-3.562232837880718e-11,6.69805724939644e-06,-8.935300706427896e-12,-4.894435593214302e-05,-9.195071238363965e-05,0.00013724389237276834
3.5708203315734863,1.9854495135634546e-05,5.967278165945493e-07,-3.3841211959866823e-11,6.3631543869266175e-06,-8.488535671106501e-12,-4.649713813553587e-05,-1.6939983264429873e-05,0.00010691063325412362
3.580817937850952,1.8861770378852817e-05,5.668914257648218e-07,-3.214915136187348e-11,6.044996667580287e-06,-8.064108887551175e-12,-4.4172281228759074e-05,5.231515163423136e-05,-1.2448457967651669e-05
3.5908470153808594,1.7918681859910175e-05,5.385468544765807e-07,-3.054169379377981e-11,5.742746834201272e-06,-7.660903443173617e-12,4.9068776284515624e-05,4.9699394052519794e-05,-1.1826035069269085e-05
3.6008875370025635,1.7022747766914666e-05,5.116195117527517e-07,-2.901460910409082e-11,5.455609492491209e-06,-7.277858271014935e-12,9.207812103176165e-05,1.7516407884219889e-06,-1.123473331580563e-05
3.6098861694335938,1.617161037856893e-05,4.86038536165114e-07,-2.7563878648886277e-11,5.182829017866648e-06,-6.913965357464188e-12,-6.474577458252136e-05,-0.0001505559308137085,-6.14129931709249e-05
3.6204183101654053,1.5363029859640485e-05,4.617366093568583e-07,-2.6185684716441962e-11,4.923687566973315e-06,-6.568267089590978e-12,-6.15084858533953e-05,-0.00022974212559944204,2.837164781404033e-05
3.630401134490967,1.459487836665846e-05,4.3864977888901536e-07,-2.487640048061986e-11,4.677503188624649e-06,-6.239853735111429e-12,-5.843306156072553e-05,-1.2371527912824641e-05,4.077121933722635e-06
3.6399648189544678,1.3865134448325537e-05,4.1671728994456456e-07,-2.3632580456588867e-11,4.443628029193417e-06,-5.927861048355857e-12,-5.5511408482689254e-05,5.971738090918714e-05,-1.9950178305087014e-05
3.6500356197357178,1.3171877725909259e-05,3.958814254473363e-07,-2.2450951433759422e-11,4.2214466277337455e-06,-5.6314679959380635e-12,-5.2735838058554786e-05,5.673151186372778e-05,2.6307681390258298e-05
3.6608986854553223,1.2513283839613795e-05,3.760873541749695e-07,-2.132840386207145e-11,4.010374296347058e-06,-5.34989459614116e-12,-7.993528829978983e-06,1.1789418944877323e-05,2.4992297320745383e-05
3.670006036758423,1.1887619647633106e-05,3.57282986466221e-07,-2.0261983668967878e-11,3.8098555815297046e-06,-5.0823998663341014e-12,0.00014286592020646083,-6.402993829982744e-05,9.897256875216899e-05
3.680065155029297,1.129323866525145e-05,3.3941883714290994e-07,-1.9248884485519483e-11,3.6193628024532194e-06,-4.828279873017396e-12,-2.544314764565481e-07,-0.00015147981183322794,9.402394031455622e-05
3.6906933784484863,1.0728576731988877e-05,3.224478952857644e-07,-1.8286440261243508e-11,3.4383946623305583e-06,-4.5868658793665256e-12,-4.321637527907194e-05,-0.00010093115586512423,-0.00012555058358343208
3.7000796794891357,1.0192147895389432e-05,3.063255005214762e-07,-1.737211824818133e-11,3.2664749292140304e-06,-4.357522585398199e-12,-4.105555651511834e-05,1.4014696995346738e-06,-7.063002051855913e-05
3.7106058597564697,9.68254050061996e-06,2.9100922549540236e-07,-1.6503512335772262e-11,3.1031511827533286e-06,-4.139646456128289e-12,-3.900277868936242e-05,4.465322812663477e-05,1.9545144331522493e-05
3.7199244499206543,9.198413475588961e-06,2.764587642206322e-07,-1.5678336718983647e-11,2.947993623615662e-06,-3.932664133321874e-12,-3.7052639754894294e-05,4.242056672030303e-05,6.757686810405524e-05
3.7312915325164795,8.738492801809514e-06,2.626358260096006e-07,-1.4894419883034463e-11,2.8005939424348788e-06,-3.73603092665578e-12,-3.5200007767149576e-05,-4.014045596978351e-05,0.00010441802187588435
3.7399439811706543,8.301568161719038e-06,2.4950403470912055e-07,-1.414969888888274e-11,2.6605642453131347e-06,-3.5492293803229907e-12,7.169150740828583e-05,-3.813343317129433e-05,9.919712078209012e-05
3.74996018409729,7.886489753633085e-06,2.370288329736645e-07,-1.3442213944438602e-11,2.527536033047478e-06,-3.371767911306841e-12,0.0001136628989610788,5.488517233367629e-05,-4.243063602662756e-05
3.7607216835021973,7.49216526595143e-06,2.2517739132498126e-07,-1.2770103247216671e-11,2.401159231395104e-06,-3.203179515741499e-12,-1.940224421149875e-05,-1.1550085395277407e-05,-0.00010400010333756606
3.7709405422210693,7.1175570026538585e-06,2.1391852175873218e-07,-1.2131598084855836e-11,2.281101269825349e-06,-3.043020539954424e-12,-1.843213200092381e-05,-3.337821827356746e-05,-7.639446102263383e-05
3.7801852226257324,6.7616791525211656e-06,2.0322259567079557e-07,-1.1525018180613044e-11,2.167046206334081e-06,-2.8908695129567026e-12,-1.751052540087762e-05,-7.059930058938188e-06,5.067214853322427e-05
3.790134906768799,6.423595194895107e-06,1.930614658872558e-07,-1.0948767271582392e-11,2.058693896017377e-06,-2.7463260373088674e-12,-1.663499913083374e-05,-5.262659580595028e-05,0.00018589752785645752
3.8005738258361816,6.102415435150351e-06,1.8340839259289298e-07,-1.0401328908003272e-11,1.955759201216508e-06,-2.6090097354434237e-12,-1.580324917429205e-05,1.5491824153776384e-05,0.00011111556129420549
3.8098912239074707,5.797294663392834e-06,1.7423797296324834e-07,-9.881262462603107e-12,1.8579712411556825e-06,-2.4785592486712526e-12,-1.5013086715577447e-05,8.804546234251662e-05,-1.665393243122301e-05
3.8202219009399414,5.507429930223191e-06,1.655260743150859e-07,-9.387199339472952e-12,1.7650726790978983e-06,-2.3546312862376896e-12,7.409521574653984e-05,8.36431892253908e-05,-1.582123580966186e-05
3.8305776119232178,5.232058433712032e-06,1.572497705993316e-07,-8.917839372499305e-12,1.6768190451430032e-06,-2.236899721925805e-12,0.00011459216252400783,-3.1043239147866204e-05,-8.133273536637124e-05
3.8399455547332764,4.97045551202643e-06,1.4938728206936501e-07,-8.471947403874338e-12,1.592978092885853e-06,-2.125054735829515e-12,-3.6793722218498844e-05,-0.00012659526160135144,-2.8714006392615722e-05
3.8498425483703613,4.721932736425108e-06,1.4191791796589677e-07,-8.048350033680621e-12,1.5133291882415604e-06,-2.018801999038039e-12,-3.49540361075739e-05,-0.00012026549852127511,0.0001569599915250209
3.8620879650115967,4.485836099603852e-06,1.3482202206760193e-07,-7.64593253199659e-12,6.442812814593869e-05,-1.9178618990861366e-12,-3.32063343021952e-05,-3.926390295247281e-05,0.00011161783162740234
3.870088577270508,4.26154429462366e-06,1.2808092096422183e-07,-7.26363590539676e-12,0.0005398708414275596,-1.8219688041318296e-12,-3.154601758708544e-05,0.00021912537529163574,-9.340556902900678e-05
3.8802685737609863,4.048467079892477e-06,1.2167687491601074e-07,-6.9004541101269215e-12,0.0020859341399401027,-1.7308703639252381e-12,-2.9968716707731166e-05,0.000185875314773571,-0.00011102908233103938
3.890104293823242,3.8460437258978534e-06,1.1559303117021019e-07,-6.555431404620575e-12,0.0032287544253046885,-1.6443268457289762e-12,-2.8470280872344605e-05,0.00017658154903489246,-0.00010547762821448741
3.9009780883789062,3.6537415396029607e-06,1.0981337961169967e-07,-6.227659834389546e-12,0.0034914997081287704,-1.5621105034425274e-12,9.919762155299049e-05,6.25488145983776e-05,-3.708155261290409e-05
3.909895896911621,3.4710544626228126e-06,1.0432271063111469e-07,-5.916276842670068e-12,0.0034026410100208176,-1.484004978270401e-12,-7.80501145038747e-06,-0.00019568550594584787,6.681527694345503e-05
3.9200937747955322,3.297501739491672e-06,9.910657509955895e-08,-5.6204630005365645e-12,0.0032325089595197764,-1.4098047293568809e-12,-5.212745232522419e-05,-0.00011883219347750434,-9.301990696951502e-05
3.9302566051483154,3.132626652517088e-06,9.4151246344581e-08,-5.339439850509736e-12,0.0030708835115437873,-1.3393144928890367e-12,-4.952107970896298e-05,0.00013440619332880595,-0.00015581348720260314
3.940152168273926,2.9759953198912337e-06,8.944368402735195e-08,-5.072467857984249e-12,0.002917339335966598,-1.2723487682445848e-12,-4.7045025723514825e-05,0.00019688158607672132,-0.00012495757870434858
3.949956178665161,2.8271955538966717e-06,8.497149982598435e-08,-4.818844465085036e-12,0.002771472369168268,-1.2087313298323554e-12,-4.469277443733908e-05,0.00018703750677288966,-7.216772084477397e-05
3.9609673023223877,2.685835776201838e-06,8.072292483468513e-08,-4.577902241830784e-12,0.0026328987507098544,-1.1482947633407377e-12,-4.2458135715472124e-05,5.3216820501304364e-05,1.4419872486089302e-05
3.9707088470458984,2.551543987391746e-06,7.668677859295088e-08,-4.349007129739244e-12,0.0025012538131743613,-1.0908800251737008e-12,-4.0335228929698514e-05,-0.0001139609865572178,0.00017821584489524178
3.980041742324829,2.4239667880221586e-06,7.285243966330332e-08,-4.131556773252282e-12,0.002376191122515643,-1.0363360239150156e-12,0.00010845009003882674,-3.487865846834136e-05,-5.084778363259479e-05
3.9910693168640137,2.3027684486210506e-06,6.920981768013815e-08,-3.9249789345896675e-12,0.002257381566389861,-9.845192227192648e-13,6.164411953453914e-05,-7.451819154725484e-05,-0.0001724557924579881
4.000904321670532,2.187630026189998e-06,6.574932679613124e-08,-3.728729987860184e-12,0.002144512488070368,-9.352932615833015e-13,-3.382015679945665e-05,4.468530597669834e-05,-4.835541488849827e-05
4.010834455490112,2.078248524880498e-06,6.246186045632467e-08,-3.5422934884671747e-12,0.0020372868636668495,-8.885285985041364e-13,-3.2129148959483817e-05,-2.6490923116515274e-05,2.3004319650305342e-05
4.019843339920044,1.974336098636473e-06,5.933876743350843e-08,-3.365178814043816e-12,0.001935422520483507,-8.441021685789296e-13,-3.0522691511509624e-05,-0.00012653975490919584,0.0001232274816162964
4.0307464599609375,1.8756192937046493e-06,5.6371829061833007e-08,-3.1969198733416253e-12,0.0018386513944593315,-8.018970601499831e-13,-2.8996556935934143e-05,-5.737232426521143e-05,5.422566463695696e-05
4.040144443511963,1.7818383290194168e-06,5.355323760874135e-08,-3.0370738796745438e-12,0.0017467188247363649,-7.618022071424839e-13,-2.7546729089137435e-05,0.00013962901621640777,-0.00014261834286324952
4.0499982833862305,1.6927464125684458e-06,5.0875575728304285e-08,-2.8852201856908165e-12,0.0016593828834995466,-7.237120967853596e-13,2.013126849206234e-05,0.00010949723484220274,-0.00020493841741022338
4.060286045074463,1.6081090919400236e-06,4.833179694188907e-08,-2.7409591764062757e-12,0.0015764137393245693,-6.875264919460915e-13,0.00010798731315233679,3.7375417036438654e-05,-0.0002169071485609358
4.070996999740601,1.5277036373430223e-06,4.5915207094794615e-08,-2.603911217585962e-12,0.0014975930523583407,-6.531501673487869e-13,-2.6024155169353813e-05,3.5506646184624874e-05,8.291713307252883e-06
4.0800940990448,1.451318455475871e-06,4.361944674005488e-08,-2.4737156567066637e-12,0.0014227133997404236,-6.204926589813476e-13,-2.472294741088612e-05,-9.06638719231273e-05,0.00023178846207923926
4.089993953704834,1.3787525327020775e-06,4.1438474403052134e-08,-2.3500298738713304e-12,0.0012740740920283288,-5.894680260322802e-13,-2.3486800040341815e-05,-1.693130507792751e-05,0.00010486675022686573
4.100127696990967,1.3098149060669734e-06,3.936655068289953e-08,-2.232528380177764e-12,0.0008307526816839603,-5.599946247306661e-13,-2.231246003832472e-05,0.00014208861098381954,-5.8549938092328235e-05
4.109920263290405,1.2443241607636246e-06,3.739822314875455e-08,-2.1209019611688757e-12,0.0003215937440121078,-5.319948934941328e-13,-2.1196837036408486e-05,0.00013498418043462855,-5.5622441187711815e-05
4.120522499084473,1.1821079527254434e-06,3.5528311991316826e-08,-2.0148568631104318e-12,0.00016080758949740782,-5.053951488194261e-13,-2.013699518458806e-05,0.00010670136529851757,-7.437492524270576e-05
4.13048529624939,1.1230025550891711e-06,3.375189639175098e-08,-1.91411401995491e-12,7.570619174881016e-05,-4.801253913784548e-13,7.26087599645529e-05,-8.211151374625754e-05,-2.47867262856147e-05
4.1404101848602295,1.0668524273347125e-06,3.206430157216343e-08,-1.8184083189571645e-12,-5.484664227577133e-06,-4.56119121809532e-13,0.00011505285002152194,-0.00030837857833489304,6.860166613905939e-05
4.150081396102905,1.0135098059679768e-06,3.046108649355526e-08,-1.7274879030093062e-12,-5.210431016198276e-06,-4.333131657190554e-13,-3.1765109780991025e-05,-0.0001048725596829022,6.517158283209749e-05
4.161800861358643,9.628343156695778e-07,2.8938032168877493e-08,-1.641113507858841e-12,-0.00013619513355538857,-4.1164750743310263e-13,-3.0176854291941472e-05,7.614515159994893e-05,-3.5739264808783575e-05
4.17012357711792,9.146925998860989e-07,2.749113056043362e-08,-1.5590578324658987e-12,-0.000496643882780837,-3.9106513206144745e-13,-2.8668011577344397e-05,0.00012698921786928185,-3.395230156833919e-05
4.180031061172485,8.689579698917939e-07,2.6116574032411935e-08,-1.4811049408426038e-12,-0.0006265321712847013,-3.7151187545837506e-13,-2.7234610998477176e-05,0.00012063975697581774,-3.225468648992223e-05
4.190156698226929,8.255100713972042e-07,2.4810745330791338e-08,-1.4070496938004735e-12,-0.0007465835538926688,-3.529362816854563e-13,-2.5872880448553317e-05,2.450221692076991e-05,5.9463600040830835e-05
4.200090169906616,7.84234567827344e-07,2.357020806425177e-08,-1.3366972091104499e-12,-0.0007092543761980354,-3.352894676011835e-13,2.14227941012138e-05,-0.0001377300007710047,0.0001714954963571685
4.210057258605957,7.450228394359768e-07,2.239169766103918e-08,-1.2698623486549273e-12,-0.0007506963421313469,-3.185249942211243e-13,0.0001576808466857854,-8.506710330258574e-05,7.13679266795639e-05
4.219848871231079,7.077716974641779e-07,2.1272112777987218e-08,-1.206369231222181e-12,-0.0007131615250247795,-3.0259874451006804e-13,-3.6342799515176854e-05,-8.081374813746086e-05,-0.00011834007352110051
4.230340480804443,6.72383112590969e-07,2.0208507139087857e-08,-1.146050769661072e-12,-0.0006775034487735406,-2.874688072845646e-13,-3.452565953941801e-05,-1.1439761944912112e-05,-4.708977105936978e-05
4.2406392097473145,6.387639569614206e-07,1.9198081782133462e-08,-1.0887482311780183e-12,-0.0007184468772183381,-2.7309536692033633e-13,-3.279937656244711e-05,3.3666912441289746e-05,4.433409007151123e-05
4.2498955726623535,6.068257591133495e-07,1.8238177693026788e-08,-1.0343108196191173e-12,-0.0006825245333574212,-2.5944059857431953e-13,-3.1159407734324755e-05,-1.704666722915253e-05,0.0001401778536646959
4.259900093078613,5.764844711576821e-07,1.7326268808375447e-08,-9.825952786381614e-13,-0.0007249023982171508,-2.4646856864560353e-13,-2.9601437347608517e-05,-0.00015280818426467805,0.0002242448612461122
4.269975900650024,-0.00019385533277027113,1.6459955367956673e-08,-9.334655147062534e-13,-0.0008412118428926965,-2.3414514021332335e-13,-2.812136548022809e-05,-3.166041198301022e-05,9.952525511537267e-05
4.280100107192993,-0.00018416256613175755,1.5636957599558837e-08,-8.867922389709407e-13,-0.0009509984082001632,-2.2243788320265717e-13,6.366951941885175e-05,3.7711221084950205e-05,-1.8432028421748688e-05
4.289952278137207,-0.00017495443782516965,1.4855109719580895e-08,-8.424526270223936e-13,-0.0009810382429942018,-2.113159890425243e-13,0.00010667021912676187,-7.963477916642908e-05,-8.67866905189403e-05
4.300395250320435,-0.00016620671593391115,1.411235423360185e-08,-8.003299956712739e-13,-0.0011529066647595482,-2.0075018959039808e-13,-3.0162914244045216e-05,-7.565304020810762e-05,-8.24473559929933e-05
4.310028314590454,-0.00015789638013721558,1.3406736521921756e-08,-7.603134958877102e-13,-0.0012541455729571623,-1.9071268011087817e-13,-2.8654768531842953e-05,-9.402341480535203e-07,3.989193522273757e-05
4.319954872131348,-0.0001500015611303548,1.2736399695825668e-08,-7.222978210933246e-13,-0.001191438294309304,-1.8117704610533427e-13,-2.7222030105250803e-05,-4.6800800924991855e-05,0.00017562007391464115
4.330029726028442,-0.00014250148307383705,1.2099579711034385e-08,-6.861829300386584e-13,-0.0012080035391041956,-1.7211819380006755e-13,-2.586092859998826e-05,8.58778295824013e-07,0.0001215195310443428
4.340277433395386,-0.00013537640892014518,1.1494600725482665e-08,-6.518737835367254e-13,-0.0011476033621489858,-1.6351228411006417e-13,-2.4567882169988846e-05,6.798739045304041e-05,3.490969372110145e-06
4.350139617919922,-0.00012860758847413792,1.0919870689208532e-08,-6.192800943598891e-13,-0.0010902231940415365,-1.5533666990456096e-13,2.2711839718917467e-05,4.156235704017621e-05,-1.970924298670755e-05
4.359933376312256,-0.00012217720905043102,1.0373877154748105e-08,-5.883160896418947e-13,-0.001113937790602494,-1.475698364093329e-13,0.0001612644859686609,-0.00010020399904752189,-6.528652691593527e-05
4.370518922805786,-0.00011606834859790946,9.855183297010698e-09,-5.589002851597999e-13,-0.0010582409010723693,-1.4019134458886625e-13,2.369698593020309e-05,-0.00011677784505181249,2.7299372998697654e-06
4.380322217941284,-0.00011026493116801398,9.362424132160163e-09,-5.309552709018099e-13,-0.0010053288560187507,-1.3318177735942295e-13,-2.402879374418817e-05,-8.766848761026806e-05,0.00011894576637961883
4.389957904815674,-0.00010475168460961328,8.894302925552154e-09,-5.044075073567193e-13,-0.0009550624132178131,-1.2652268849145178e-13,-2.282735405697876e-05,0.00010611032161577909,1.8300785637875513e-05
4.400567531585693,-9.951410037913261e-05,8.449587779274545e-09,-4.791871319888834e-13,-0.0009796471862469395,-1.2019655406687918e-13,-2.1685986354129822e-05,7.927576486697893e-05,-4.1432943120294635e-06
4.410236835479736,-9.453839536017598e-05,8.027108390310818e-09,-4.552277753894392e-13,-0.0009306648269345924,-1.1418672636353521e-13,-2.060168703642333e-05,5.170602470067742e-05,1.9669822326524567e-05
4.4199371337890625,-8.981147559216717e-05,7.625752970795276e-09,-4.3246638661996723e-13,-0.0008841315855878627,-1.0847739004535845e-13,-1.957160268460216e-05,2.1153775533825424e-06,6.569167712245933e-05
4.430356502532959,-8.532090181255881e-05,7.2444653222555116e-09,-4.1084306728896887e-13,-0.0008399250063084695,-1.0305352054309053e-13,6.904798914470965e-05,-0.0001513621617907004,0.00012813785203765181
4.440089225769043,-8.105485672193087e-05,6.882242056142735e-09,-3.903009139245204e-13,-0.0008767816302687065,-9.7900844515936e-14,0.00011253161866130502,-7.339001024043244e-05,-0.00013641719992028712
4.4501378536224365,-7.700211388583432e-05,6.538129953335598e-09,-3.7078586822829437e-13,-0.0008329425487552711,-9.30058022901392e-14,-2.919973736898231e-05,4.370013618595527e-05,-6.15439523756531e-05
4.459847927093506,-7.31520081915426e-05,6.211223455668818e-09,-3.5224657481687964e-13,-0.0009491874851022309,-8.835551217563223e-14,-2.7739750500533193e-05,8.850660906978309e-05,-1.147527506374486e-05
4.4700236320495605,-6.949440778196547e-05,5.900662282885377e-09,-3.3463424607603565e-13,-0.0018057385404486822,-8.393773656685062e-14,-2.6352762975506533e-05,6.166048329219896e-05,5.63608746617273e-05
4.480097770690918,-6.601968739286719e-05,5.605629168741108e-09,-3.1790253377223387e-13,-0.0023256267881298686,-7.974084973850808e-14,-2.5035124826731207e-05,-9.52215029236086e-06,7.624270073528801e-05
4.490094423294067,-6.271870302322383e-05,5.325347710304052e-09,-3.0200740708362217e-13,-0.002285927492551884,-7.575380725158267e-14,-2.3783368585394644e-05,-7.742256793985335e-05,0.00014080709086063413
4.500277757644653,-5.958276787206263e-05,5.059080324788849e-09,-2.8690703672944106e-13,-0.0022470914964911486,-7.196611688900353e-14,-2.259420015612491e-05,-6.176396832139933e-06,-6.835839181458543e-05
4.509848594665527,-5.66036294784595e-05,4.806126308549407e-09,-2.72561684892969e-13,-0.002134736921666591,-6.836781104455335e-14,7.374385404199156e-05,-5.347174908569711e-05,-0.0001601488164141845
4.520695686340332,-5.377344800453652e-05,4.565819993121937e-09,-2.5893360064832057e-13,-0.0020987883030741663,-6.494942049232567e-14,0.00015432799138435197,1.2405335901932748e-05,-4.680221303790027e-05
4.5303144454956055,-5.1084775604309694e-05,4.33752899346584e-09,-2.459869206159045e-13,-0.001993848887920458,-6.170194946770938e-14,-4.352112054268177e-05,5.9318247196294653e-05,3.0710757034532903e-06
4.540578365325928,-4.853053682409421e-05,4.120652543792547e-09,-2.336875745851093e-13,-0.001894156443524435,-5.861685199432392e-14,-4.134506451554768e-05,-1.0186181414467257e-05,0.00011381504900319821
4.550981760025024,-4.610400998288949e-05,3.91461991660292e-09,-2.2200319585585383e-13,-0.001799448621348213,-5.568600939460772e-14,-3.927781128977029e-05,-0.0001414451289964853,0.00019596980098819647
4.560157775878906,-4.379880948374502e-05,3.7188889207727735e-09,-2.1090303606306114e-13,-0.0017094761902808023,-5.2901708924877333e-14,-3.7313920725281777e-05,6.41967463004253e-05,-1.2398307908299713e-05
4.57021427154541,-4.1608869009557767e-05,3.532944474734135e-09,-2.0035788425990808e-13,-0.0016240023807667621,-5.0256623478633466e-14,-3.544822468901769e-05,3.82995829165206e-05,-0.00012521502285730185
4.580929279327393,-3.9528425559079876e-05,3.356297250997428e-09,-1.9033999004691268e-13,-0.001542802261728424,-4.774379230470179e-14,-3.36758134545668e-05,-4.884168863171414e-05,-0.0001615674179156411
4.590809106826782,-3.755200428112588e-05,3.1884823884475564e-09,-1.8082299054456703e-13,-0.0014656621486420025,-4.53566026894667e-14,0.00010666945189195332,4.604137891574447e-05,-6.104806390398614e-05
4.600345611572266,-3.567440406706958e-05,3.0290582690251782e-09,-1.7178184101733867e-13,-0.0013923790412099023,-4.308877255499336e-14,5.621189482656717e-06,4.3739309969961796e-05,3.7719129105907554e-05
4.6100053787231445,-3.38906838637161e-05,2.877605355573919e-09,-1.6319274896647173e-13,-0.0013227600891494071,-4.093433392724369e-14,-4.183144689022631e-05,-5.279080932606358e-05,0.0001773479033469076
4.620253801345825,-3.219614967053029e-05,2.733725087795223e-09,-1.5503311151814815e-13,-0.0012566220846919366,-3.8887617230881505e-14,-3.9739874545714994e-05,6.121046435733944e-05,1.2574081675617338e-05
4.630206346511841,-3.058634218700378e-05,2.5970388334054616e-09,-1.4728145594224074e-13,-0.0011937909804573398,-3.694323636933743e-14,-3.775288081842924e-05,0.00010419064326725247,-3.409532453594353e-05
4.640409231185913,-2.9057025077653587e-05,2.4671868917351884e-09,-1.399173831451287e-13,-0.0011341014314344728,-3.5096074550870554e-14,-3.586523677750778e-05,5.4390788416140485e-05,-7.69808809968957e-05
4.650834798812866,-0.00021503895204185485,2.343827547148429e-09,-1.3292151398787226e-13,-0.0010773963598627492,-3.3341270823327025e-14,-3.407197493863239e-05,-0.00010154305048436253,-9.501959401558365e-05
4.66098427772522,-0.0002042870044397621,2.2266361697910076e-09,-1.2627543828847865e-13,-0.0010235265418696118,-3.167420728216067e-14,-3.236837619170077e-05,-0.00011897380184740237,6.728671289605268e-05
4.670138120651245,-0.000194072654217774,2.1153043613014573e-09,-1.199616663740547e-13,-0.0009723502147761311,-3.0090496918052637e-14,0.00011886810628722997,3.659295191432291e-05,6.392237725125952e-05
4.680177450180054,-0.00018436902150688529,2.0095391432363842e-09,-1.1396358305535198e-13,-0.0009237327040373244,-2.858597207215e-14,6.751744777091414e-05,0.0001255778107225111,-3.008824801520781e-05
4.690023899078369,-0.000175150570431541,1.909062186074565e-09,-1.0826540390258437e-13,-0.0008775460688354582,-2.71566734685425e-14,-2.8493943367612854e-05,0.00011929892018638555,-2.8583835614447422e-05
4.701111078262329,-0.0003429859342057403,1.8136090767708365e-09,-1.0285213370745514e-13,-0.0008336687653936853,-2.5798839795115372e-14,-2.706924619923221e-05,9.271228185643662e-05,-6.532951513095391e-06
4.709872484207153,-0.00032583663749545327,1.7229286229322947e-09,-9.770952702208239e-14,-0.000791985327124001,-2.45088978053596e-14,-2.5715783889270596e-05,1.019781903387639e-05,7.167254479229777e-05
4.720068454742432,-0.0005015074280416895,1.63678219178568e-09,-9.282405067097826e-14,-0.0007523860607678009,-2.328345291509162e-14,-2.4429994694807064e-05,-0.00014722755473341276,9.050541509776064e-05
4.730364799499512,-0.0006665357498788786,1.5549430821963958e-09,-8.818284813742934e-14,-0.0007147667577294108,-2.2119280269337038e-14,-2.320849496006671e-05,-0.0001398661769967337,-9.161521954885378e-05
4.740614652633667,-0.0008237021512541561,1.477195928086576e-09,-8.377370573055786e-14,-0.0006790284198429403,-2.1013316255870186e-14,2.2441737718095796e-05,4.5086363573786144e-05,-8.703445857142376e-05
4.749852180480957,-0.0009934502937008595,1.403336131682247e-09,-7.958502044402997e-14,-0.0006450769988507933,-1.9962650443076678e-14,0.00011984684579086018,6.746384413476412e-05,-8.787339423850692e-06
4.760304689407349,-0.0009437777790158165,1.3331693250981347e-09,-7.560576942182847e-14,-0.0006128231489082535,-1.8964517920922844e-14,-1.719805287600912e-05,0.00010777483738714021,3.5336213006456144e-05
4.771427869796753,-0.0010728310035000058,1.266510858843228e-09,-7.182548095073704e-14,-0.0005821819914628408,-1.80162920248767e-14,-1.6338150232208664e-05,8.18053655124873e-05,5.4150132361429246e-05
4.78076434135437,-0.0012277689450305791,1.2031853159010664e-09,-6.823420690320019e-14,-0.0005530728918896988,-1.7115477423632866e-14,-1.552124272059823e-05,-4.4069592011611914e-05,0.000124513439292439
4.790803909301758,-0.0013611979665346407,1.143026050106013e-09,-6.482249655804018e-14,-0.0005254192472952138,-1.625970355245122e-14,-1.4745180584568319e-05,-8.736585871602753e-05,7.278802102282082e-05
4.801020383834839,-0.0014852854553884492,1.0858747476007123e-09,-6.158137173013816e-14,-0.0004991482849304531,-1.5446718374828658e-14,-1.4007921555339902e-05,-1.568334525067865e-05,-0.00013279404161697976
4.810004234313965,-0.0016273164125255974,1.0315810102206767e-09,-5.850230314363125e-14,-0.0004741908706839304,-1.4674382456087223e-14,-1.3307525477572906e-05,-1.4899177988144718e-05,-0.00012615433953613078
4.820049524307251,-0.0015459505918993175,9.800019597096428e-10,-5.557718798644968e-14,-0.0004504813271497338,-1.3940663333282861e-14,0.00012363505936657855,3.1271517101359215e-05,-2.8995150179130853e-05
4.830410718917847,-0.0016575610478282133,9.310018617241606e-10,-5.2798328587127195e-14,-0.0004279572607922471,7.412122371670497e-05,7.333372373850955e-05,2.9707941246295446e-05,6.0693772649301645e-05
4.840527772903442,-0.0017678073882044826,8.844517686379525e-10,-5.015841215777083e-14,-0.0004065593977526347,7.041516253086971e-05,-2.0541617066120076e-05,-6.198611043373205e-05,0.0001478677386345493
4.849918842315674,-0.0016794170187942584,8.402291802060549e-10,-4.765049154988229e-14,-0.000386231427865003,6.689440440432623e-05,-1.9514536212814073e-05,6.243143256160154e-05,1.9156114229174816e-05
4.860159873962402,-0.0017861891376130317,7.982177211957521e-10,-4.526796697238817e-14,-0.00036691985647175284,6.354968418410992e-05,-1.853880940217337e-05,0.00010385800535255311,-2.6349835901315567e-05
4.87106466293335,-0.00169687968073238,7.583068351359644e-10,-4.300456862376876e-14,-0.00034857386364816516,6.037219997490442e-05,-1.76118689320647e-05,5.656792341122882e-05,-2.5032344106249785e-05
4.8801023960113525,-0.001827025596712738,7.203914933791661e-10,-4.085434019258032e-14,-0.0003311451704657569,5.735358997615919e-05,-1.6731275485461465e-05,-4.668253420374048e-05,-0.00012420278834534515
4.889995098114014,-0.0019334240053745498,6.843719187102078e-10,-3.88116231829513e-14,-0.00031458791194246904,5.448591047735123e-05,-1.589471171118839e-05,-9.053297562288605e-05,-2.5623512669408338e-05
4.900267839431763,-0.0018367528051058222,6.501533227746974e-10,-3.687104202380373e-14,-0.0002988585163453456,5.1761614953483665e-05,7.380862936415817e-05,-0.0001304606295866311,0.00015347487394365747
4.9111552238464355,-0.0017449151648505309,6.176456566359625e-10,-3.502748992261355e-14,-0.0002839155905280783,4.9173534205809476e-05,0.00011201093849238597,6.457973457664525e-05,-8.234618410344664e-07
4.920130968093872,-0.0018753412601502312,5.867633738041643e-10,-3.327611542648287e-14,-0.00026971981100167437,4.6714857495519e-05,-4.610181655973194e-05,8.67694492023993e-05,-2.6200990103569064e-05
4.930738925933838,-0.0017815741971427196,5.574252051139561e-10,-3.1612309655158724e-14,-0.00025623382045159064,4.437911462074305e-05,-4.379672573174534e-05,6.0947168871669874e-05,-3.407132727781158e-06
